(2)
(T2 D=3 CR=1.5 - ZMIN=3.869 - Frza s kulovm koncem)
N10 G90
N15 G17
N20 G21
(-Attention- Property Safe Retracts is set to Clearance Height.)
(Ensure the clearance height will clear the part and or fixtures.)
(Raise the Z-axis to a safe height before starting the program.)
(Parallel5)
N25 T2 M6
N30 S10000 M3
N35 G17 G90
N40 M8
N45 G0 X11.981 Y6.691
N50 Z22
N55 G0 Z10.166
N60 G1 Z7.72 F20
N65 G18 G3 X11.469 Z7.507 I-0.3 K0 F500
N70 G1 X10.121 Z8.85
N75 X9.947 Z8.994
N80 X9.72 Z9.14
N85 X9.431 Z9.272
N90 X9.211 Z9.339
N95 X8.94 Z9.388
N100 X8.66 Z9.401
N105 X8.424 Z9.382
N110 X8.223 Z9.346
N115 X7.979 Z9.275
N120 X7.771 Z9.187
N125 G3 X7.354 Z9.463 I-0.117 K0.276
N130 G0 Z11.655
N135 X12.15 Y6.841
N140 Z10.055
N145 G1 Z7.72 F500
N150 G3 X11.639 Z7.507 I-0.3 K0
N155 G1 X10.2 Z8.94
N160 X10.064 Z9.057
N165 X9.84 Z9.208
N170 X9.682 Z9.292
N175 X9.514 Z9.368
N180 X9.252 Z9.453
N185 X8.981 Z9.504
N190 X8.798 Z9.518
N195 X8.608 Z9.52
N200 X8.346 Z9.494
N205 X8.07 Z9.43
N210 X7.861 Z9.356
N215 X7.639 Z9.252
N220 X7.414 Z9.114
N225 X7.171 Z8.915
N230 G3 X6.681 Z9.147 I-0.19 K0.232
N235 G0 Z11.697
N240 X12.281 Y6.991
N245 Z9.973
N250 G1 Z7.72 F500
N255 G3 X11.769 Z7.507 I-0.3 K0
N260 G1 X10.266 Z9.005
N265 X10.125 Z9.125
N270 X9.902 Z9.278
N275 X9.743 Z9.365
N280 X9.493 Z9.474
N285 X9.229 Z9.554
N290 X8.957 Z9.6
N295 X8.677 Z9.613
N300 X8.457 Z9.6
N305 X8.208 Z9.561
N310 X7.924 Z9.481
N315 X7.691 Z9.384
N320 X7.396 Z9.213
N325 X7.127 Z9.001
N330 X6.982 Z8.852
N335 G3 X6.467 Z9.062 I-0.215 K0.21
N340 G0 Z11.73
N345 X12.38 Y7.141
N350 Z9.913
N355 G1 Z7.72 F500
N360 G3 X11.868 Z7.507 I-0.3 K0
N365 G1 X10.314 Z9.056
N370 X10.16 Z9.187
N375 X9.937 Z9.339
N380 X9.738 Z9.445
N385 X9.527 Z9.537
N390 X9.264 Z9.617
N395 X8.992 Z9.666
N400 X8.807 Z9.68
N405 X8.62 Z9.683
N410 X8.317 Z9.653
N415 X8.051 Z9.593
N420 X7.84 Z9.523
N425 X7.637 Z9.436
N430 X7.344 Z9.263
N435 X7.077 Z9.05
N440 X6.86 Z8.821
N445 G3 X6.343 Z9.028 I-0.218 K0.207
N450 G0 Z11.754
N455 X12.453 Y7.291
N460 Z9.87
N465 G1 Z7.72 F500
N470 G3 X11.941 Z7.507 I-0.3 K0
N475 G1 X10.347 Z9.095
N480 X10.166 Z9.247
N485 X9.939 Z9.398
N490 X9.697 Z9.521
N495 X9.485 Z9.605
N500 X9.264 Z9.67
N505 X8.992 Z9.718
N510 X8.808 Z9.732
N515 X8.618 Z9.734
N520 X8.346 Z9.709
N525 X8.14 Z9.669
N530 X7.937 Z9.614
N535 X7.624 Z9.486
N540 X7.33 Z9.316
N545 X7.061 Z9.104
N550 X6.822 Z8.855
N555 X6.777 Z8.799
N560 G3 X6.242 Z8.985 I-0.235 K0.186
N565 G0 Z11.772
N570 X12.501 Y7.441
N575 Z9.842
N580 G1 Z7.72 F500
N585 G3 X11.989 Z7.507 I-0.3 K0
N590 G1 X10.37 Z9.121
N595 X10.206 Z9.26
N600 X9.904 Z9.458
N605 X9.658 Z9.577
N610 X9.488 Z9.64
N615 X9.221 Z9.715
N620 X8.948 Z9.758
N625 X8.668 Z9.769
N630 X8.448 Z9.755
N635 X8.24 Z9.727
N640 X7.914 Z9.642
N645 X7.602 Z9.514
N650 X7.308 Z9.343
N655 X7.039 Z9.131
N660 X6.8 Z8.882
N665 X6.725 Z8.786
N670 G3 X6.187 Z8.969 I-0.237 K0.183
N675 G0 Z11.783
N680 X12.527 Y7.591
N685 Z9.827
N690 G1 Z7.72 F500
N695 G3 X12.016 Z7.507 I-0.3 K0
N700 G1 X10.388 Z9.13
N705 X10.164 Z9.314
N710 X9.934 Z9.463
N715 X9.606 Z9.619
N720 X9.344 Z9.704
N725 X9.166 Z9.743
N730 X8.89 Z9.781
N735 X8.608 Z9.787
N740 X8.336 Z9.761
N745 X8.089 Z9.71
N750 X7.848 Z9.638
N755 X7.614 Z9.54
N760 X7.319 Z9.372
N765 X7.049 Z9.164
N770 X6.807 Z8.919
N775 X6.697 Z8.778
N780 G3 X6.16 Z8.963 I-0.236 K0.185
N785 G0 Z11.788
N790 X12.533 Y7.741
N795 Z9.824
N800 G1 Z7.72 F500
N805 G3 X12.021 Z7.507 I-0.3 K0
N810 G1 X10.411 Z9.115
N815 X10.17 Z9.315
N820 X9.94 Z9.463
N825 X9.697 Z9.584
N830 X9.484 Z9.665
N835 X9.262 Z9.729
N840 X8.99 Z9.776
N845 X8.73 Z9.79
N850 X8.502 Z9.784
N855 X8.216 Z9.745
N860 X7.892 Z9.659
N865 X7.58 Z9.528
N870 X7.288 Z9.356
N875 X7.02 Z9.144
N880 X6.781 Z8.895
N885 X6.692 Z8.778
N890 G3 X6.153 Z8.96 I-0.239 K0.182
N895 G0 Z11.792
N900 X12.533 Y7.891
N905 Z9.824
N910 G1 Z7.72 F500
N915 G3 X12.021 Z7.507 I-0.3 K0
N920 G1 X10.408 Z9.117
N925 X10.185 Z9.304
N930 X9.957 Z9.454
N935 X9.672 Z9.595
N940 X9.458 Z9.673
N945 X9.281 Z9.724
N950 X9.009 Z9.773
N955 X8.825 Z9.788
N960 X8.55
N965 X8.216 Z9.745
N970 X7.892 Z9.659
N975 X7.58 Z9.528
N980 X7.288 Z9.356
N985 X7.02 Z9.144
N990 X6.781 Z8.895
N995 X6.69 Z8.776
N1000 G3 X6.151 Z8.957 I-0.239 K0.182
N1005 G0 Z11.792
N1010 X12.533 Y8.041
N1015 Z9.824
N1020 G1 Z7.72 F500
N1025 G3 X12.021 Z7.507 I-0.3 K0
N1030 G1 X10.408 Z9.117
N1035 X10.185 Z9.304
N1040 X9.957 Z9.454
N1045 X9.672 Z9.595
N1050 X9.458 Z9.673
N1055 X9.281 Z9.724
N1060 X9.009 Z9.773
N1065 X8.825 Z9.788
N1070 X8.55
N1075 X8.216 Z9.745
N1080 X7.892 Z9.659
N1085 X7.58 Z9.528
N1090 X7.288 Z9.356
N1095 X7.02 Z9.144
N1100 X6.781 Z8.895
N1105 X6.69 Z8.776
N1110 G3 X6.151 Z8.957 I-0.239 K0.182
N1115 G0 Z11.792
N1120 X12.533 Y8.191
N1125 Z9.824
N1130 G1 Z7.72 F500
N1135 G3 X12.021 Z7.507 I-0.3 K0
N1140 G1 X10.408 Z9.117
N1145 X10.185 Z9.304
N1150 X9.957 Z9.454
N1155 X9.672 Z9.595
N1160 X9.458 Z9.673
N1165 X9.281 Z9.724
N1170 X9.009 Z9.773
N1175 X8.825 Z9.788
N1180 X8.55
N1185 X8.216 Z9.745
N1190 X7.892 Z9.659
N1195 X7.58 Z9.528
N1200 X7.288 Z9.356
N1205 X7.02 Z9.144
N1210 X6.781 Z8.895
N1215 X6.69 Z8.776
N1220 G3 X6.151 Z8.957 I-0.239 K0.182
N1225 G0 Z11.792
N1230 X12.533 Y8.341
N1235 Z9.824
N1240 G1 Z7.72 F500
N1245 G3 X12.021 Z7.507 I-0.3 K0
N1250 G1 X10.408 Z9.117
N1255 X10.185 Z9.304
N1260 X9.957 Z9.454
N1265 X9.672 Z9.595
N1270 X9.458 Z9.673
N1275 X9.281 Z9.724
N1280 X9.009 Z9.773
N1285 X8.825 Z9.788
N1290 X8.55
N1295 X8.216 Z9.745
N1300 X7.892 Z9.659
N1305 X7.58 Z9.528
N1310 X7.288 Z9.356
N1315 X7.02 Z9.144
N1320 X6.781 Z8.895
N1325 X6.69 Z8.776
N1330 G3 X6.151 Z8.957 I-0.239 K0.182
N1335 G0 Z11.792
N1340 X12.533 Y8.491
N1345 Z9.824
N1350 G1 Z7.72 F500
N1355 G3 X12.021 Z7.507 I-0.3 K0
N1360 G1 X10.408 Z9.117
N1365 X10.185 Z9.304
N1370 X9.957 Z9.454
N1375 X9.672 Z9.595
N1380 X9.458 Z9.673
N1385 X9.281 Z9.724
N1390 X9.009 Z9.773
N1395 X8.825 Z9.788
N1400 X8.55
N1405 X8.216 Z9.745
N1410 X7.892 Z9.659
N1415 X7.58 Z9.528
N1420 X7.288 Z9.356
N1425 X7.02 Z9.144
N1430 X6.781 Z8.895
N1435 X6.69 Z8.776
N1440 G3 X6.151 Z8.957 I-0.239 K0.182
N1445 G0 Z11.792
N1450 X12.54 Y8.641
N1455 Z9.817
N1460 G1 Z7.73 F500
N1465 G3 X12.038 Z7.508 I-0.3 K0
N1470 G1 X11.849 Z7.68
N1475 X10.43 Z9.097
N1480 X10.224 Z9.275
N1485 X9.923 Z9.473
N1490 X9.593 Z9.628
N1495 X9.331 Z9.711
N1500 X9.06 Z9.765
N1505 X8.826 Z9.788
N1510 X8.529 Z9.787
N1515 X8.216 Z9.745
N1520 X7.892 Z9.659
N1525 X7.58 Z9.528
N1530 X7.288 Z9.356
N1535 X7.02 Z9.144
N1540 X6.781 Z8.895
N1545 X6.69 Z8.776
N1550 G3 X6.151 Z8.957 I-0.239 K0.182
N1555 G0 Z11.792
N1560 X12.578 Y8.791
N1565 Z9.779
N1570 G1 Z7.767 F500
N1575 G3 X12.129 Z7.507 I-0.3 K0
N1580 G1 X11.971 Z7.598
N1585 X11.874 Z7.669
N1590 X11.625 Z7.904
N1595 X10.469 Z9.059
N1600 X10.267 Z9.239
N1605 X10.085 Z9.371
N1610 X9.892 Z9.49
N1615 X9.644 Z9.607
N1620 X9.341 Z9.709
N1625 X9.116 Z9.756
N1630 X8.933 Z9.782
N1635 X8.652 Z9.792
N1640 X8.464 Z9.78
N1645 X8.216 Z9.745
N1650 X7.892 Z9.659
N1655 X7.58 Z9.528
N1660 X7.288 Z9.356
N1665 X7.02 Z9.144
N1670 X6.781 Z8.895
N1675 X6.69 Z8.776
N1680 G3 X6.151 Z8.957 I-0.239 K0.182
N1685 G0 Z11.792
N1690 X12.799 Y8.941
N1695 Z9.624
N1700 G1 Z7.805 F500
N1705 G3 X12.461 Z7.507 I-0.3 K0
N1710 G1 X12.27 Z7.531
N1715 X12.134 Z7.569
N1720 X11.961 Z7.648
N1725 X11.795 Z7.756
N1730 X11.683 Z7.849
N1735 X10.521 Z9.007
N1740 X10.39 Z9.133
N1745 X10.177 Z9.309
N1750 X9.95 Z9.458
N1755 X9.663 Z9.599
N1760 X9.449 Z9.676
N1765 X9.271 Z9.727
N1770 X8.999 Z9.774
N1775 X8.814 Z9.789
N1780 X8.653 Z9.792
N1785 X8.464 Z9.78
N1790 X8.216 Z9.745
N1795 X7.892 Z9.659
N1800 X7.58 Z9.528
N1805 X7.288 Z9.356
N1810 X7.02 Z9.144
N1815 X6.781 Z8.895
N1820 X6.69 Z8.776
N1825 G3 X6.151 Z8.957 I-0.239 K0.182
N1830 G0 Z11.792
N1835 X33.961 Y9.091
N1840 Z9.59
N1845 G1 Z7.804 F500
N1850 G3 X33.62 Z7.507 I-0.3 K0
N1855 G1 X33.269 Z7.556
N1860 X32.945 Z7.575
N1865 X12.489 Z7.581
N1870 X12.204 Z7.607
N1875 X12.073 Z7.638
N1880 X11.905 Z7.706
N1885 X11.749 Z7.795
N1890 X11.61 Z7.918
N1895 X10.427 Z9.1
N1900 X10.221 Z9.277
N1905 X9.919 Z9.475
N1910 X9.589 Z9.629
N1915 X9.327 Z9.713
N1920 X9.044 Z9.767
N1925 X8.826 Z9.788
N1930 X8.527 Z9.786
N1935 X8.216 Z9.745
N1940 X7.892 Z9.659
N1945 X7.58 Z9.528
N1950 X7.288 Z9.356
N1955 X7.02 Z9.144
N1960 X6.781 Z8.895
N1965 X6.69 Z8.776
N1970 G3 X6.151 Z8.957 I-0.239 K0.182
N1975 G0 Z11.792
N1980 X34.302 Y9.241
N1985 Z9.561
N1990 G1 Z7.8 F500
N1995 G3 X33.936 Z7.507 I-0.3 K0
N2000 G1 X33.622 Z7.578
N2005 X33.255 Z7.619
N2010 X32.785 Z7.635
N2015 X12.446 Z7.638
N2020 X12.115 Z7.663
N2025 X11.972 Z7.698
N2030 X11.837 Z7.747
N2035 X11.735 Z7.805
N2040 X11.452 Z8.077
N2045 X10.466 Z9.063
N2050 X10.261 Z9.245
N2055 X10.118 Z9.35
N2060 X9.883 Z9.495
N2065 X9.635 Z9.611
N2070 X9.33 Z9.712
N2075 X9.059 Z9.765
N2080 X8.828 Z9.788
N2085 X8.547
N2090 X8.216 Z9.745
N2095 X7.892 Z9.659
N2100 X7.58 Z9.528
N2105 X7.288 Z9.356
N2110 X7.02 Z9.144
N2115 X6.781 Z8.895
N2120 X6.69 Z8.776
N2125 G3 X6.151 Z8.957 I-0.239 K0.182
N2130 G0 Z11.792
N2135 X34.527 Y9.391
N2140 Z9.538
N2145 G1 Z7.796 F500
N2150 G3 X34.147 Z7.507 I-0.3 K0
N2155 G1 X33.846 Z7.591
N2160 X33.549 Z7.64
N2165 X33.132 Z7.669
N2170 X31.805 Z7.675
N2175 X12.461 Z7.676
N2180 X12.05 Z7.695
N2185 X11.927 Z7.719
N2190 X11.868 Z7.736
N2195 X11.792 Z7.768
N2200 X11.726 Z7.812
N2205 X11.343 Z8.186
N2210 X10.406 Z9.119
N2215 X10.216 Z9.281
N2220 X9.913 Z9.479
N2225 X9.667 Z9.597
N2230 X9.497 Z9.661
N2235 X9.23 Z9.736
N2240 X8.957 Z9.78
N2245 X8.654 Z9.792
N2250 X8.381 Z9.77
N2255 X8.138 Z9.728
N2260 X7.892 Z9.659
N2265 X7.58 Z9.528
N2270 X7.288 Z9.356
N2275 X7.02 Z9.144
N2280 X6.781 Z8.895
N2285 X6.69 Z8.776
N2290 G3 X6.151 Z8.957 I-0.239 K0.182
N2295 G0 Z11.792
N2300 X34.69 Y9.541
N2305 Z9.518
N2310 G1 Z7.793 F500
N2315 G3 X34.299 Z7.507 I-0.3 K0
N2320 G1 X34.039 Z7.59
N2325 X33.727 Z7.654
N2330 X33.451 Z7.683
N2335 X32.885 Z7.698
N2340 X12.309 Z7.701
N2345 X11.973 Z7.711
N2350 X11.842 Z7.745
N2355 X11.748 Z7.795
N2360 X11.614 Z7.914
N2365 X10.431 Z9.096
N2370 X10.225 Z9.273
N2375 X9.925 Z9.472
N2380 X9.595 Z9.627
N2385 X9.333 Z9.711
N2390 X9.154 Z9.749
N2395 X8.878 Z9.786
N2400 X8.596 Z9.791
N2405 X8.298 Z9.76
N2410 X8.002 Z9.692
N2415 X7.792 Z9.62
N2420 X7.58 Z9.528
N2425 X7.288 Z9.356
N2430 X7.02 Z9.144
N2435 X6.781 Z8.895
N2440 X6.69 Z8.776
N2445 G3 X6.151 Z8.957 I-0.239 K0.182
N2450 G0 Z11.792
N2455 X34.802 Y9.691
N2460 Z9.501
N2465 G1 Z7.792 F500
N2470 G3 X34.409 Z7.507 I-0.3 K0
N2475 G1 X34.118 Z7.602
N2480 X33.786 Z7.67
N2485 X33.44 Z7.702
N2490 X30.099 Z7.707
N2495 X11.977 Z7.71
N2500 X11.861 Z7.739
N2505 X11.792 Z7.769
N2510 X11.648 Z7.88
N2515 X10.479 Z9.049
N2520 X10.278 Z9.231
N2525 X10.096 Z9.364
N2530 X9.863 Z9.506
N2535 X9.572 Z9.636
N2540 X9.309 Z9.718
N2545 X8.992 Z9.775
N2550 X8.759 Z9.79
N2555 X8.519 Z9.786
N2560 X8.197 Z9.742
N2565 X7.873 Z9.652
N2570 X7.563 Z9.519
N2575 X7.272 Z9.345
N2580 X7.006 Z9.132
N2585 X6.77 Z8.882
N2590 X6.69 Z8.776
N2595 G3 X6.15 Z8.956 I-0.24 K0.181
N2600 G0 Z11.792
N2605 X34.878 Y9.841
N2610 Z9.49
N2615 G1 Z7.794 F500
N2620 G3 X34.489 Z7.507 I-0.3 K0
N2625 G1 X34.156 Z7.612
N2630 X33.862 Z7.671
N2635 X33.586 Z7.7
N2640 X32.992 Z7.707
N2645 X11.977 Z7.71
N2650 X11.811 Z7.759
N2655 X11.648 Z7.88
N2660 X10.479 Z9.049
N2665 X10.278 Z9.231
N2670 X10.096 Z9.364
N2675 X9.863 Z9.506
N2680 X9.572 Z9.636
N2685 X9.309 Z9.718
N2690 X8.992 Z9.775
N2695 X8.759 Z9.79
N2700 X8.519 Z9.786
N2705 X8.197 Z9.742
N2710 X7.873 Z9.652
N2715 X7.563 Z9.519
N2720 X7.272 Z9.345
N2725 X7.006 Z9.132
N2730 X6.77 Z8.882
N2735 X6.69 Z8.776
N2740 G3 X6.15 Z8.956 I-0.24 K0.181
N2745 G0 Z11.792
N2750 X34.918 Y9.991
N2755 Z9.485
N2760 G1 Z7.792 F500
N2765 G3 X34.525 Z7.507 I-0.3 K0
N2770 G1 X34.306 Z7.578
N2775 X33.991 Z7.651
N2780 X33.763 Z7.685
N2785 X33.405 Z7.707
N2790 X11.977 Z7.71
N2795 X11.811 Z7.759
N2800 X11.648 Z7.88
N2805 X10.479 Z9.049
N2810 X10.278 Z9.231
N2815 X10.096 Z9.364
N2820 X9.863 Z9.506
N2825 X9.572 Z9.636
N2830 X9.309 Z9.718
N2835 X8.992 Z9.775
N2840 X8.759 Z9.79
N2845 X8.519 Z9.786
N2850 X8.197 Z9.742
N2855 X7.873 Z9.652
N2860 X7.563 Z9.519
N2865 X7.272 Z9.345
N2870 X7.006 Z9.132
N2875 X6.77 Z8.882
N2880 X6.69 Z8.776
N2885 G3 X6.15 Z8.956 I-0.24 K0.181
N2890 G0 Z11.792
N2895 X34.92 Y10.141
N2900 Z9.484
N2905 G1 Z7.793 F500
N2910 G3 X34.531 Z7.507 I-0.3 K0
N2915 G1 X34.284 Z7.584
N2920 X34.013 Z7.648
N2925 X33.67 Z7.694
N2930 X33.368 Z7.707
N2935 X11.977 Z7.71
N2940 X11.811 Z7.759
N2945 X11.648 Z7.88
N2950 X10.479 Z9.049
N2955 X10.278 Z9.231
N2960 X10.096 Z9.364
N2965 X9.863 Z9.506
N2970 X9.572 Z9.636
N2975 X9.309 Z9.718
N2980 X8.992 Z9.775
N2985 X8.759 Z9.79
N2990 X8.519 Z9.786
N2995 X8.197 Z9.742
N3000 X7.873 Z9.652
N3005 X7.563 Z9.519
N3010 X7.272 Z9.345
N3015 X7.006 Z9.132
N3020 X6.77 Z8.882
N3025 X6.69 Z8.776
N3030 G3 X6.15 Z8.956 I-0.24 K0.181
N3035 G0 Z11.792
N3040 X34.92 Y10.291
N3045 Z9.484
N3050 G1 Z7.793 F500
N3055 G3 X34.531 Z7.507 I-0.3 K0
N3060 G1 X34.284 Z7.584
N3065 X33.968 Z7.655
N3070 X33.647 Z7.696
N3075 X33.368 Z7.707
N3080 X11.977 Z7.71
N3085 X11.811 Z7.759
N3090 X11.648 Z7.88
N3095 X10.479 Z9.049
N3100 X10.278 Z9.231
N3105 X10.096 Z9.364
N3110 X9.863 Z9.506
N3115 X9.572 Z9.636
N3120 X9.309 Z9.718
N3125 X8.992 Z9.775
N3130 X8.759 Z9.79
N3135 X8.519 Z9.786
N3140 X8.197 Z9.742
N3145 X7.873 Z9.652
N3150 X7.563 Z9.519
N3155 X7.272 Z9.345
N3160 X7.006 Z9.132
N3165 X6.77 Z8.882
N3170 X6.69 Z8.776
N3175 G3 X6.15 Z8.956 I-0.24 K0.181
N3180 G0 Z11.792
N3185 X34.92 Y10.441
N3190 Z9.484
N3195 G1 Z7.793 F500
N3200 G3 X34.531 Z7.507 I-0.3 K0
N3205 G1 X34.284 Z7.584
N3210 X33.968 Z7.655
N3215 X33.647 Z7.696
N3220 X33.368 Z7.707
N3225 X11.977 Z7.71
N3230 X11.811 Z7.759
N3235 X11.648 Z7.88
N3240 X10.479 Z9.049
N3245 X10.278 Z9.231
N3250 X10.096 Z9.364
N3255 X9.863 Z9.506
N3260 X9.572 Z9.636
N3265 X9.309 Z9.718
N3270 X8.992 Z9.775
N3275 X8.759 Z9.79
N3280 X8.519 Z9.786
N3285 X8.197 Z9.742
N3290 X7.873 Z9.652
N3295 X7.563 Z9.519
N3300 X7.272 Z9.345
N3305 X7.006 Z9.132
N3310 X6.77 Z8.882
N3315 X6.69 Z8.776
N3320 G3 X6.15 Z8.956 I-0.24 K0.181
N3325 G0 Z11.792
N3330 X34.92 Y10.591
N3335 Z9.484
N3340 G1 Z7.793 F500
N3345 G3 X34.531 Z7.507 I-0.3 K0
N3350 G1 X34.284 Z7.584
N3355 X33.968 Z7.655
N3360 X33.647 Z7.696
N3365 X33.368 Z7.707
N3370 X11.977 Z7.71
N3375 X11.811 Z7.759
N3380 X11.648 Z7.88
N3385 X10.479 Z9.049
N3390 X10.278 Z9.231
N3395 X10.096 Z9.364
N3400 X9.863 Z9.506
N3405 X9.572 Z9.636
N3410 X9.309 Z9.718
N3415 X8.992 Z9.775
N3420 X8.759 Z9.79
N3425 X8.519 Z9.786
N3430 X8.197 Z9.742
N3435 X7.873 Z9.652
N3440 X7.563 Z9.519
N3445 X7.272 Z9.345
N3450 X7.006 Z9.132
N3455 X6.77 Z8.882
N3460 X6.69 Z8.776
N3465 G3 X6.15 Z8.956 I-0.24 K0.181
N3470 G0 Z11.792
N3475 X34.92 Y10.741
N3480 Z9.484
N3485 G1 Z7.793 F500
N3490 G3 X34.531 Z7.507 I-0.3 K0
N3495 G1 X34.284 Z7.584
N3500 X33.968 Z7.655
N3505 X33.647 Z7.696
N3510 X33.368 Z7.707
N3515 X11.977 Z7.71
N3520 X11.811 Z7.759
N3525 X11.648 Z7.88
N3530 X10.479 Z9.049
N3535 X10.278 Z9.231
N3540 X10.096 Z9.364
N3545 X9.863 Z9.506
N3550 X9.572 Z9.636
N3555 X9.309 Z9.718
N3560 X8.992 Z9.775
N3565 X8.759 Z9.79
N3570 X8.519 Z9.786
N3575 X8.197 Z9.742
N3580 X7.873 Z9.652
N3585 X7.563 Z9.519
N3590 X7.272 Z9.345
N3595 X7.006 Z9.132
N3600 X6.77 Z8.882
N3605 X6.69 Z8.776
N3610 G3 X6.15 Z8.956 I-0.24 K0.181
N3615 G0 Z11.792
N3620 X34.92 Y10.891
N3625 Z9.484
N3630 G1 Z7.793 F500
N3635 G3 X34.531 Z7.507 I-0.3 K0
N3640 G1 X34.284 Z7.584
N3645 X33.968 Z7.655
N3650 X33.647 Z7.696
N3655 X33.368 Z7.707
N3660 X11.977 Z7.71
N3665 X11.811 Z7.759
N3670 X11.648 Z7.88
N3675 X10.479 Z9.049
N3680 X10.278 Z9.231
N3685 X10.096 Z9.364
N3690 X9.863 Z9.506
N3695 X9.572 Z9.636
N3700 X9.309 Z9.718
N3705 X8.992 Z9.775
N3710 X8.759 Z9.79
N3715 X8.519 Z9.786
N3720 X8.197 Z9.742
N3725 X7.873 Z9.652
N3730 X7.563 Z9.519
N3735 X7.272 Z9.345
N3740 X7.006 Z9.132
N3745 X6.77 Z8.882
N3750 X6.69 Z8.776
N3755 G3 X6.15 Z8.956 I-0.24 K0.181
N3760 G0 Z11.792
N3765 X34.92 Y11.041
N3770 Z9.484
N3775 G1 Z7.793 F500
N3780 G3 X34.531 Z7.507 I-0.3 K0
N3785 G1 X34.284 Z7.584
N3790 X33.968 Z7.655
N3795 X33.647 Z7.696
N3800 X33.368 Z7.707
N3805 X11.977 Z7.71
N3810 X11.811 Z7.759
N3815 X11.648 Z7.88
N3820 X10.479 Z9.049
N3825 X10.278 Z9.231
N3830 X10.096 Z9.364
N3835 X9.863 Z9.506
N3840 X9.572 Z9.636
N3845 X9.309 Z9.718
N3850 X8.992 Z9.775
N3855 X8.759 Z9.79
N3860 X8.519 Z9.786
N3865 X8.197 Z9.742
N3870 X7.873 Z9.652
N3875 X7.563 Z9.519
N3880 X7.272 Z9.345
N3885 X7.006 Z9.132
N3890 X6.77 Z8.882
N3895 X6.69 Z8.776
N3900 G3 X6.15 Z8.956 I-0.24 K0.181
N3905 G0 Z11.792
N3910 X34.92 Y11.191
N3915 Z9.484
N3920 G1 Z7.793 F500
N3925 G3 X34.531 Z7.507 I-0.3 K0
N3930 G1 X34.284 Z7.584
N3935 X33.968 Z7.655
N3940 X33.647 Z7.696
N3945 X33.368 Z7.707
N3950 X11.977 Z7.71
N3955 X11.811 Z7.759
N3960 X11.648 Z7.88
N3965 X10.479 Z9.049
N3970 X10.278 Z9.231
N3975 X10.096 Z9.364
N3980 X9.863 Z9.506
N3985 X9.572 Z9.636
N3990 X9.309 Z9.718
N3995 X8.992 Z9.775
N4000 X8.759 Z9.79
N4005 X8.519 Z9.786
N4010 X8.197 Z9.742
N4015 X7.873 Z9.652
N4020 X7.563 Z9.519
N4025 X7.272 Z9.345
N4030 X7.006 Z9.132
N4035 X6.77 Z8.882
N4040 X6.69 Z8.776
N4045 G3 X6.15 Z8.956 I-0.24 K0.181
N4050 G0 Z11.792
N4055 X34.92 Y11.341
N4060 Z9.484
N4065 G1 Z7.793 F500
N4070 G3 X34.531 Z7.507 I-0.3 K0
N4075 G1 X34.284 Z7.584
N4080 X33.968 Z7.655
N4085 X33.647 Z7.696
N4090 X33.368 Z7.707
N4095 X11.977 Z7.71
N4100 X11.811 Z7.759
N4105 X11.648 Z7.88
N4110 X10.479 Z9.049
N4115 X10.278 Z9.231
N4120 X10.096 Z9.364
N4125 X9.863 Z9.506
N4130 X9.572 Z9.636
N4135 X9.309 Z9.718
N4140 X8.992 Z9.775
N4145 X8.759 Z9.79
N4150 X8.519 Z9.786
N4155 X8.197 Z9.742
N4160 X7.873 Z9.652
N4165 X7.563 Z9.519
N4170 X7.272 Z9.345
N4175 X7.006 Z9.132
N4180 X6.77 Z8.882
N4185 X6.69 Z8.776
N4190 G3 X6.15 Z8.956 I-0.24 K0.181
N4195 G0 Z11.792
N4200 X34.92 Y11.491
N4205 Z9.484
N4210 G1 Z7.793 F500
N4215 G3 X34.531 Z7.507 I-0.3 K0
N4220 G1 X34.284 Z7.584
N4225 X33.968 Z7.655
N4230 X33.647 Z7.696
N4235 X33.368 Z7.707
N4240 X11.977 Z7.71
N4245 X11.811 Z7.759
N4250 X11.648 Z7.88
N4255 X10.479 Z9.049
N4260 X10.278 Z9.231
N4265 X10.096 Z9.364
N4270 X9.863 Z9.506
N4275 X9.572 Z9.636
N4280 X9.309 Z9.718
N4285 X8.992 Z9.775
N4290 X8.759 Z9.79
N4295 X8.519 Z9.786
N4300 X8.197 Z9.742
N4305 X7.873 Z9.652
N4310 X7.563 Z9.519
N4315 X7.272 Z9.345
N4320 X7.006 Z9.132
N4325 X6.77 Z8.882
N4330 X6.69 Z8.776
N4335 G3 X6.15 Z8.956 I-0.24 K0.181
N4340 G0 Z11.792
N4345 X34.92 Y11.641
N4350 Z9.484
N4355 G1 Z7.793 F500
N4360 G3 X34.531 Z7.507 I-0.3 K0
N4365 G1 X34.284 Z7.584
N4370 X33.968 Z7.655
N4375 X33.647 Z7.696
N4380 X33.367 Z7.707
N4385 X11.977 Z7.71
N4390 X11.811 Z7.759
N4395 X11.648 Z7.88
N4400 X10.479 Z9.049
N4405 X10.278 Z9.231
N4410 X10.096 Z9.364
N4415 X9.863 Z9.506
N4420 X9.572 Z9.636
N4425 X9.309 Z9.718
N4430 X8.992 Z9.775
N4435 X8.759 Z9.79
N4440 X8.519 Z9.786
N4445 X8.197 Z9.742
N4450 X7.873 Z9.652
N4455 X7.563 Z9.519
N4460 X7.272 Z9.345
N4465 X7.006 Z9.132
N4470 X6.77 Z8.882
N4475 X6.69 Z8.776
N4480 G3 X6.15 Z8.956 I-0.24 K0.181
N4485 G0 Z11.792
N4490 X34.92 Y11.791
N4495 Z9.484
N4500 G1 Z7.793 F500
N4505 G3 X34.531 Z7.507 I-0.3 K0
N4510 G1 X34.284 Z7.584
N4515 X33.968 Z7.655
N4520 X33.647 Z7.696
N4525 X33.367 Z7.707
N4530 X11.977 Z7.71
N4535 X11.811 Z7.759
N4540 X11.648 Z7.88
N4545 X10.479 Z9.049
N4550 X10.278 Z9.231
N4555 X10.096 Z9.364
N4560 X9.863 Z9.506
N4565 X9.572 Z9.636
N4570 X9.309 Z9.718
N4575 X8.992 Z9.775
N4580 X8.759 Z9.79
N4585 X8.519 Z9.786
N4590 X8.197 Z9.742
N4595 X7.873 Z9.652
N4600 X7.563 Z9.519
N4605 X7.272 Z9.345
N4610 X7.006 Z9.132
N4615 X6.77 Z8.882
N4620 X6.69 Z8.776
N4625 G3 X6.15 Z8.956 I-0.24 K0.181
N4630 G0 Z11.792
N4635 X34.92 Y11.941
N4640 Z9.484
N4645 G1 Z7.793 F500
N4650 G3 X34.531 Z7.507 I-0.3 K0
N4655 G1 X34.284 Z7.584
N4660 X33.968 Z7.655
N4665 X33.647 Z7.696
N4670 X33.367 Z7.707
N4675 X11.977 Z7.71
N4680 X11.811 Z7.759
N4685 X11.648 Z7.88
N4690 X10.479 Z9.049
N4695 X10.278 Z9.231
N4700 X10.096 Z9.364
N4705 X9.863 Z9.506
N4710 X9.572 Z9.636
N4715 X9.309 Z9.718
N4720 X8.992 Z9.775
N4725 X8.759 Z9.79
N4730 X8.519 Z9.786
N4735 X8.197 Z9.742
N4740 X7.873 Z9.652
N4745 X7.563 Z9.519
N4750 X7.272 Z9.345
N4755 X7.006 Z9.132
N4760 X6.77 Z8.882
N4765 X6.69 Z8.776
N4770 G3 X6.15 Z8.956 I-0.24 K0.181
N4775 G0 Z11.792
N4780 X34.92 Y12.091
N4785 Z9.484
N4790 G1 Z7.793 F500
N4795 G3 X34.531 Z7.507 I-0.3 K0
N4800 G1 X34.284 Z7.584
N4805 X33.968 Z7.655
N4810 X33.647 Z7.696
N4815 X33.367 Z7.707
N4820 X30.102 Z7.704
N4825 X29.308
N4830 X14.005 Z7.703
N4835 X13.143 Z7.706
N4840 X11.977 Z7.71
N4845 X11.88 Z7.732
N4850 X11.792 Z7.769
N4855 X11.648 Z7.88
N4860 X10.479 Z9.049
N4865 X10.278 Z9.231
N4870 X10.096 Z9.364
N4875 X9.863 Z9.506
N4880 X9.572 Z9.636
N4885 X9.309 Z9.718
N4890 X8.992 Z9.775
N4895 X8.759 Z9.79
N4900 X8.519 Z9.786
N4905 X8.197 Z9.742
N4910 X7.873 Z9.652
N4915 X7.563 Z9.519
N4920 X7.272 Z9.345
N4925 X7.006 Z9.132
N4930 X6.77 Z8.882
N4935 X6.69 Z8.776
N4940 G3 X6.15 Z8.956 I-0.24 K0.181
N4945 G0 Z11.792
N4950 X34.92 Y12.241
N4955 Z9.484
N4960 G1 Z7.793 F500
N4965 G3 X34.531 Z7.507 I-0.3 K0
N4970 G1 X34.284 Z7.584
N4975 X33.968 Z7.655
N4980 X33.647 Z7.696
N4985 X33.367 Z7.707
N4990 X30.472 Z7.704
N4995 X29.775 Z7.679
N5000 X29.288 Z7.689
N5005 X28.695 Z7.707
N5010 X14.472 Z7.704
N5015 X13.729 Z7.679
N5020 X13.201 Z7.693
N5025 X12.662 Z7.707
N5030 X11.98 Z7.71
N5035 X11.924 Z7.72
N5040 X11.814 Z7.758
N5045 X11.75 Z7.794
N5050 X11.616 Z7.913
N5055 X10.433 Z9.094
N5060 X10.227 Z9.272
N5065 X9.927 Z9.471
N5070 X9.597 Z9.626
N5075 X9.335 Z9.71
N5080 X9.157 Z9.749
N5085 X8.881 Z9.786
N5090 X8.599 Z9.791
N5095 X8.298 Z9.76
N5100 X8.002 Z9.692
N5105 X7.792 Z9.62
N5110 X7.58 Z9.528
N5115 X7.288 Z9.356
N5120 X7.02 Z9.144
N5125 X6.781 Z8.895
N5130 X6.69 Z8.776
N5135 G3 X6.151 Z8.957 I-0.239 K0.182
N5140 G0 Z11.792
N5145 X34.92 Y12.391
N5150 Z9.484
N5155 G1 Z7.793 F500
N5160 G3 X34.531 Z7.507 I-0.3 K0
N5165 G1 X34.284 Z7.584
N5170 X33.968 Z7.655
N5175 X33.647 Z7.696
N5180 X33.367 Z7.707
N5185 X30.717 Z7.704
N5190 X29.844 Z7.644
N5195 X29.509 Z7.646
N5200 X28.651 Z7.705
N5205 X14.699 Z7.704
N5210 X13.829 Z7.643
N5215 X13.5 Z7.646
N5220 X12.72 Z7.703
N5225 X11.972 Z7.711
N5230 X11.807 Z7.762
N5235 X11.751 Z7.793
N5240 X11.617 Z7.912
N5245 X10.434 Z9.093
N5250 X10.229 Z9.271
N5255 X9.967 Z9.448
N5260 X9.725 Z9.571
N5265 X9.509 Z9.657
N5270 X9.248 Z9.732
N5275 X8.975 Z9.777
N5280 X8.672 Z9.792
N5285 X8.464 Z9.78
N5290 X8.216 Z9.745
N5295 X7.892 Z9.659
N5300 X7.58 Z9.528
N5305 X7.288 Z9.356
N5310 X7.02 Z9.144
N5315 X6.781 Z8.895
N5320 X6.69 Z8.776
N5325 G3 X6.151 Z8.957 I-0.239 K0.182
N5330 G0 Z11.792
N5335 X34.92 Y12.541
N5340 Z9.484
N5345 G1 Z7.793 F500
N5350 G3 X34.531 Z7.507 I-0.3 K0
N5355 G1 X34.284 Z7.584
N5360 X33.968 Z7.655
N5365 X33.647 Z7.696
N5370 X33.367 Z7.707
N5375 X30.906 Z7.705
N5380 X30.528 Z7.672
N5385 X29.971 Z7.6
N5390 X29.786 Z7.588
N5395 X29.538 Z7.591
N5400 X29.23 Z7.623
N5405 X28.724 Z7.689
N5410 X28.388 Z7.707
N5415 X14.928 Z7.706
N5420 X14.57 Z7.677
N5425 X13.939 Z7.596
N5430 X13.691 Z7.586
N5435 X13.418 Z7.601
N5440 X12.631 Z7.697
N5445 X12.335 Z7.707
N5450 X11.958 Z7.713
N5455 X11.844 Z7.745
N5460 X11.749 Z7.795
N5465 X11.615 Z7.914
N5470 X10.432 Z9.095
N5475 X10.226 Z9.273
N5480 X9.925 Z9.472
N5485 X9.596 Z9.627
N5490 X9.334 Z9.711
N5495 X9.155 Z9.749
N5500 X8.879 Z9.786
N5505 X8.597 Z9.791
N5510 X8.298 Z9.76
N5515 X8.002 Z9.692
N5520 X7.792 Z9.62
N5525 X7.58 Z9.528
N5530 X7.288 Z9.356
N5535 X7.02 Z9.144
N5540 X6.781 Z8.895
N5545 X6.69 Z8.776
N5550 G3 X6.151 Z8.957 I-0.239 K0.182
N5555 G0 Z11.792
N5560 X34.92 Y12.691
N5565 Z9.484
N5570 G1 Z7.793 F500
N5575 G3 X34.531 Z7.507 I-0.3 K0
N5580 G1 X34.284 Z7.584
N5585 X33.968 Z7.655
N5590 X33.647 Z7.696
N5595 X33.367 Z7.707
N5600 X31.017 Z7.704
N5605 X30.771 Z7.681
N5610 X30.36 Z7.606
N5615 X30.001 Z7.536
N5620 X29.771 Z7.514
N5625 X29.559 Z7.518
N5630 X29.317 Z7.55
N5635 X28.689 Z7.673
N5640 X28.46 Z7.7
N5645 X28.083 Z7.707
N5650 X14.998 Z7.704
N5655 X14.689 Z7.669
N5660 X14.002 Z7.537
N5665 X13.796 Z7.515
N5670 X13.58 Z7.516
N5675 X13.324 Z7.549
N5680 X12.741 Z7.664
N5685 X12.466 Z7.699
N5690 X12.27 Z7.707
N5695 X11.977 Z7.71
N5700 X11.891 Z7.728
N5705 X11.792 Z7.769
N5710 X11.648 Z7.88
N5715 X10.479 Z9.049
N5720 X10.278 Z9.231
N5725 X10.096 Z9.364
N5730 X9.863 Z9.506
N5735 X9.572 Z9.636
N5740 X9.309 Z9.718
N5745 X8.992 Z9.775
N5750 X8.759 Z9.79
N5755 X8.519 Z9.786
N5760 X8.197 Z9.742
N5765 X7.873 Z9.652
N5770 X7.563 Z9.519
N5775 X7.272 Z9.345
N5780 X7.006 Z9.132
N5785 X6.77 Z8.882
N5790 X6.69 Z8.776
N5795 G3 X6.15 Z8.956 I-0.24 K0.181
N5800 G0 Z11.792
N5805 X13.568 Y12.841
N5810 Z9.595
N5815 G1 Z7.796 F500
N5820 G3 X13.187 Z7.508 I-0.3 K0
N5825 G1 X12.72 Z7.639
N5830 X12.442 Z7.69
N5835 X12.304 Z7.703
N5840 X11.986 Z7.71
N5845 X11.926 Z7.72
N5850 X11.82 Z7.755
N5855 X11.751 Z7.793
N5860 X11.617 Z7.912
N5865 X10.434 Z9.093
N5870 X10.229 Z9.271
N5875 X9.967 Z9.448
N5880 X9.725 Z9.571
N5885 X9.509 Z9.657
N5890 X9.248 Z9.732
N5895 X8.975 Z9.777
N5900 X8.674 Z9.792
N5905 X8.464 Z9.78
N5910 X8.216 Z9.745
N5915 X7.892 Z9.659
N5920 X7.58 Z9.528
N5925 X7.288 Z9.356
N5930 X7.02 Z9.144
N5935 X6.781 Z8.895
N5940 X6.69 Z8.776
N5945 G3 X6.151 Z8.957 I-0.239 K0.182
N5950 G0 Z11.792
N5955 X29.572
N5960 Z9.595
N5965 G1 Z7.796 F500
N5970 G3 X29.19 Z7.507 I-0.3 K0
N5975 G1 X28.752 Z7.632
N5980 X28.482 Z7.685
N5985 X28.298 Z7.704
N5990 X15.093 Z7.703
N5995 X14.867 Z7.677
N6000 X14.621 Z7.625
N6005 X14.211 Z7.507
N6010 X14.203 Y12.843 Z7.503
N6015 X14.195 Y12.845 Z7.5
N6020 X14.186 Y12.848 Z7.496
N6025 X14.178 Y12.85 Z7.492
N6030 X14.17 Y12.853 Z7.489
N6035 X14.162 Y12.855 Z7.485
N6040 X14.154 Y12.858 Z7.481
N6045 X14.145 Y12.86 Z7.478
N6050 X14.141 Y12.863 Z7.475
N6055 X14.136 Y12.867 Z7.471
N6060 X14.131 Y12.87 Z7.468
N6065 X14.126 Y12.873 Z7.465
N6070 X14.122 Y12.876 Z7.462
N6075 X14.117 Y12.88 Z7.458
N6080 X14.112 Y12.883 Z7.455
N6085 X14.107 Y12.886 Z7.452
N6090 Y12.892 Z7.448
N6095 Y12.899 Z7.444
N6100 X14.106 Y12.905 Z7.44
N6105 Y12.911 Z7.436
N6110 Y12.918 Z7.432
N6115 X14.107 Y12.924 Z7.428
N6120 Y12.93 Z7.424
N6125 X14.108 Y12.932 Z7.423
N6130 X14.103 Y12.936 Z7.419
N6135 X14.098 Y12.94 Z7.415
N6140 X14.094 Y12.944 Z7.411
N6145 X14.089 Y12.948 Z7.406
N6150 X14.085 Y12.952 Z7.402
N6155 X14.083 Y12.954 Z7.401
N6160 X14.077 Y12.956 Z7.397
N6165 X14.071 Y12.958 Z7.393
N6170 X14.066 Y12.961 Z7.39
N6175 X14.06 Y12.963 Z7.386
N6180 X14.054 Y12.966 Z7.382
N6185 X14.048 Y12.968 Z7.378
N6190 X14.042 Y12.97 Z7.374
N6195 X14.037 Y12.973 Z7.371
N6200 X14.022 Y12.976 Z7.363
N6205 X14.018 Y12.977 Z7.361
N6210 X14.016 Z7.36
N6215 X14.007 Y12.979 Z7.355
N6220 X13.992 Y12.983 Z7.348
N6225 X13.977 Y12.986 Z7.341
N6230 X13.945 Y12.988 Z7.33
N6235 X13.928 Y12.989 Z7.323
N6240 X13.926 Y12.99 Z7.322
N6245 X13.914 Z7.319
N6250 X13.894 Z7.314
N6255 X13.873 Z7.309
N6260 X13.853 Z7.305
N6265 X13.846 Z7.303
N6270 X13.844
N6275 X13.819 Z7.299
N6280 X13.792 Z7.295
N6285 X13.77 Z7.292
N6290 X13.768
N6295 X13.695 Z7.289
N6300 X13.621 Z7.293
N6305 X13.62
N6310 X13.603 Z7.296
N6315 X13.58 Z7.299
N6320 X13.578 Z7.3
N6325 X12.996 Z7.507
N6330 X12.693 Z7.615
N6335 X12.436 Z7.677
N6340 X12.196 Z7.705
N6345 X11.977 Z7.71
N6350 X11.837 Z7.747
N6355 X11.731 Z7.808
N6360 X11.313 Z8.215
N6365 X10.459 Z9.069
N6370 X10.254 Z9.251
N6375 X10.032 Z9.406
N6380 X9.834 Z9.519
N6385 X9.626 Z9.615
N6390 X9.365 Z9.701
N6395 X9.141 Z9.752
N6400 X8.912 Z9.784
N6405 X8.653 Z9.792
N6410 X8.464 Z9.78
N6415 X8.216 Z9.745
N6420 X7.892 Z9.659
N6425 X7.58 Z9.528
N6430 X7.288 Z9.356
N6435 X7.02 Z9.144
N6440 X6.781 Z8.895
N6445 X6.69 Z8.776
N6450 G3 X6.151 Z8.957 I-0.239 K0.182
N6455 G0 Z11.792
N6460 X34.92 Y12.841
N6465 Z9.484
N6470 G1 Z7.793 F500
N6475 G3 X34.531 Z7.507 I-0.3 K0
N6480 G1 X34.284 Z7.584
N6485 X33.968 Z7.655
N6490 X33.647 Z7.696
N6495 X33.366 Z7.707
N6500 X31.096 Z7.703
N6505 X30.826 Z7.67
N6510 X30.54 Z7.604
N6515 X30.21 Z7.507
N6520 X30.204 Y12.842 Z7.504
N6525 X30.197 Y12.844 Z7.501
N6530 X30.191 Y12.846 Z7.498
N6535 X30.184 Y12.848 Z7.496
N6540 X30.178 Y12.849 Z7.493
N6545 X30.17 Y12.852 Z7.489
N6550 X30.158 Y12.855 Z7.484
N6555 X30.151 Y12.858 Z7.48
N6560 X30.144 Y12.862 Z7.476
N6565 X30.137 Y12.865 Z7.472
N6570 X30.13 Y12.869 Z7.469
N6575 X30.123 Y12.872 Z7.465
N6580 X30.121 Y12.873 Z7.463
N6585 X30.116 Y12.878 Z7.459
N6590 X30.112 Y12.883 Z7.455
N6595 X30.107 Y12.888 Z7.45
N6600 X30.104 Y12.892 Z7.447
N6605 X30.103 Y12.893 Z7.446
N6610 X30.105 Y12.9 Z7.442
N6615 X30.106 Y12.906 Z7.439
N6620 X30.108 Y12.911 Z7.436
N6625 X30.109 Y12.917 Z7.433
N6630 X30.11 Y12.924 Z7.429
N6635 X30.111 Y12.93 Z7.425
N6640 Y12.931
N6645 X30.107 Y12.935 Z7.421
N6650 X30.102 Y12.939 Z7.416
N6655 X30.098 Y12.943 Z7.412
N6660 X30.094 Y12.948 Z7.408
N6665 X30.089 Y12.952 Z7.404
N6670 X30.088 Y12.953 Z7.402
N6675 X30.082 Y12.955 Z7.399
N6680 X30.076 Y12.958 Z7.395
N6685 X30.07 Y12.96 Z7.391
N6690 X30.064 Y12.963 Z7.388
N6695 X30.058 Y12.965 Z7.384
N6700 X30.052 Y12.968 Z7.38
N6705 X30.047 Y12.97 Z7.376
N6710 X30.041 Y12.972 Z7.373
N6715 X30.025 Y12.976 Z7.365
N6720 X30.01 Y12.979 Z7.357
N6725 X30.004 Y12.98 Z7.354
N6730 X30.003 Y12.981 Z7.353
N6735 X29.995 Y12.982 Z7.349
N6740 X29.98 Y12.986 Z7.342
N6745 X29.964 Y12.987 Z7.336
N6750 X29.948 Y12.988 Z7.331
N6755 X29.932 Y12.989 Z7.325
N6760 X29.916 Y12.99 Z7.319
N6765 X29.914 Z7.318
N6770 X29.913
N6775 X29.904 Z7.316
N6780 X29.88 Z7.311
N6785 X29.856 Z7.306
N6790 X29.834 Z7.301
N6795 X29.833
N6800 X29.797 Z7.296
N6805 X29.761 Z7.292
N6810 X29.757 Z7.291
N6815 X29.756
N6820 X29.681 Z7.289
N6825 X29.633 Z7.293
N6830 X29.606 Z7.295
N6835 X29.604
N6840 X29.582 Z7.299
N6845 X29.561 Z7.303
N6850 X29.545 Z7.306
N6855 X29.543
N6860 X28.994 Z7.508
N6865 X28.734 Z7.603
N6870 X28.467 Z7.671
N6875 X28.194 Z7.705
N6880 X27.25 Z7.707
N6885 X15.207 Z7.705
N6890 X15.027 Z7.687
N6895 X14.78 Z7.636
N6900 X14.482 Z7.538
N6905 X14.404 Z7.507
N6910 X14.356 Z7.497
N6915 X14.308 Z7.503
N6920 X14.265 Z7.523
N6925 X14.23 Z7.557
N6930 X14.207 Z7.599
N6935 X14.2 Z7.647
N6940 X14.192 Y12.991 Z7.693
N6945 X14.171 Y12.994 Z7.735
N6950 X14.138 Y12.999 Z7.768
N6955 X14.097 Y13.004 Z7.79
N6960 X14.051 Y13.01 Z7.797
N6965 X13.226 Y13.121
N6970 X13.18 Y13.127 Z7.79
N6975 X13.139 Y13.132 Z7.768
N6980 X13.106 Y13.137 Z7.735
N6985 X13.085 Y13.14 Z7.693
N6990 X13.077 Z7.647
N6995 Z7.646
N7000 X13.069 Z7.598
N7005 X13.046 Z7.555
N7010 X13.011 Z7.522
N7015 X12.967 Z7.502
N7020 X12.918 Z7.497
N7025 X12.871 Z7.507
N7030 X12.616 Z7.611
N7035 X12.394 Z7.671
N7040 X12.167 Z7.703
N7045 X11.948 Z7.714
N7050 X11.854 Z7.741
N7055 X11.743 Z7.799
N7060 X11.609 Z7.92
N7065 X10.426 Z9.101
N7070 X10.22 Z9.278
N7075 X9.918 Z9.476
N7080 X9.587 Z9.63
N7085 X9.325 Z9.713
N7090 X9.037 Z9.769
N7095 X8.824 Z9.788
N7100 X8.526 Z9.786
N7105 X8.216 Z9.745
N7110 X7.892 Z9.659
N7115 X7.58 Z9.528
N7120 X7.288 Z9.356
N7125 X7.02 Z9.144
N7130 X6.781 Z8.895
N7135 X6.69 Z8.776
N7140 G3 X6.151 Z8.957 I-0.239 K0.182
N7145 G0 Z11.792
N7150 X34.92 Y12.99
N7155 Z9.484
N7160 G1 Z7.793 F500
N7165 G3 X34.531 Z7.507 I-0.3 K0
N7170 G1 X34.284 Z7.584
N7175 X33.968 Z7.655
N7180 X33.647 Z7.696
N7185 X33.366 Z7.707
N7190 X31.197 Z7.704
N7195 X30.943 Z7.673
N7200 X30.699 Z7.613
N7205 X30.404 Z7.507
N7210 X30.358 Z7.499
N7215 X30.31 Z7.505
N7220 X30.267 Z7.526
N7225 X30.233 Z7.559
N7230 X30.211 Z7.602
N7235 X30.204 Z7.649
N7240 X30.197 Y12.991 Z7.695
N7245 X30.175 Y12.994 Z7.737
N7250 X30.143 Y12.999 Z7.77
N7255 X30.101 Y13.004 Z7.791
N7260 X30.055 Y13.01 Z7.799
N7265 X29.226 Y13.121
N7270 X29.18 Y13.127 Z7.791
N7275 X29.139 Y13.132 Z7.77
N7280 X29.106 Y13.137 Z7.737
N7285 X29.085 Y13.14 Z7.695
N7290 X29.077 Z7.649
N7295 Z7.646
N7300 X29.069 Z7.598
N7305 X29.046 Z7.555
N7310 X29.011 Z7.522
N7315 X28.966 Z7.501
N7320 X28.918 Z7.496
N7325 X28.87 Z7.507
N7330 X28.629 Z7.606
N7335 X28.442 Z7.661
N7340 X28.261 Z7.693
N7345 X28.037 Z7.707
N7350 X15.253 Z7.704
N7355 X15.002 Z7.67
N7360 X14.759 Z7.603
N7365 X14.529 Z7.508
N7370 X14.489 Z7.497
N7375 X14.447 Z7.498
N7380 X14.407 Z7.511
N7385 X14.372 Z7.534
N7390 X14.345 Z7.566
N7395 X14.328 Z7.605
N7400 X14.322 Z7.646
N7405 X14.314 Y13.141 Z7.693
N7410 X14.293 Y13.144 Z7.734
N7415 X14.26 Y13.147 Z7.768
N7420 X14.219 Y13.152 Z7.789
N7425 X14.173 Y13.157 Z7.796
N7430 X13.148 Y13.274
N7435 X13.102 Y13.279 Z7.789
N7440 X13.061 Y13.284 Z7.768
N7445 X13.028 Y13.287 Z7.734
N7450 X13.007 Y13.29 Z7.693
N7455 X12.999 Z7.646
N7460 Z7.644
N7465 G3 X12.788 Z7.507 I-0.15 K0
N7470 G1 X12.58 Z7.6
N7475 X12.361 Z7.666
N7480 X12.134 Z7.702
N7485 X11.939 Z7.717
N7490 X11.853 Z7.742
N7495 X11.748 Z7.795
N7500 X11.614 Z7.914
N7505 X10.432 Z9.096
N7510 X10.226 Z9.273
N7515 X9.925 Z9.472
N7520 X9.595 Z9.627
N7525 X9.333 Z9.711
N7530 X9.154 Z9.749
N7535 X8.879 Z9.786
N7540 X8.597 Z9.791
N7545 X8.298 Z9.76
N7550 X8.002 Z9.692
N7555 X7.792 Z9.62
N7560 X7.58 Z9.528
N7565 X7.288 Z9.356
N7570 X7.02 Z9.144
N7575 X6.781 Z8.895
N7580 X6.69 Z8.776
N7585 G3 X6.151 Z8.957 I-0.239 K0.182
N7590 G0 Z11.792
N7595 X34.92 Y13.14
N7600 Z9.485
N7605 G1 Z7.794 F500
N7610 G3 X34.531 Z7.507 I-0.3 K0
N7615 G1 X34.284 Z7.584
N7620 X33.968 Z7.655
N7625 X33.647 Z7.696
N7630 X33.366 Z7.707
N7635 X31.286 Z7.706
N7640 X31.085 Z7.685
N7645 X30.839 Z7.629
N7650 X30.601 Z7.541
N7655 X30.529 Z7.508
N7660 G3 X30.317 Z7.644 I-0.062 K0.137
N7665 G1 X30.31 Y13.141 Z7.691
N7670 X30.288 Y13.144 Z7.732
N7675 X30.256 Y13.147 Z7.766
N7680 X30.214 Y13.152 Z7.787
N7685 X30.168 Y13.157 Z7.794
N7690 X29.15 Y13.273
N7695 X29.104 Y13.279 Z7.787
N7700 X29.063 Y13.283 Z7.766
N7705 X29.03 Y13.287 Z7.732
N7710 X29.009 Y13.29 Z7.691
N7715 X29.001 Z7.644
N7720 Z7.643
N7725 G3 X28.789 Z7.507 I-0.15 K0
N7730 G1 X28.624 Z7.583
N7735 X28.452 Z7.643
N7740 X28.228 Z7.691
N7745 X27.995 Z7.707
N7750 X15.295 Z7.704
N7755 X15.127 Z7.684
N7760 X14.881 Z7.622
N7765 X14.662 Z7.533
N7770 X14.613 Z7.507
N7775 G3 X14.394 Z7.641 I-0.069 K0.133
N7780 G1 Z7.642
N7785 X14.387 Y13.291 Z7.688
N7790 X14.366 Y13.293 Z7.73
N7795 X14.333 Y13.297 Z7.763
N7800 X14.291 Y13.301 Z7.785
N7805 X14.245 Y13.306 Z7.792
N7810 X13.099 Y13.425
N7815 X13.053 Y13.43 Z7.785
N7820 X13.011 Y13.434 Z7.763
N7825 X12.978 Y13.438 Z7.73
N7830 X12.957 Y13.44 Z7.688
N7835 X12.95 Z7.642
N7840 G3 X12.734 Z7.507 I-0.15 K0
N7845 G1 X12.572 Z7.586
N7850 X12.401 Z7.647
N7855 X12.222 Z7.687
N7860 X11.941 Z7.716
N7865 X11.849 Z7.743
N7870 X11.75 Z7.794
N7875 X11.616 Z7.913
N7880 X10.433 Z9.095
N7885 X10.227 Z9.272
N7890 X9.926 Z9.471
N7895 X9.597 Z9.626
N7900 X9.335 Z9.71
N7905 X9.156 Z9.749
N7910 X8.881 Z9.786
N7915 X8.599 Z9.791
N7920 X8.298 Z9.76
N7925 X8.002 Z9.692
N7930 X7.792 Z9.62
N7935 X7.58 Z9.528
N7940 X7.288 Z9.356
N7945 X7.02 Z9.144
N7950 X6.781 Z8.895
N7955 X6.69 Z8.776
N7960 G3 X6.151 Z8.957 I-0.239 K0.182
N7965 G0 Z11.79
N7970 X34.92 Y13.29
N7975 Z9.485
N7980 G1 Z7.794 F500
N7985 G3 X34.531 Z7.507 I-0.3 K0
N7990 G1 X34.284 Z7.584
N7995 X33.968 Z7.655
N8000 X33.647 Z7.696
N8005 X33.366 Z7.707
N8010 X31.286 Z7.703
N8015 X31.044 Z7.667
N8020 X30.802 Z7.594
N8025 X30.614 Z7.508
N8030 G3 X30.402 Z7.644 I-0.062 K0.136
N8035 G1 X30.395 Y13.291 Z7.691
N8040 X30.373 Y13.293 Z7.732
N8045 X30.34 Y13.297 Z7.766
N8050 X30.299 Y13.301 Z7.787
N8055 X30.253 Y13.306 Z7.794
N8060 X29.098 Y13.425
N8065 X29.052 Y13.43 Z7.787
N8070 X29.01 Y13.434 Z7.766
N8075 X28.977 Y13.438 Z7.732
N8080 X28.956 Y13.44 Z7.691
N8085 X28.949 Z7.644
N8090 Z7.642
N8095 G3 X28.733 Z7.508 I-0.15 K0
N8100 G1 X28.57 Z7.587
N8105 X28.399 Z7.647
N8110 X28.22 Z7.687
N8115 X28.036 Z7.706
N8120 X15.346 Z7.705
N8125 X15.156 Z7.683
N8130 X14.921 Z7.621
N8135 X14.706 Z7.529
N8140 X14.666 Z7.508
N8145 G3 X14.445 Z7.64 I-0.071 K0.132
N8150 G1 Z7.642
N8155 X14.438 Y13.441 Z7.688
N8160 X14.417 Y13.443 Z7.73
N8165 X14.384 Y13.447 Z7.763
N8170 X14.342 Y13.451 Z7.785
N8175 X14.296 Y13.455 Z7.792
N8180 X13.072 Y13.576
N8185 X13.026 Y13.58 Z7.785
N8190 X12.985 Y13.584 Z7.763
N8195 X12.952 Y13.588 Z7.73
N8200 X12.93 Y13.59 Z7.688
N8205 X12.923 Z7.642
N8210 G3 X12.706 Z7.508 I-0.15 K0
N8215 G1 X12.544 Z7.588
N8220 X12.373 Z7.649
N8225 X12.194 Z7.689
N8230 X11.933 Z7.718
N8235 X11.826 Z7.753
N8240 X11.745 Z7.798
N8245 X11.611 Z7.918
N8250 X10.428 Z9.099
N8255 X10.222 Z9.276
N8260 X9.92 Z9.475
N8265 X9.59 Z9.629
N8270 X9.328 Z9.712
N8275 X9.057 Z9.765
N8280 X8.827 Z9.788
N8285 X8.528 Z9.787
N8290 X8.216 Z9.745
N8295 X7.892 Z9.659
N8300 X7.58 Z9.528
N8305 X7.288 Z9.356
N8310 X7.02 Z9.144
N8315 X6.781 Z8.895
N8320 X6.69 Z8.776
N8325 G3 X6.151 Z8.957 I-0.239 K0.182
N8330 G0 Z11.79
N8335 X34.92 Y13.44
N8340 Z9.485
N8345 G1 Z7.794 F500
N8350 G3 X34.531 Z7.507 I-0.3 K0
N8355 G1 X34.284 Z7.584
N8360 X33.968 Z7.655
N8365 X33.647 Z7.696
N8370 X33.366 Z7.707
N8375 X31.357 Z7.705
N8380 X31.156 Z7.683
N8385 X30.992 Z7.644
N8390 X30.753 Z7.553
N8395 X30.665 Z7.507
N8400 G3 X30.446 Z7.64 I-0.069 K0.133
N8405 G1 Z7.642
N8410 X30.439 Y13.441 Z7.689
N8415 X30.418 Y13.443 Z7.73
N8420 X30.385 Y13.447 Z7.764
N8425 X30.343 Y13.451 Z7.785
N8430 X30.297 Y13.455 Z7.792
N8435 X29.072 Y13.576
N8440 X29.025 Y13.58 Z7.785
N8445 X28.984 Y13.584 Z7.764
N8450 X28.951 Y13.588 Z7.73
N8455 X28.93 Y13.59 Z7.689
N8460 X28.922 Z7.642
N8465 G3 X28.706 Z7.508 I-0.15 K0
N8470 G1 X28.543 Z7.588
N8475 X28.372 Z7.648
N8480 X28.193 Z7.688
N8485 X28.01 Z7.706
N8490 X15.346 Z7.704
N8495 X15.172 Z7.682
N8500 X15.008 Z7.642
N8505 X14.849 Z7.584
N8510 X14.695 Z7.508
N8515 G3 X14.478 Z7.642 I-0.067 K0.134
N8520 G1 X14.471 Y13.591 Z7.688
N8525 X14.45 Y13.593 Z7.73
N8530 X14.417 Y13.596 Z7.763
N8535 X14.375 Y13.6 Z7.785
N8540 X14.329 Y13.605 Z7.792
N8545 X13.068 Y13.726
N8550 X13.022 Y13.731 Z7.785
N8555 X12.98 Y13.735 Z7.763
N8560 X12.947 Y13.738 Z7.73
N8565 X12.926 Y13.74 Z7.688
N8570 X12.919 Z7.642
N8575 G3 X12.702 Z7.508 I-0.15 K0
N8580 G1 X12.54 Z7.589
N8585 X12.369 Z7.649
N8590 X12.19 Z7.689
N8595 X11.932 Z7.718
N8600 X11.822 Z7.755
N8605 X11.744 Z7.798
N8610 X11.61 Z7.918
N8615 X10.427 Z9.1
N8620 X10.221 Z9.277
N8625 X9.919 Z9.475
N8630 X9.589 Z9.629
N8635 X9.327 Z9.713
N8640 X9.045 Z9.767
N8645 X8.826 Z9.788
N8650 X8.527 Z9.786
N8655 X8.216 Z9.745
N8660 X7.892 Z9.659
N8665 X7.58 Z9.528
N8670 X7.288 Z9.356
N8675 X7.02 Z9.144
N8680 X6.781 Z8.895
N8685 X6.69 Z8.776
N8690 G3 X6.151 Z8.957 I-0.239 K0.182
N8695 G0 Z11.79
N8700 X34.92 Y13.59
N8705 Z9.485
N8710 G1 Z7.794 F500
N8715 G3 X34.531 Z7.507 I-0.3 K0
N8720 G1 X34.284 Z7.584
N8725 X33.968 Z7.655
N8730 X33.647 Z7.696
N8735 X33.366 Z7.707
N8740 X31.365 Z7.705
N8745 X31.172 Z7.682
N8750 X31.008 Z7.642
N8755 X30.848 Z7.584
N8760 X30.695 Z7.508
N8765 G3 X30.478 Z7.642 I-0.067 K0.134
N8770 G1 X30.471 Y13.591 Z7.688
N8775 X30.45 Y13.593 Z7.73
N8780 X30.417 Y13.596 Z7.763
N8785 X30.375 Y13.6 Z7.785
N8790 X30.329 Y13.605 Z7.792
N8795 X29.066 Y13.726
N8800 X29.02 Y13.731 Z7.785
N8805 X28.978 Y13.735 Z7.763
N8810 X28.945 Y13.738 Z7.73
N8815 X28.924 Y13.74 Z7.688
N8820 X28.917 Z7.642
N8825 G3 X28.7 Z7.508 I-0.15 K0
N8830 G1 X28.538 Z7.588
N8835 X28.367 Z7.649
N8840 X28.188 Z7.689
N8845 X28.004 Z7.706
N8850 X15.347 Z7.704
N8855 X15.175 Z7.682
N8860 X15.012 Z7.642
N8865 X14.852 Z7.584
N8870 X14.699 Z7.507
N8875 G3 X14.481 Z7.641 I-0.067 K0.134
N8880 G1 Z7.643
N8885 X14.474 Y13.741 Z7.689
N8890 X14.453 Y13.743 Z7.731
N8895 X14.42 Y13.746 Z7.764
N8900 X14.378 Y13.75 Z7.785
N8905 X14.332 Y13.755 Z7.793
N8910 X13.082 Y13.876
N8915 X13.036 Y13.88 Z7.785
N8920 X12.995 Y13.884 Z7.764
N8925 X12.962 Y13.888 Z7.731
N8930 X12.94 Y13.89 Z7.689
N8935 X12.933 Z7.643
N8940 G3 X12.718 Z7.507 I-0.15 K0
N8945 G1 X12.529 Z7.598
N8950 X12.357 Z7.656
N8955 X12.177 Z7.693
N8960 X11.928 Z7.719
N8965 X11.808 Z7.761
N8970 X11.742 Z7.8
N8975 X11.608 Z7.92
N8980 X10.408 Z9.117
N8985 X10.219 Z9.279
N8990 X9.917 Z9.477
N8995 X9.671 Z9.596
N9000 X9.501 Z9.659
N9005 X9.234 Z9.735
N9010 X8.961 Z9.779
N9015 X8.654 Z9.792
N9020 X8.381 Z9.77
N9025 X8.138 Z9.728
N9030 X7.892 Z9.659
N9035 X7.58 Z9.528
N9040 X7.288 Z9.356
N9045 X7.02 Z9.144
N9050 X6.781 Z8.895
N9055 X6.69 Z8.776
N9060 G3 X6.151 Z8.957 I-0.239 K0.182
N9065 G0 Z11.002
N9070 X10.578 Y13.867 Z13.641
N9075 X34.507 Y13.743 Z9.591
N9080 X34.695 Y13.742 Z9.543
N9085 G1 X34.757 Y13.741 Z9.519 F500
N9090 X34.812 Z9.483
N9095 X34.857 Z9.436
N9100 X34.892 Z9.38
N9105 X34.913 Z9.318
N9110 X34.92 Y13.74 Z9.252
N9115 Z7.793
N9120 G3 X34.531 Z7.507 I-0.3 K0
N9125 G1 X34.284 Z7.584
N9130 X33.968 Z7.655
N9135 X33.647 Z7.696
N9140 X33.366 Z7.707
N9145 X31.366 Z7.705
N9150 X31.175 Z7.682
N9155 X31.012 Z7.642
N9160 X30.852 Z7.584
N9165 X30.698 Z7.507
N9170 G3 X30.481 Z7.641 I-0.067 K0.134
N9175 G1 Z7.643
N9180 X30.474 Y13.741 Z7.69
N9185 X30.453 Y13.743 Z7.731
N9190 X30.42 Y13.746 Z7.765
N9195 X30.378 Y13.75 Z7.786
N9200 X30.332 Y13.755 Z7.793
N9205 X29.081 Y13.876
N9210 X29.035 Y13.88 Z7.786
N9215 X28.994 Y13.884 Z7.765
N9220 X28.961 Y13.888 Z7.731
N9225 X28.939 Y13.89 Z7.69
N9230 X28.932 Z7.643
N9235 G3 X28.718 Z7.507 I-0.15 K0
N9240 G1 X28.516 Z7.603
N9245 X28.356 Z7.655
N9250 X28.177 Z7.692
N9255 X27.943 Z7.707
N9260 X15.348 Z7.704
N9265 X15.167 Z7.683
N9270 X15.003 Z7.644
N9275 X14.843 Z7.587
N9280 X14.682 Z7.507
N9285 G3 X14.465 Z7.642 I-0.066 K0.135
N9290 G1 Z7.644
N9295 X14.458 Y13.891 Z7.691
N9300 X14.437 Y13.893 Z7.732
N9305 X14.404 Y13.897 Z7.766
N9310 X14.362 Y13.901 Z7.787
N9315 X14.316 Y13.905 Z7.794
N9320 X13.121 Y14.025
N9325 X13.075 Y14.03 Z7.787
N9330 X13.033 Y14.034 Z7.766
N9335 X13 Y14.038 Z7.732
N9340 X12.979 Y14.04 Z7.691
N9345 X12.972 Z7.644
N9350 G3 X12.76 Z7.508 I-0.15 K0
N9355 G1 X12.552 Z7.602
N9360 X12.333 Z7.668
N9365 X12.152 Z7.698
N9370 X11.944 Z7.715
N9375 X11.872 Z7.734
N9380 X11.751 Z7.793
N9385 X11.617 Z7.911
N9390 X10.434 Z9.093
N9395 X10.229 Z9.271
N9400 X9.967 Z9.447
N9405 X9.725 Z9.571
N9410 X9.509 Z9.657
N9415 X9.248 Z9.732
N9420 X8.975 Z9.777
N9425 X8.679 Z9.792
N9430 X8.464 Z9.78
N9435 X8.216 Z9.745
N9440 X7.892 Z9.659
N9445 X7.58 Z9.528
N9450 X7.288 Z9.356
N9455 X7.02 Z9.144
N9460 X6.781 Z8.895
N9465 X6.69 Z8.776
N9470 G3 X6.151 Z8.957 I-0.239 K0.182
N9475 G0 Z11.79
N9480 X34.92 Y13.89
N9485 Z9.484
N9490 G1 Z7.793 F500
N9495 G3 X34.531 Z7.507 I-0.3 K0
N9500 G1 X34.284 Z7.584
N9505 X33.968 Z7.655
N9510 X33.647 Z7.696
N9515 X33.366 Z7.707
N9520 X31.362 Z7.705
N9525 X31.167 Z7.683
N9530 X31.003 Z7.644
N9535 X30.843 Z7.587
N9540 X30.683 Z7.508
N9545 G3 X30.466 Z7.642 I-0.066 K0.135
N9550 G1 Z7.643
N9555 X30.459 Y13.891 Z7.69
N9560 X30.438 Y13.893 Z7.731
N9565 X30.405 Y13.897 Z7.765
N9570 X30.363 Y13.901 Z7.786
N9575 X30.317 Y13.905 Z7.793
N9580 X29.123 Y14.025
N9585 X29.077 Y14.03 Z7.786
N9590 X29.035 Y14.034 Z7.765
N9595 X29.002 Y14.038 Z7.731
N9600 X28.981 Y14.04 Z7.69
N9605 X28.974 Z7.643
N9610 G3 X28.759 Z7.508 I-0.15 K0
N9615 G1 X28.595 Z7.586
N9620 X28.423 Z7.645
N9625 X28.244 Z7.686
N9630 X28.061 Z7.705
N9635 X15.314 Z7.704
N9640 X15.143 Z7.683
N9645 X14.979 Z7.646
N9650 X14.749 Z7.561
N9655 X14.641 Z7.508
N9660 G3 X14.425 Z7.642 I-0.066 K0.135
N9665 G1 Z7.644
N9670 X14.418 Y14.041 Z7.69
N9675 X14.396 Y14.044 Z7.732
N9680 X14.363 Y14.047 Z7.765
N9685 X14.322 Y14.052 Z7.787
N9690 X14.276 Y14.057 Z7.794
N9695 X13.189 Y14.174
N9700 X13.142 Y14.179 Z7.787
N9705 X13.101 Y14.184 Z7.765
N9710 X13.068 Y14.187 Z7.732
N9715 X13.047 Y14.19 Z7.69
N9720 X13.039 Z7.644
N9725 G3 X12.828 Z7.507 I-0.15 K0
N9730 G1 X12.659 Z7.583
N9735 X12.486 Z7.642
N9740 X12.307 Z7.682
N9745 X12.078 Z7.706
N9750 X11.938 Z7.717
N9755 X11.792 Z7.769
N9760 X11.649 Z7.879
N9765 X10.473 Z9.055
N9770 X10.272 Z9.236
N9775 X10.09 Z9.368
N9780 X9.897 Z9.487
N9785 X9.65 Z9.605
N9790 X9.368 Z9.701
N9795 X9.167 Z9.747
N9800 X8.939 Z9.781
N9805 X8.653 Z9.792
N9810 X8.464 Z9.78
N9815 X8.197 Z9.742
N9820 X7.873 Z9.652
N9825 X7.563 Z9.519
N9830 X7.272 Z9.345
N9835 X7.006 Z9.132
N9840 X6.77 Z8.882
N9845 X6.69 Z8.776
N9850 G3 X6.15 Z8.956 I-0.24 K0.181
N9855 G0 Z11.79
N9860 X34.92 Y14.04
N9865 Z9.484
N9870 G1 Z7.793 F500
N9875 G3 X34.531 Z7.507 I-0.3 K0
N9880 G1 X34.284 Z7.584
N9885 X33.968 Z7.655
N9890 X33.647 Z7.696
N9895 X33.366 Z7.707
N9900 X31.415
N9905 X31.226 Z7.696
N9910 X30.979 Z7.646
N9915 X30.818 Z7.591
N9920 X30.64 Z7.507
N9925 G3 X30.426 Z7.643 I-0.064 K0.136
N9930 G1 Z7.645
N9935 X30.419 Y14.041 Z7.692
N9940 X30.398 Y14.044 Z7.733
N9945 X30.365 Y14.047 Z7.767
N9950 X30.323 Y14.052 Z7.788
N9955 X30.277 Y14.057 Z7.795
N9960 X29.187 Y14.174
N9965 X29.141 Y14.179 Z7.788
N9970 X29.099 Y14.184 Z7.767
N9975 X29.066 Y14.187 Z7.733
N9980 X29.045 Y14.19 Z7.692
N9985 X29.038 Z7.645
N9990 G3 X28.829 Z7.507 I-0.15 K0
N9995 G1 X28.587 Z7.61
N10000 X28.411 Z7.661
N10005 X28.23 Z7.694
N10010 X28.022 Z7.707
N10015 X15.316 Z7.706
N10020 X15.105 Z7.684
N10025 X14.859 Z7.625
N10030 X14.629 Z7.535
N10035 X14.571 Z7.507
N10040 G3 X14.356 Z7.642 I-0.066 K0.135
N10045 G1 Z7.647
N10050 X14.348 Y14.191 Z7.693
N10055 X14.327 Y14.194 Z7.735
N10060 X14.294 Y14.198 Z7.768
N10065 X14.253 Y14.203 Z7.79
N10070 X14.207 Y14.209 Z7.797
N10075 X13.286 Y14.322
N10080 X13.24 Y14.328 Z7.79
N10085 X13.198 Y14.333 Z7.768
N10090 X13.165 Y14.337 Z7.735
N10095 X13.144 Y14.34 Z7.693
N10100 X13.137 Z7.647
N10105 X13.129 Z7.599
N10110 X13.107 Z7.556
N10115 X13.072 Z7.523
N10120 X13.028 Z7.503
N10125 X12.98 Z7.497
N10130 X12.933 Z7.507
N10135 X12.685 Z7.604
N10140 X12.428 Z7.672
N10145 X12.202 Z7.702
N10150 X11.977 Z7.71
N10155 X11.884 Z7.73
N10160 X11.791 Z7.769
N10165 X11.648 Z7.881
N10170 X10.479 Z9.05
N10175 X10.277 Z9.231
N10180 X10.096 Z9.364
N10185 X9.862 Z9.506
N10190 X9.571 Z9.636
N10195 X9.308 Z9.718
N10200 X8.991 Z9.775
N10205 X8.759 Z9.79
N10210 X8.519 Z9.786
N10215 X8.197 Z9.742
N10220 X7.873 Z9.652
N10225 X7.563 Z9.519
N10230 X7.272 Z9.345
N10235 X7.006 Z9.132
N10240 X6.77 Z8.882
N10245 X6.69 Z8.776
N10250 G3 X6.15 Z8.956 I-0.24 K0.181
N10255 G0 Z11.79
N10260 X34.92 Y14.19
N10265 Z9.484
N10270 G1 Z7.793 F500
N10275 G3 X34.531 Z7.507 I-0.3 K0
N10280 G1 X34.284 Z7.584
N10285 X33.968 Z7.655
N10290 X33.647 Z7.696
N10295 X33.366 Z7.707
N10300 X31.286 Z7.704
N10305 X31.105 Z7.684
N10310 X30.859 Z7.625
N10315 X30.628 Z7.535
N10320 X30.572 Z7.508
N10325 G3 X30.356 Z7.642 I-0.066 K0.135
N10330 G1 Z7.647
N10335 X30.349 Y14.191 Z7.693
N10340 X30.328 Y14.194 Z7.735
N10345 X30.295 Y14.198 Z7.768
N10350 X30.253 Y14.203 Z7.79
N10355 X30.207 Y14.209 Z7.797
N10360 X29.284 Y14.322
N10365 X29.238 Y14.328 Z7.79
N10370 X29.197 Y14.333 Z7.768
N10375 X29.164 Y14.337 Z7.735
N10380 X29.143 Y14.34 Z7.693
N10385 X29.135 Z7.647
N10390 X29.128 Z7.599
N10395 X29.105 Z7.557
N10400 X29.07 Z7.523
N10405 X29.026 Z7.503
N10410 X28.978 Z7.497
N10415 X28.931 Z7.507
N10420 X28.671 Z7.608
N10425 X28.404 Z7.676
N10430 X28.147 Z7.706
N10435 X15.251 Z7.705
N10440 X15.053 Z7.686
N10445 X14.797 Z7.629
N10450 X14.568 Z7.549
N10455 X14.467 Z7.507
N10460 X14.46 Y14.343 Z7.505
N10465 X14.448 Y14.347 Z7.501
N10470 X14.437 Y14.351 Z7.497
N10475 X14.425 Y14.355 Z7.493
N10480 X14.423
N10485 X14.421 Y14.356 Z7.492
N10490 X14.41 Y14.36 Z7.489
N10495 X14.406 Y14.361 Z7.488
N10500 X14.375 Y14.386 Z7.486
N10505 X14.377 Y14.392 Z7.489
N10510 X14.379 Y14.398 Z7.492
N10515 X14.381 Y14.404 Z7.495
N10520 X14.383 Y14.41 Z7.499
N10525 X14.386 Y14.416 Z7.503
N10530 X14.388 Y14.422 Z7.506
N10535 X14.391 Y14.429 Z7.51
N10540 X14.392 Y14.43 Z7.511
N10545 X14.372 Y14.452
N10550 X14.352 Y14.461 Z7.508
N10555 X14.332 Y14.469 Z7.505
N10560 X14.326 Y14.472 Z7.504
N10565 X14.311 Y14.475 Z7.5
N10570 X14.296 Y14.479 Z7.496
N10575 X14.281 Y14.482 Z7.492
N10580 X14.265 Y14.486 Z7.488
N10585 X14.232 Y14.488 Z7.478
N10590 X14.2 Y14.49 Z7.468
N10595 X14.187 Z7.464
N10600 X14.175 Z7.459
N10605 X14.163 Z7.455
N10610 X14.151 Z7.451
N10615 X14.138 Z7.447
N10620 X14.126 Z7.443
N10625 X14.114 Z7.439
N10630 X14.102 Z7.435
N10635 X14.089 Z7.432
N10640 X14.077 Z7.428
N10645 X14.065 Z7.424
N10650 X14.047 Z7.418
N10655 X14.04 Z7.416
N10660 X14.028 Z7.413
N10665 X14.016 Z7.41
N10670 X14.004 Z7.406
N10675 X13.99 Z7.403
N10680 X13.976 Z7.399
N10685 X13.955 Z7.394
N10690 X13.952 Z7.393
N10695 X13.95 Z7.392
N10700 X13.935 Z7.389
N10705 X13.921 Z7.386
N10710 X13.907 Z7.384
N10715 X13.893 Z7.381
N10720 X13.88 Z7.378
N10725 X13.864 Z7.375
N10730 X13.862
N10735 X13.838 Z7.372
N10740 X13.811 Z7.368
N10745 X13.778 Z7.364
N10750 X13.776
N10755 X13.694 Z7.361
N10760 X13.62 Z7.365
N10765 X13.611
N10770 X13.61
N10775 X13.585 Z7.369
N10780 X13.556 Z7.373
N10785 X13.525 Z7.377
N10790 X13.524
N10795 X13.509 Z7.38
N10800 X13.485 Z7.385
N10805 X13.461 Z7.39
N10810 X13.436 Z7.395
N10815 X13.434 Z7.396
N10820 X13.427 Z7.398
N10825 X13.425 Z7.399
N10830 X13.088 Z7.507
N10835 X12.725 Z7.624
N10840 X12.454 Z7.682
N10845 X12.271 Z7.703
N10850 X11.952 Z7.714
N10855 X11.873 Z7.734
N10860 X11.787 Z7.772
N10865 X11.716 Z7.819
N10870 X10.413 Z9.113
N10875 X10.204 Z9.29
N10880 X9.9 Z9.486
N10885 X9.652 Z9.604
N10890 X9.371 Z9.7
N10895 X9.169 Z9.747
N10900 X8.941 Z9.781
N10905 X8.654 Z9.792
N10910 X8.381 Z9.77
N10915 X8.138 Z9.728
N10920 X7.892 Z9.659
N10925 X7.58 Z9.528
N10930 X7.288 Z9.356
N10935 X7.02 Z9.144
N10940 X6.781 Z8.895
N10945 X6.69 Z8.776
N10950 G3 X6.151 Z8.957 I-0.239 K0.182
N10955 G0 Z11.79
N10960 X34.92 Y14.34
N10965 Z9.484
N10970 G1 Z7.793 F500
N10975 G3 X34.531 Z7.507 I-0.3 K0
N10980 G1 X34.284 Z7.584
N10985 X33.968 Z7.655
N10990 X33.647 Z7.696
N10995 X33.366 Z7.707
N11000 X31.211 Z7.703
N11005 X30.97 Z7.671
N11010 X30.727 Z7.607
N11015 X30.468 Z7.508
N11020 X30.461 Y14.343 Z7.505
N11025 X30.449 Y14.347 Z7.501
N11030 X30.437 Y14.351 Z7.497
N11035 X30.425 Y14.354 Z7.494
N11040 X30.414 Y14.358 Z7.49
N11045 X30.412 Y14.359 Z7.489
N11050 X30.406 Y14.361 Z7.487
N11055 X30.374 Y14.386 Z7.485
N11060 X30.375 Y14.392 Z7.488
N11065 X30.377 Y14.398 Z7.491
N11070 X30.378 Y14.404 Z7.494
N11075 X30.38 Y14.41 Z7.498
N11080 X30.382 Y14.417 Z7.501
N11085 X30.384 Y14.423 Z7.505
N11090 X30.387 Y14.429 Z7.508
N11095 Y14.431 Z7.509
N11100 X30.367 Y14.453 Z7.51
N11105 X30.361 Y14.455 Z7.509
N11110 X30.36 Y14.456
N11115 X30.341 Y14.464 Z7.506
N11120 X30.322 Y14.472 Z7.502
N11125 X30.306 Y14.476 Z7.499
N11130 X30.291 Y14.479 Z7.495
N11135 X30.276 Y14.482 Z7.49
N11140 X30.261 Y14.486 Z7.486
N11145 X30.253 Z7.484
N11150 X30.251 Z7.483
N11155 X30.245 Y14.487 Z7.481
N11160 X30.228 Y14.488 Z7.476
N11165 X30.196 Y14.49 Z7.467
N11170 X30.182 Z7.462
N11175 X30.169 Z7.457
N11180 X30.155 Z7.452
N11185 X30.138 Z7.446
N11190 X30.128 Z7.443
N11195 X30.114 Z7.439
N11200 X30.1 Z7.435
N11205 X30.087 Z7.431
N11210 X30.073 Z7.426
N11215 X30.059 Z7.422
N11220 X30.045 Z7.418
N11225 X30.034 Z7.414
N11230 X30.032
N11235 X30.018 Z7.41
N11240 X30.004 Z7.407
N11245 X29.991 Z7.403
N11250 X29.977 Z7.4
N11255 X29.963 Z7.396
N11260 X29.943 Z7.391
N11265 X29.939 Z7.39
N11270 X29.937 Z7.389
N11275 X29.922 Z7.386
N11280 X29.894 Z7.381
N11285 X29.867 Z7.376
N11290 X29.849 Z7.373
N11295 X29.848 Z7.372
N11300 X29.825 Z7.37
N11305 X29.784 Z7.365
N11310 X29.765 Z7.363
N11315 X29.763
N11320 X29.679 Z7.361
N11325 X29.625 Z7.365
N11330 X29.596 Z7.367
N11335 X29.594
N11340 X29.574 Z7.37
N11345 X29.552 Z7.373
N11350 X29.53 Z7.377
N11355 X29.508 Z7.38
N11360 X29.506
N11365 X29.494 Z7.383
N11370 X29.475 Z7.387
N11375 X29.455 Z7.392
N11380 X29.446 Z7.394
N11385 X29.433 Z7.397
N11390 X29.432
N11395 X29.087 Z7.507
N11400 X28.702 Z7.63
N11405 X28.477 Z7.678
N11410 X28.201 Z7.706
N11415 X15.156 Z7.704
N11420 X14.903 Z7.675
N11425 X14.657 Z7.619
N11430 X14.312 Z7.507
N11435 X14.3 Y14.495 Z7.505
N11440 X14.278 Y14.503 Z7.501
N11445 X14.277 Y14.504 Z7.5
N11450 X14.265 Y14.508 Z7.499
N11455 X14.229 Y14.532 Z7.5
N11460 X14.22 Y14.545 Z7.503
N11465 X14.21 Y14.557 Z7.506
N11470 X14.208 Y14.561 Z7.507
N11475 X14.198 Y14.572 Z7.509
N11480 X14.187 Y14.584 Z7.512
N11485 X14.176 Y14.596 Z7.516
N11490 X14.172 Y14.601 Z7.517
N11495 X14.109 Y14.63 Z7.516
N11500 X14.107
N11505 X14.091 Y14.633 Z7.514
N11510 X14.073 Y14.635 Z7.511
N11515 X14.036 Y14.64 Z7.507
N11520 X14.021 Z7.504
N11525 X14 Z7.499
N11530 X13.998
N11535 X13.978 Z7.496
N11540 X13.949 Z7.492
N11545 X13.92 Z7.487
N11550 X13.895 Z7.483
N11555 X13.893
N11560 X13.862 Z7.48
N11565 X13.833 Z7.477
N11570 X13.793 Z7.474
N11575 X13.791 Z7.473
N11580 X13.693 Z7.471
N11585 X13.615 Z7.474
N11590 X13.593
N11595 X13.572 Z7.477
N11600 X13.542 Z7.48
N11605 X13.513 Z7.483
N11610 X13.493 Z7.485
N11615 X13.491
N11620 X13.469 Z7.489
N11625 X13.443 Z7.493
N11630 X13.419 Z7.497
N11635 X13.396 Z7.5
N11640 X13.386 Z7.502
N11645 X13.384
N11650 X13.364 Z7.506
N11655 X13.361 Z7.507
N11660 X12.747 Z7.65
N11665 X12.473 Z7.693
N11670 X12.196 Z7.707
N11675 X11.949 Z7.714
N11680 X11.81 Z7.76
N11685 X11.648 Z7.881
N11690 X10.479 Z9.05
N11695 X10.277 Z9.231
N11700 X10.096 Z9.364
N11705 X9.862 Z9.506
N11710 X9.571 Z9.636
N11715 X9.308 Z9.718
N11720 X8.991 Z9.775
N11725 X8.759 Z9.79
N11730 X8.519 Z9.786
N11735 X8.197 Z9.742
N11740 X7.873 Z9.652
N11745 X7.563 Z9.519
N11750 X7.272 Z9.345
N11755 X7.006 Z9.132
N11760 X6.77 Z8.882
N11765 X6.69 Z8.776
N11770 G3 X6.15 Z8.956 I-0.24 K0.181
N11775 G0 Z11.79
N11780 X34.92 Y14.49
N11785 Z9.484
N11790 G1 Z7.793 F500
N11795 G3 X34.531 Z7.507 I-0.3 K0
N11800 G1 X34.284 Z7.584
N11805 X33.968 Z7.655
N11810 X33.647 Z7.696
N11815 X33.366 Z7.707
N11820 X31.177 Z7.705
N11825 X30.903 Z7.675
N11830 X30.657 Z7.619
N11835 X30.312 Z7.507
N11840 X30.3 Y14.495 Z7.505
N11845 X30.277 Y14.504 Z7.501
N11850 X30.267 Y14.507 Z7.499
N11855 X30.266 Y14.508
N11860 X30.23 Y14.532 Z7.5
N11865 X30.22 Y14.545 Z7.503
N11870 X30.211 Y14.557 Z7.506
N11875 X30.208 Y14.561 Z7.507
N11880 X30.195 Y14.576 Z7.51
N11885 X30.189 Y14.582 Z7.512
N11890 X30.188 Y14.584
N11895 X30.179 Y14.594 Z7.515
N11900 X30.172 Y14.601 Z7.517
N11905 X30.11 Y14.63 Z7.516
N11910 X30.094 Y14.632 Z7.514
N11915 X30.091 Y14.633 Z7.513
N11920 X30.073 Y14.635 Z7.511
N11925 X30.036 Y14.64 Z7.507
N11930 X30.022 Z7.504
N11935 X30.007 Z7.501
N11940 X29.984 Z7.496
N11945 X29.964 Z7.494
N11950 X29.935 Z7.489
N11955 X29.906 Z7.485
N11960 X29.878 Z7.481
N11965 X29.877
N11970 X29.833 Z7.477
N11975 X29.79 Z7.474
N11980 X29.775 Z7.473
N11985 X29.675 Z7.471
N11990 X29.615 Z7.474
N11995 X29.575 Z7.476
N12000 X29.573
N12005 X29.555 Z7.478
N12010 X29.521 Z7.482
N12015 X29.487 Z7.486
N12020 X29.47 Z7.488
N12025 X29.466 Z7.489
N12030 X29.454 Z7.491
N12035 X29.427 Z7.495
N12040 X29.407 Z7.499
N12045 X29.388 Z7.502
N12050 X29.368 Z7.505
N12055 X29.361 Z7.507
N12060 X29.359
N12065 X28.738 Z7.652
N12070 X28.464 Z7.694
N12075 X28.186 Z7.707
N12080 X15.062 Z7.704
N12085 X14.776 Z7.673
N12090 X14.378 Z7.586
N12095 X14.038 Z7.507
N12100 G3 X13.67 Z7.799 I-0.068 K0.292
N12105 G0 Z9.613
N12110 X22.227 Z10.222
N12115 X34.201 Z9.673
N12120 X34.696 Z9.543
N12125 G3 X34.92 Z9.253 I-0.076 K-0.29 F500
N12130 G1 Z7.793
N12135 G3 X34.531 Z7.507 I-0.3 K0
N12140 G1 X34.284 Z7.584
N12145 X33.968 Z7.655
N12150 X33.647 Z7.696
N12155 X33.366 Z7.707
N12160 X31.096 Z7.706
N12165 X30.817 Z7.679
N12170 X30.489 Z7.614
N12175 X30.038 Z7.507
N12180 G3 X29.669 Z7.799 I-0.069 K0.292
N12185 G0 Z9.707
N12190 X34.62 Y14.782
N12195 G1 X34.687 Y14.784 Z9.7 F500
N12200 X34.75 Y14.786 Z9.677
N12205 X34.807 Y14.787 Z9.642
N12210 X34.855 Y14.789 Z9.594
N12215 X34.89 Y14.79 Z9.537
N12220 X34.913 Z9.474
N12225 X34.92 Z9.407
N12230 Z7.793
N12235 G3 X34.531 Z7.507 I-0.3 K0
N12240 G1 X34.284 Z7.584
N12245 X33.968 Z7.655
N12250 X33.647 Z7.696
N12255 X33.366 Z7.707
N12260 X30.986 Z7.706
N12265 X30.653 Z7.677
N12270 X29.986 Z7.573
N12275 X29.728 Z7.556
N12280 X29.481 Z7.566
N12285 X29.15 Z7.612
N12290 X28.64 Z7.69
N12295 X28.328 Z7.707
N12300 X14.922 Z7.703
N12305 X14.627 Z7.673
N12310 X14.032 Z7.578
N12315 X13.798 Z7.557
N12320 X13.562 Z7.559
N12325 X13.294 Z7.589
N12330 X12.658 Z7.688
N12335 X12.398 Z7.706
N12340 X11.955 Z7.713
N12345 X11.874 Z7.734
N12350 X11.791 Z7.77
N12355 X11.717 Z7.819
N12360 X10.414 Z9.112
N12365 X10.205 Z9.289
N12370 X9.901 Z9.486
N12375 X9.654 Z9.603
N12380 X9.375 Z9.699
N12385 X9.148 Z9.75
N12390 X8.942 Z9.781
N12395 X8.654 Z9.792
N12400 X8.381 Z9.77
N12405 X8.138 Z9.728
N12410 X7.892 Z9.659
N12415 X7.58 Z9.528
N12420 X7.288 Z9.356
N12425 X7.02 Z9.144
N12430 X6.781 Z8.895
N12435 X6.69 Z8.776
N12440 G3 X6.151 Z8.957 I-0.239 K0.182
N12445 G0 Z11.79
N12450 X34.92 Y14.94
N12455 Z9.484
N12460 G1 Z7.793 F500
N12465 G3 X34.531 Z7.507 I-0.3 K0
N12470 G1 X34.284 Z7.584
N12475 X33.968 Z7.655
N12480 X33.647 Z7.696
N12485 X33.366 Z7.707
N12490 X30.783 Z7.704
N12495 X30.324 Z7.664
N12500 X29.914 Z7.625
N12505 X29.602 Z7.62
N12510 X29.25 Z7.644
N12515 X28.682 Z7.7
N12520 X28.088 Z7.707
N12525 X14.777 Z7.703
N12530 X14.252 Z7.655
N12535 X13.827 Z7.621
N12540 X13.547 Z7.622
N12545 X13.126 Z7.658
N12550 X12.65 Z7.702
N12555 X12.463 Z7.707
N12560 X11.977 Z7.71
N12565 X11.9 Z7.726
N12570 X11.791 Z7.769
N12575 X11.648 Z7.881
N12580 X10.479 Z9.05
N12585 X10.277 Z9.231
N12590 X10.096 Z9.364
N12595 X9.862 Z9.506
N12600 X9.571 Z9.636
N12605 X9.308 Z9.718
N12610 X8.991 Z9.775
N12615 X8.759 Z9.79
N12620 X8.519 Z9.786
N12625 X8.197 Z9.742
N12630 X7.873 Z9.652
N12635 X7.563 Z9.519
N12640 X7.272 Z9.345
N12645 X7.006 Z9.132
N12650 X6.77 Z8.882
N12655 X6.69 Z8.776
N12660 G3 X6.15 Z8.956 I-0.24 K0.181
N12665 G0 Z11.79
N12670 X34.92 Y15.09
N12675 Z9.484
N12680 G1 Z7.793 F500
N12685 G3 X34.531 Z7.507 I-0.3 K0
N12690 G1 X34.284 Z7.584
N12695 X33.968 Z7.655
N12700 X33.647 Z7.696
N12705 X33.366 Z7.707
N12710 X30.569 Z7.703
N12715 X29.799 Z7.664
N12720 X29.355 Z7.673
N12725 X28.764 Z7.705
N12730 X14.57 Z7.703
N12735 X13.817 Z7.665
N12740 X13.389 Z7.672
N12745 X12.677 Z7.707
N12750 X11.963 Z7.712
N12755 X11.88 Z7.732
N12760 X11.79 Z7.77
N12765 X11.647 Z7.881
N12770 X10.478 Z9.051
N12775 X10.276 Z9.232
N12780 X10.095 Z9.365
N12785 X9.861 Z9.506
N12790 X9.571 Z9.636
N12795 X9.307 Z9.718
N12800 X8.99 Z9.776
N12805 X8.758 Z9.79
N12810 X8.518 Z9.786
N12815 X8.197 Z9.742
N12820 X7.873 Z9.652
N12825 X7.563 Z9.519
N12830 X7.272 Z9.345
N12835 X7.006 Z9.132
N12840 X6.77 Z8.882
N12845 X6.69 Z8.776
N12850 G3 X6.15 Z8.956 I-0.24 K0.181
N12855 G0 Z11.79
N12860 X34.92 Y15.24
N12865 Z9.484
N12870 G1 Z7.793 F500
N12875 G3 X34.531 Z7.507 I-0.3 K0
N12880 G1 X34.284 Z7.584
N12885 X33.968 Z7.655
N12890 X33.647 Z7.696
N12895 X33.366 Z7.707
N12900 X30.244 Z7.703
N12905 X29.58 Z7.693
N12910 X28.685 Z7.707
N12915 X14.337 Z7.705
N12920 X13.634 Z7.693
N12925 X12.685 Z7.707
N12930 X11.964 Z7.712
N12935 X11.79 Z7.77
N12940 X11.647 Z7.881
N12945 X10.478 Z9.05
N12950 X10.276 Z9.232
N12955 X10.095 Z9.365
N12960 X9.861 Z9.506
N12965 X9.571 Z9.636
N12970 X9.307 Z9.718
N12975 X8.99 Z9.776
N12980 X8.758 Z9.79
N12985 X8.518 Z9.786
N12990 X8.197 Z9.742
N12995 X7.873 Z9.652
N13000 X7.563 Z9.519
N13005 X7.272 Z9.345
N13010 X7.006 Z9.132
N13015 X6.77 Z8.882
N13020 X6.69 Z8.776
N13025 G3 X6.15 Z8.956 I-0.24 K0.181
N13030 G0 Z11.001
N13035 X10.527 Y15.263 Z13.613
N13040 X34.504 Y15.388 Z9.592
N13045 X34.695 Y15.389 Z9.543
N13050 G1 X34.757 Y15.39 Z9.519 F500
N13055 X34.812 Z9.483
N13060 X34.857 Z9.436
N13065 X34.892 Z9.38
N13070 X34.913 Z9.318
N13075 X34.92 Z9.252
N13080 Z7.793
N13085 G3 X34.531 Z7.507 I-0.3 K0
N13090 G1 X34.284 Z7.584
N13095 X33.968 Z7.655
N13100 X33.647 Z7.696
N13105 X33.366 Z7.707
N13110 X11.986 Z7.71
N13115 X11.928 Z7.719
N13120 X11.791 Z7.77
N13125 X11.647 Z7.881
N13130 X10.478 Z9.05
N13135 X10.277 Z9.232
N13140 X10.095 Z9.365
N13145 X9.862 Z9.506
N13150 X9.571 Z9.636
N13155 X9.307 Z9.718
N13160 X8.99 Z9.775
N13165 X8.758 Z9.79
N13170 X8.518 Z9.786
N13175 X8.197 Z9.742
N13180 X7.873 Z9.652
N13185 X7.563 Z9.519
N13190 X7.272 Z9.345
N13195 X7.006 Z9.132
N13200 X6.77 Z8.882
N13205 X6.69 Z8.776
N13210 G3 X6.15 Z8.956 I-0.24 K0.181
N13215 G0 Z11.79
N13220 X34.92 Y15.54
N13225 Z9.484
N13230 G1 Z7.793 F500
N13235 G3 X34.531 Z7.507 I-0.3 K0
N13240 G1 X34.284 Z7.584
N13245 X33.968 Z7.655
N13250 X33.647 Z7.696
N13255 X33.366 Z7.707
N13260 X11.968 Z7.711
N13265 X11.791 Z7.769
N13270 X11.648 Z7.881
N13275 X10.478 Z9.05
N13280 X10.277 Z9.232
N13285 X10.095 Z9.365
N13290 X9.862 Z9.506
N13295 X9.571 Z9.636
N13300 X9.308 Z9.718
N13305 X8.991 Z9.775
N13310 X8.758 Z9.79
N13315 X8.519 Z9.786
N13320 X8.197 Z9.742
N13325 X7.873 Z9.652
N13330 X7.563 Z9.519
N13335 X7.272 Z9.345
N13340 X7.006 Z9.132
N13345 X6.77 Z8.882
N13350 X6.69 Z8.776
N13355 G3 X6.15 Z8.956 I-0.24 K0.181
N13360 G0 Z11.79
N13365 X34.92 Y15.69
N13370 Z9.484
N13375 G1 Z7.793 F500
N13380 G3 X34.531 Z7.507 I-0.3 K0
N13385 G1 X34.284 Z7.584
N13390 X33.968 Z7.655
N13395 X33.647 Z7.696
N13400 X33.366 Z7.707
N13405 X11.968 Z7.711
N13410 X11.791 Z7.769
N13415 X11.648 Z7.881
N13420 X10.478 Z9.05
N13425 X10.277 Z9.232
N13430 X10.095 Z9.365
N13435 X9.862 Z9.506
N13440 X9.571 Z9.636
N13445 X9.308 Z9.718
N13450 X8.991 Z9.775
N13455 X8.758 Z9.79
N13460 X8.519 Z9.786
N13465 X8.197 Z9.742
N13470 X7.873 Z9.652
N13475 X7.563 Z9.519
N13480 X7.272 Z9.345
N13485 X7.006 Z9.132
N13490 X6.77 Z8.882
N13495 X6.69 Z8.776
N13500 G3 X6.15 Z8.956 I-0.24 K0.181
N13505 G0 Z11.79
N13510 X34.92 Y15.84
N13515 Z9.484
N13520 G1 Z7.793 F500
N13525 G3 X34.531 Z7.507 I-0.3 K0
N13530 G1 X34.284 Z7.584
N13535 X33.968 Z7.655
N13540 X33.647 Z7.696
N13545 X33.366 Z7.707
N13550 X11.968 Z7.711
N13555 X11.791 Z7.769
N13560 X11.648 Z7.881
N13565 X10.478 Z9.05
N13570 X10.277 Z9.232
N13575 X10.095 Z9.365
N13580 X9.862 Z9.506
N13585 X9.571 Z9.636
N13590 X9.308 Z9.718
N13595 X8.991 Z9.775
N13600 X8.758 Z9.79
N13605 X8.519 Z9.786
N13610 X8.197 Z9.742
N13615 X7.873 Z9.652
N13620 X7.563 Z9.519
N13625 X7.272 Z9.345
N13630 X7.006 Z9.132
N13635 X6.77 Z8.882
N13640 X6.69 Z8.776
N13645 G3 X6.15 Z8.956 I-0.24 K0.181
N13650 G0 Z11.79
N13655 X34.92 Y15.99
N13660 Z9.484
N13665 G1 Z7.793 F500
N13670 G3 X34.531 Z7.507 I-0.3 K0
N13675 G1 X34.284 Z7.584
N13680 X33.968 Z7.655
N13685 X33.647 Z7.696
N13690 X33.366 Z7.707
N13695 X11.968 Z7.711
N13700 X11.791 Z7.769
N13705 X11.648 Z7.881
N13710 X10.478 Z9.05
N13715 X10.277 Z9.232
N13720 X10.095 Z9.365
N13725 X9.862 Z9.506
N13730 X9.571 Z9.636
N13735 X9.308 Z9.718
N13740 X8.991 Z9.775
N13745 X8.758 Z9.79
N13750 X8.519 Z9.786
N13755 X8.197 Z9.742
N13760 X7.873 Z9.652
N13765 X7.563 Z9.519
N13770 X7.272 Z9.345
N13775 X7.006 Z9.132
N13780 X6.77 Z8.882
N13785 X6.69 Z8.776
N13790 G3 X6.15 Z8.956 I-0.24 K0.181
N13795 G0 Z11.79
N13800 X34.92 Y16.14
N13805 Z9.484
N13810 G1 Z7.793 F500
N13815 G3 X34.531 Z7.507 I-0.3 K0
N13820 G1 X34.284 Z7.584
N13825 X33.968 Z7.655
N13830 X33.647 Z7.696
N13835 X33.366 Z7.707
N13840 X11.968 Z7.711
N13845 X11.791 Z7.769
N13850 X11.648 Z7.881
N13855 X10.478 Z9.05
N13860 X10.277 Z9.232
N13865 X10.095 Z9.365
N13870 X9.862 Z9.506
N13875 X9.571 Z9.636
N13880 X9.308 Z9.718
N13885 X8.991 Z9.775
N13890 X8.758 Z9.79
N13895 X8.519 Z9.786
N13900 X8.197 Z9.742
N13905 X7.873 Z9.652
N13910 X7.563 Z9.519
N13915 X7.272 Z9.345
N13920 X7.006 Z9.132
N13925 X6.77 Z8.882
N13930 X6.69 Z8.776
N13935 G3 X6.15 Z8.956 I-0.24 K0.181
N13940 G0 Z11.79
N13945 X34.92 Y16.29
N13950 Z9.484
N13955 G1 Z7.793 F500
N13960 G3 X34.531 Z7.507 I-0.3 K0
N13965 G1 X34.284 Z7.584
N13970 X33.968 Z7.655
N13975 X33.646 Z7.696
N13980 X33.366 Z7.707
N13985 X11.977 Z7.71
N13990 X11.81 Z7.76
N13995 X11.648 Z7.881
N14000 X10.478 Z9.05
N14005 X10.277 Z9.231
N14010 X10.096 Z9.365
N14015 X9.862 Z9.506
N14020 X9.571 Z9.636
N14025 X9.308 Z9.718
N14030 X8.991 Z9.775
N14035 X8.758 Z9.79
N14040 X8.519 Z9.786
N14045 X8.197 Z9.742
N14050 X7.873 Z9.652
N14055 X7.563 Z9.519
N14060 X7.272 Z9.345
N14065 X7.006 Z9.132
N14070 X6.77 Z8.882
N14075 X6.69 Z8.776
N14080 G3 X6.15 Z8.956 I-0.24 K0.181
N14085 G0 Z11.79
N14090 X34.92 Y16.44
N14095 Z9.484
N14100 G1 Z7.793 F500
N14105 G3 X34.531 Z7.507 I-0.3 K0
N14110 G1 X34.284 Z7.584
N14115 X33.968 Z7.655
N14120 X33.646 Z7.696
N14125 X33.366 Z7.707
N14130 X11.977 Z7.71
N14135 X11.81 Z7.76
N14140 X11.648 Z7.881
N14145 X10.478 Z9.05
N14150 X10.277 Z9.231
N14155 X10.096 Z9.365
N14160 X9.862 Z9.506
N14165 X9.571 Z9.636
N14170 X9.308 Z9.718
N14175 X8.991 Z9.775
N14180 X8.758 Z9.79
N14185 X8.519 Z9.786
N14190 X8.197 Z9.742
N14195 X7.873 Z9.652
N14200 X7.563 Z9.519
N14205 X7.272 Z9.345
N14210 X7.006 Z9.132
N14215 X6.77 Z8.882
N14220 X6.69 Z8.776
N14225 G3 X6.15 Z8.956 I-0.24 K0.181
N14230 G0 Z11.79
N14235 X34.92 Y16.59
N14240 Z9.484
N14245 G1 Z7.793 F500
N14250 G3 X34.531 Z7.507 I-0.3 K0
N14255 G1 X34.284 Z7.584
N14260 X33.968 Z7.655
N14265 X33.646 Z7.696
N14270 X33.366 Z7.707
N14275 X11.977 Z7.71
N14280 X11.81 Z7.76
N14285 X11.648 Z7.881
N14290 X10.478 Z9.05
N14295 X10.277 Z9.231
N14300 X10.096 Z9.365
N14305 X9.862 Z9.506
N14310 X9.571 Z9.636
N14315 X9.308 Z9.718
N14320 X8.991 Z9.775
N14325 X8.758 Z9.79
N14330 X8.519 Z9.786
N14335 X8.197 Z9.742
N14340 X7.873 Z9.652
N14345 X7.563 Z9.519
N14350 X7.272 Z9.345
N14355 X7.006 Z9.132
N14360 X6.77 Z8.882
N14365 X6.69 Z8.776
N14370 G3 X6.15 Z8.956 I-0.24 K0.181
N14375 G0 Z11.79
N14380 X34.92 Y16.74
N14385 Z9.484
N14390 G1 Z7.793 F500
N14395 G3 X34.531 Z7.507 I-0.3 K0
N14400 G1 X34.284 Z7.584
N14405 X33.968 Z7.655
N14410 X33.646 Z7.696
N14415 X33.366 Z7.707
N14420 X11.977 Z7.71
N14425 X11.81 Z7.76
N14430 X11.648 Z7.881
N14435 X10.478 Z9.05
N14440 X10.277 Z9.231
N14445 X10.096 Z9.365
N14450 X9.862 Z9.506
N14455 X9.571 Z9.636
N14460 X9.308 Z9.718
N14465 X8.991 Z9.775
N14470 X8.758 Z9.79
N14475 X8.519 Z9.786
N14480 X8.197 Z9.742
N14485 X7.873 Z9.652
N14490 X7.563 Z9.519
N14495 X7.272 Z9.345
N14500 X7.006 Z9.132
N14505 X6.77 Z8.882
N14510 X6.69 Z8.776
N14515 G3 X6.15 Z8.956 I-0.24 K0.181
N14520 G0 Z11.79
N14525 X34.92 Y16.89
N14530 Z9.485
N14535 G1 Z7.794 F500
N14540 G3 X34.531 Z7.507 I-0.3 K0
N14545 G1 X34.284 Z7.584
N14550 X33.968 Z7.655
N14555 X33.647 Z7.696
N14560 X33.366 Z7.707
N14565 X11.977 Z7.71
N14570 X11.81 Z7.76
N14575 X11.648 Z7.881
N14580 X10.478 Z9.05
N14585 X10.277 Z9.231
N14590 X10.096 Z9.365
N14595 X9.862 Z9.506
N14600 X9.571 Z9.636
N14605 X9.308 Z9.718
N14610 X8.991 Z9.775
N14615 X8.758 Z9.79
N14620 X8.519 Z9.786
N14625 X8.197 Z9.742
N14630 X7.873 Z9.652
N14635 X7.563 Z9.519
N14640 X7.272 Z9.345
N14645 X7.006 Z9.132
N14650 X6.77 Z8.882
N14655 X6.69 Z8.776
N14660 G3 X6.15 Z8.956 I-0.24 K0.181
N14665 G0 Z11.79
N14670 X34.92 Y17.04
N14675 Z9.485
N14680 G1 Z7.794 F500
N14685 G3 X34.531 Z7.507 I-0.3 K0
N14690 G1 X34.284 Z7.584
N14695 X33.968 Z7.655
N14700 X33.646 Z7.696
N14705 X33.366 Z7.707
N14710 X11.977 Z7.71
N14715 X11.81 Z7.76
N14720 X11.648 Z7.881
N14725 X10.478 Z9.05
N14730 X10.277 Z9.231
N14735 X10.096 Z9.365
N14740 X9.862 Z9.506
N14745 X9.571 Z9.636
N14750 X9.308 Z9.718
N14755 X8.991 Z9.775
N14760 X8.758 Z9.79
N14765 X8.519 Z9.786
N14770 X8.197 Z9.742
N14775 X7.873 Z9.652
N14780 X7.563 Z9.519
N14785 X7.272 Z9.345
N14790 X7.006 Z9.132
N14795 X6.77 Z8.882
N14800 X6.69 Z8.776
N14805 G3 X6.15 Z8.956 I-0.24 K0.181
N14810 G0 Z11.79
N14815 X34.92 Y17.19
N14820 Z9.485
N14825 G1 Z7.794 F500
N14830 G3 X34.531 Z7.507 I-0.3 K0
N14835 G1 X34.284 Z7.584
N14840 X33.968 Z7.655
N14845 X33.646 Z7.696
N14850 X33.366 Z7.707
N14855 X11.977 Z7.71
N14860 X11.81 Z7.76
N14865 X11.648 Z7.881
N14870 X10.478 Z9.05
N14875 X10.277 Z9.231
N14880 X10.096 Z9.365
N14885 X9.862 Z9.506
N14890 X9.571 Z9.636
N14895 X9.308 Z9.718
N14900 X8.991 Z9.775
N14905 X8.758 Z9.79
N14910 X8.519 Z9.786
N14915 X8.197 Z9.742
N14920 X7.873 Z9.652
N14925 X7.563 Z9.519
N14930 X7.272 Z9.345
N14935 X7.006 Z9.132
N14940 X6.77 Z8.882
N14945 X6.69 Z8.776
N14950 G3 X6.15 Z8.956 I-0.24 K0.181
N14955 G0 Z11.79
N14960 X34.92 Y17.34
N14965 Z9.485
N14970 G1 Z7.794 F500
N14975 G3 X34.531 Z7.507 I-0.3 K0
N14980 G1 X34.284 Z7.584
N14985 X33.968 Z7.655
N14990 X33.646 Z7.696
N14995 X33.366 Z7.707
N15000 X11.977 Z7.71
N15005 X11.81 Z7.76
N15010 X11.648 Z7.881
N15015 X10.478 Z9.05
N15020 X10.277 Z9.231
N15025 X10.096 Z9.365
N15030 X9.862 Z9.506
N15035 X9.571 Z9.636
N15040 X9.308 Z9.718
N15045 X8.991 Z9.775
N15050 X8.758 Z9.79
N15055 X8.519 Z9.786
N15060 X8.197 Z9.742
N15065 X7.873 Z9.652
N15070 X7.563 Z9.519
N15075 X7.272 Z9.345
N15080 X7.006 Z9.132
N15085 X6.77 Z8.882
N15090 X6.69 Z8.776
N15095 G3 X6.15 Z8.956 I-0.24 K0.181
N15100 G0 Z11.79
N15105 X34.92 Y17.49
N15110 Z9.484
N15115 G1 Z7.793 F500
N15120 G3 X34.531 Z7.507 I-0.3 K0
N15125 G1 X34.284 Z7.584
N15130 X33.968 Z7.655
N15135 X33.646 Z7.696
N15140 X33.365 Z7.707
N15145 X11.977 Z7.71
N15150 X11.81 Z7.76
N15155 X11.648 Z7.881
N15160 X10.478 Z9.05
N15165 X10.277 Z9.231
N15170 X10.096 Z9.365
N15175 X9.862 Z9.506
N15180 X9.571 Z9.636
N15185 X9.308 Z9.718
N15190 X8.991 Z9.775
N15195 X8.758 Z9.79
N15200 X8.519 Z9.786
N15205 X8.197 Z9.742
N15210 X7.873 Z9.652
N15215 X7.563 Z9.519
N15220 X7.272 Z9.345
N15225 X7.006 Z9.132
N15230 X6.77 Z8.882
N15235 X6.69 Z8.776
N15240 G3 X6.15 Z8.956 I-0.24 K0.181
N15245 G0 Z11.79
N15250 X34.92 Y17.64
N15255 Z9.484
N15260 G1 Z7.793 F500
N15265 G3 X34.531 Z7.507 I-0.3 K0
N15270 G1 X34.284 Z7.584
N15275 X33.968 Z7.655
N15280 X33.646 Z7.696
N15285 X33.365 Z7.707
N15290 X11.977 Z7.71
N15295 X11.81 Z7.76
N15300 X11.648 Z7.881
N15305 X10.478 Z9.05
N15310 X10.277 Z9.231
N15315 X10.096 Z9.365
N15320 X9.862 Z9.506
N15325 X9.571 Z9.636
N15330 X9.308 Z9.718
N15335 X8.991 Z9.775
N15340 X8.758 Z9.79
N15345 X8.519 Z9.786
N15350 X8.197 Z9.742
N15355 X7.873 Z9.652
N15360 X7.563 Z9.519
N15365 X7.272 Z9.345
N15370 X7.006 Z9.132
N15375 X6.77 Z8.882
N15380 X6.69 Z8.776
N15385 G3 X6.15 Z8.956 I-0.24 K0.181
N15390 G0 Z11.79
N15395 X34.92 Y17.79
N15400 Z9.484
N15405 G1 Z7.793 F500
N15410 G3 X34.531 Z7.507 I-0.3 K0
N15415 G1 X34.284 Z7.584
N15420 X33.968 Z7.655
N15425 X33.646 Z7.696
N15430 X33.365 Z7.707
N15435 X11.977 Z7.71
N15440 X11.81 Z7.76
N15445 X11.648 Z7.881
N15450 X10.478 Z9.05
N15455 X10.277 Z9.231
N15460 X10.096 Z9.365
N15465 X9.862 Z9.506
N15470 X9.571 Z9.636
N15475 X9.308 Z9.718
N15480 X8.991 Z9.775
N15485 X8.758 Z9.79
N15490 X8.519 Z9.786
N15495 X8.197 Z9.742
N15500 X7.873 Z9.652
N15505 X7.563 Z9.519
N15510 X7.272 Z9.345
N15515 X7.006 Z9.132
N15520 X6.77 Z8.882
N15525 X6.69 Z8.776
N15530 G3 X6.15 Z8.956 I-0.24 K0.181
N15535 G0 Z11.79
N15540 X34.92 Y17.94
N15545 Z9.484
N15550 G1 Z7.793 F500
N15555 G3 X34.531 Z7.507 I-0.3 K0
N15560 G1 X34.284 Z7.584
N15565 X33.951 Z7.658
N15570 X33.646 Z7.696
N15575 X33.365 Z7.707
N15580 X11.977 Z7.71
N15585 X11.81 Z7.76
N15590 X11.648 Z7.881
N15595 X10.478 Z9.05
N15600 X10.277 Z9.231
N15605 X10.096 Z9.365
N15610 X9.862 Z9.506
N15615 X9.571 Z9.636
N15620 X9.308 Z9.718
N15625 X8.991 Z9.775
N15630 X8.758 Z9.79
N15635 X8.519 Z9.786
N15640 X8.197 Z9.742
N15645 X7.873 Z9.652
N15650 X7.563 Z9.519
N15655 X7.272 Z9.345
N15660 X7.006 Z9.132
N15665 X6.77 Z8.882
N15670 X6.69 Z8.776
N15675 G3 X6.15 Z8.956 I-0.24 K0.181
N15680 G0 Z11.79
N15685 X34.92 Y18.09
N15690 Z9.484
N15695 G1 Z7.793 F500
N15700 G3 X34.531 Z7.507 I-0.3 K0
N15705 G1 X34.284 Z7.584
N15710 X33.951 Z7.658
N15715 X33.646 Z7.696
N15720 X33.365 Z7.707
N15725 X11.977 Z7.71
N15730 X11.81 Z7.76
N15735 X11.648 Z7.881
N15740 X10.478 Z9.05
N15745 X10.277 Z9.231
N15750 X10.096 Z9.365
N15755 X9.862 Z9.506
N15760 X9.571 Z9.636
N15765 X9.308 Z9.718
N15770 X8.991 Z9.775
N15775 X8.758 Z9.79
N15780 X8.519 Z9.786
N15785 X8.197 Z9.742
N15790 X7.873 Z9.652
N15795 X7.563 Z9.519
N15800 X7.272 Z9.345
N15805 X7.006 Z9.132
N15810 X6.77 Z8.882
N15815 X6.69 Z8.776
N15820 G3 X6.15 Z8.956 I-0.24 K0.181
N15825 G0 Z11.79
N15830 X34.92 Y18.24
N15835 Z9.484
N15840 G1 Z7.793 F500
N15845 G3 X34.531 Z7.507 I-0.3 K0
N15850 G1 X34.284 Z7.584
N15855 X33.951 Z7.658
N15860 X33.646 Z7.696
N15865 X33.365 Z7.707
N15870 X11.977 Z7.71
N15875 X11.81 Z7.76
N15880 X11.648 Z7.881
N15885 X10.478 Z9.05
N15890 X10.277 Z9.231
N15895 X10.096 Z9.365
N15900 X9.862 Z9.506
N15905 X9.571 Z9.636
N15910 X9.308 Z9.718
N15915 X8.991 Z9.775
N15920 X8.758 Z9.79
N15925 X8.519 Z9.786
N15930 X8.197 Z9.742
N15935 X7.873 Z9.652
N15940 X7.563 Z9.519
N15945 X7.272 Z9.345
N15950 X7.006 Z9.132
N15955 X6.77 Z8.882
N15960 X6.69 Z8.776
N15965 G3 X6.15 Z8.956 I-0.24 K0.181
N15970 G0 Z11.791
N15975 X34.92 Y18.39
N15980 Z9.484
N15985 G1 Z7.793 F500
N15990 G3 X34.531 Z7.507 I-0.3 K0
N15995 G1 X34.284 Z7.584
N16000 X33.951 Z7.658
N16005 X33.646 Z7.696
N16010 X33.365 Z7.707
N16015 X11.977 Z7.71
N16020 X11.81 Z7.76
N16025 X11.648 Z7.881
N16030 X10.478 Z9.05
N16035 X10.277 Z9.231
N16040 X10.096 Z9.365
N16045 X9.862 Z9.506
N16050 X9.571 Z9.636
N16055 X9.308 Z9.718
N16060 X8.991 Z9.775
N16065 X8.758 Z9.79
N16070 X8.519 Z9.786
N16075 X8.197 Z9.742
N16080 X7.873 Z9.652
N16085 X7.563 Z9.519
N16090 X7.272 Z9.345
N16095 X7.006 Z9.132
N16100 X6.77 Z8.882
N16105 X6.69 Z8.776
N16110 G3 X6.15 Z8.956 I-0.24 K0.181
N16115 G0 Z11.791
N16120 X34.92 Y18.54
N16125 Z9.484
N16130 G1 Z7.793 F500
N16135 G3 X34.531 Z7.507 I-0.3 K0
N16140 G1 X34.284 Z7.584
N16145 X33.951 Z7.658
N16150 X33.646 Z7.696
N16155 X33.365 Z7.707
N16160 X11.977 Z7.71
N16165 X11.81 Z7.76
N16170 X11.648 Z7.881
N16175 X10.478 Z9.05
N16180 X10.277 Z9.231
N16185 X10.096 Z9.365
N16190 X9.862 Z9.506
N16195 X9.571 Z9.636
N16200 X9.308 Z9.718
N16205 X8.991 Z9.775
N16210 X8.758 Z9.79
N16215 X8.519 Z9.786
N16220 X8.197 Z9.742
N16225 X7.873 Z9.652
N16230 X7.563 Z9.519
N16235 X7.272 Z9.345
N16240 X7.006 Z9.132
N16245 X6.77 Z8.882
N16250 X6.69 Z8.776
N16255 G3 X6.15 Z8.956 I-0.24 K0.181
N16260 G0 Z11.791
N16265 X34.92 Y18.69
N16270 Z9.484
N16275 G1 Z7.793 F500
N16280 G3 X34.531 Z7.507 I-0.3 K0
N16285 G1 X34.284 Z7.584
N16290 X33.951 Z7.658
N16295 X33.646 Z7.696
N16300 X33.365 Z7.707
N16305 X11.977 Z7.71
N16310 X11.81 Z7.76
N16315 X11.648 Z7.881
N16320 X10.478 Z9.05
N16325 X10.277 Z9.231
N16330 X10.096 Z9.365
N16335 X9.862 Z9.506
N16340 X9.571 Z9.636
N16345 X9.308 Z9.718
N16350 X8.991 Z9.775
N16355 X8.758 Z9.79
N16360 X8.519 Z9.786
N16365 X8.197 Z9.742
N16370 X7.873 Z9.652
N16375 X7.563 Z9.519
N16380 X7.272 Z9.345
N16385 X7.006 Z9.132
N16390 X6.77 Z8.882
N16395 X6.69 Z8.776
N16400 G3 X6.15 Z8.956 I-0.24 K0.181
N16405 G0 Z11.791
N16410 X34.92 Y18.84
N16415 Z9.484
N16420 G1 Z7.793 F500
N16425 G3 X34.531 Z7.507 I-0.3 K0
N16430 G1 X34.284 Z7.584
N16435 X33.949 Z7.659
N16440 X33.646 Z7.696
N16445 X33.365 Z7.707
N16450 X11.977 Z7.71
N16455 X11.81 Z7.76
N16460 X11.648 Z7.881
N16465 X10.478 Z9.05
N16470 X10.277 Z9.231
N16475 X10.096 Z9.365
N16480 X9.862 Z9.506
N16485 X9.571 Z9.636
N16490 X9.308 Z9.718
N16495 X8.991 Z9.775
N16500 X8.758 Z9.79
N16505 X8.519 Z9.786
N16510 X8.197 Z9.742
N16515 X7.873 Z9.652
N16520 X7.563 Z9.519
N16525 X7.272 Z9.345
N16530 X7.006 Z9.132
N16535 X6.77 Z8.882
N16540 X6.69 Z8.776
N16545 G3 X6.15 Z8.956 I-0.24 K0.181
N16550 G0 Z11.791
N16555 X34.92 Y18.99
N16560 Z9.484
N16565 G1 Z7.793 F500
N16570 G3 X34.531 Z7.507 I-0.3 K0
N16575 G1 X34.284 Z7.584
N16580 X33.949 Z7.659
N16585 X33.646 Z7.696
N16590 X33.365 Z7.707
N16595 X11.977 Z7.71
N16600 X11.81 Z7.76
N16605 X11.648 Z7.881
N16610 X10.478 Z9.05
N16615 X10.277 Z9.231
N16620 X10.096 Z9.365
N16625 X9.862 Z9.506
N16630 X9.571 Z9.636
N16635 X9.308 Z9.718
N16640 X8.991 Z9.775
N16645 X8.758 Z9.79
N16650 X8.519 Z9.786
N16655 X8.197 Z9.742
N16660 X7.873 Z9.652
N16665 X7.563 Z9.519
N16670 X7.272 Z9.345
N16675 X7.006 Z9.132
N16680 X6.77 Z8.882
N16685 X6.69 Z8.776
N16690 G3 X6.15 Z8.956 I-0.24 K0.181
N16695 G0 Z11.791
N16700 X34.92 Y19.14
N16705 Z9.484
N16710 G1 Z7.793 F500
N16715 G3 X34.531 Z7.507 I-0.3 K0
N16720 G1 X34.284 Z7.584
N16725 X33.949 Z7.659
N16730 X33.646 Z7.696
N16735 X33.365 Z7.707
N16740 X11.977 Z7.71
N16745 X11.81 Z7.76
N16750 X11.648 Z7.881
N16755 X10.478 Z9.05
N16760 X10.277 Z9.231
N16765 X10.096 Z9.365
N16770 X9.862 Z9.506
N16775 X9.571 Z9.636
N16780 X9.308 Z9.718
N16785 X8.991 Z9.775
N16790 X8.758 Z9.79
N16795 X8.519 Z9.786
N16800 X8.197 Z9.742
N16805 X7.873 Z9.652
N16810 X7.563 Z9.519
N16815 X7.272 Z9.345
N16820 X7.006 Z9.132
N16825 X6.77 Z8.882
N16830 X6.69 Z8.776
N16835 G3 X6.15 Z8.956 I-0.24 K0.181
N16840 G0 Z11.791
N16845 X34.92 Y19.29
N16850 Z9.484
N16855 G1 Z7.793 F500
N16860 G3 X34.531 Z7.507 I-0.3 K0
N16865 G1 X34.284 Z7.584
N16870 X33.949 Z7.659
N16875 X33.646 Z7.696
N16880 X33.365 Z7.707
N16885 X11.977 Z7.71
N16890 X11.81 Z7.76
N16895 X11.648 Z7.881
N16900 X10.478 Z9.05
N16905 X10.277 Z9.231
N16910 X10.096 Z9.365
N16915 X9.862 Z9.506
N16920 X9.571 Z9.636
N16925 X9.308 Z9.718
N16930 X8.991 Z9.775
N16935 X8.758 Z9.79
N16940 X8.519 Z9.786
N16945 X8.197 Z9.742
N16950 X7.873 Z9.652
N16955 X7.563 Z9.519
N16960 X7.272 Z9.345
N16965 X7.006 Z9.132
N16970 X6.77 Z8.882
N16975 X6.69 Z8.776
N16980 G3 X6.15 Z8.956 I-0.24 K0.181
N16985 G0 Z11.791
N16990 X34.92 Y19.44
N16995 Z9.484
N17000 G1 Z7.793 F500
N17005 G3 X34.531 Z7.507 I-0.3 K0
N17010 G1 X34.284 Z7.584
N17015 X33.949 Z7.659
N17020 X33.646 Z7.696
N17025 X33.365 Z7.707
N17030 X11.969 Z7.711
N17035 X11.804 Z7.763
N17040 X11.75 Z7.794
N17045 X11.616 Z7.912
N17050 X10.433 Z9.094
N17055 X10.228 Z9.272
N17060 X9.927 Z9.471
N17065 X9.598 Z9.626
N17070 X9.336 Z9.71
N17075 X9.157 Z9.749
N17080 X8.881 Z9.786
N17085 X8.599 Z9.791
N17090 X8.298 Z9.76
N17095 X8.002 Z9.692
N17100 X7.792 Z9.62
N17105 X7.58 Z9.528
N17110 X7.288 Z9.356
N17115 X7.02 Z9.144
N17120 X6.781 Z8.895
N17125 X6.69 Z8.776
N17130 G3 X6.151 Z8.957 I-0.239 K0.182
N17135 G0 Z11.791
N17140 X34.92 Y19.59
N17145 Z9.484
N17150 G1 Z7.793 F500
N17155 G3 X34.531 Z7.507 I-0.3 K0
N17160 G1 X34.284 Z7.584
N17165 X33.949 Z7.659
N17170 X33.646 Z7.696
N17175 X33.365 Z7.707
N17180 X22.041 Z7.705
N17185 X20.796 Z7.697
N17190 X19.193 Z7.707
N17195 X11.987 Z7.71
N17200 X11.925 Z7.72
N17205 X11.821 Z7.755
N17210 X11.75 Z7.794
N17215 X11.616 Z7.912
N17220 X10.434 Z9.094
N17225 X10.228 Z9.271
N17230 X10.005 Z9.423
N17235 X9.808 Z9.532
N17240 X9.598 Z9.626
N17245 X9.337 Z9.71
N17250 X9.158 Z9.749
N17255 X8.882 Z9.786
N17260 X8.6 Z9.791
N17265 X8.298 Z9.76
N17270 X8.002 Z9.692
N17275 X7.792 Z9.62
N17280 X7.58 Z9.528
N17285 X7.288 Z9.356
N17290 X7.02 Z9.144
N17295 X6.781 Z8.895
N17300 X6.69 Z8.776
N17305 G3 X6.151 Z8.957 I-0.239 K0.182
N17310 G0 Z11.791
N17315 X34.92 Y19.74
N17320 Z9.484
N17325 G1 Z7.793 F500
N17330 G3 X34.531 Z7.507 I-0.3 K0
N17335 G1 X34.284 Z7.584
N17340 X33.949 Z7.659
N17345 X33.646 Z7.696
N17350 X33.365 Z7.707
N17355 X22.583 Z7.704
N17360 X21.218 Z7.67
N17365 X20.508 Z7.677
N17370 X19.334 Z7.707
N17375 X11.977 Z7.71
N17380 X11.81 Z7.76
N17385 X11.648 Z7.881
N17390 X10.478 Z9.05
N17395 X10.277 Z9.231
N17400 X10.096 Z9.365
N17405 X9.862 Z9.506
N17410 X9.571 Z9.636
N17415 X9.308 Z9.718
N17420 X8.991 Z9.775
N17425 X8.758 Z9.79
N17430 X8.519 Z9.786
N17435 X8.197 Z9.742
N17440 X7.873 Z9.652
N17445 X7.563 Z9.519
N17450 X7.272 Z9.345
N17455 X7.006 Z9.132
N17460 X6.77 Z8.882
N17465 X6.69 Z8.776
N17470 G3 X6.15 Z8.956 I-0.24 K0.181
N17475 G0 Z11.791
N17480 X34.92 Y19.89
N17485 Z9.484
N17490 G1 Z7.793 F500
N17495 G3 X34.531 Z7.507 I-0.3 K0
N17500 G1 X34.284 Z7.584
N17505 X33.951 Z7.658
N17510 X33.646 Z7.696
N17515 X33.365 Z7.707
N17520 X22.947 Z7.703
N17525 X21.447 Z7.632
N17530 X20.884 Z7.628
N17535 X20.238 Z7.651
N17540 X19.266 Z7.703
N17545 X18.251 Z7.707
N17550 X11.993 Z7.709
N17555 X11.927 Z7.72
N17560 X11.826 Z7.752
N17565 X11.752 Z7.793
N17570 X11.618 Z7.911
N17575 X10.435 Z9.093
N17580 X10.229 Z9.27
N17585 X9.968 Z9.447
N17590 X9.726 Z9.57
N17595 X9.51 Z9.657
N17600 X9.249 Z9.732
N17605 X8.976 Z9.777
N17610 X8.678 Z9.792
N17615 X8.464 Z9.78
N17620 X8.216 Z9.745
N17625 X7.892 Z9.659
N17630 X7.58 Z9.528
N17635 X7.288 Z9.356
N17640 X7.02 Z9.144
N17645 X6.781 Z8.895
N17650 X6.69 Z8.776
N17655 G3 X6.151 Z8.957 I-0.239 K0.182
N17660 G0 Z11.791
N17665 X34.92 Y20.04
N17670 Z9.484
N17675 G1 Z7.793 F500
N17680 G3 X34.531 Z7.507 I-0.3 K0
N17685 G1 X34.284 Z7.584
N17690 X33.951 Z7.658
N17695 X33.646 Z7.696
N17700 X33.365 Z7.707
N17705 X23.416 Z7.706
N17710 X22.879 Z7.681
N17715 X21.699 Z7.586
N17720 X21.166 Z7.567
N17725 X20.648 Z7.576
N17730 X20.036 Z7.618
N17735 X19.171 Z7.693
N17740 X18.68 Z7.707
N17745 X11.977 Z7.71
N17750 X11.903 Z7.725
N17755 X11.791 Z7.769
N17760 X11.648 Z7.881
N17765 X10.478 Z9.05
N17770 X10.277 Z9.231
N17775 X10.096 Z9.365
N17780 X9.862 Z9.506
N17785 X9.571 Z9.636
N17790 X9.308 Z9.718
N17795 X8.991 Z9.775
N17800 X8.758 Z9.79
N17805 X8.519 Z9.786
N17810 X8.197 Z9.742
N17815 X7.873 Z9.652
N17820 X7.563 Z9.519
N17825 X7.272 Z9.345
N17830 X7.006 Z9.132
N17835 X6.77 Z8.882
N17840 X6.69 Z8.776
N17845 G3 X6.15 Z8.956 I-0.24 K0.181
N17850 G0 Z11.791
N17855 X20.87 Y20.19
N17860 Z9.62
N17865 G1 Z7.806 F500
N17870 G3 X20.542 Z7.507 I-0.3 K0
N17875 G1 X20.098 Z7.549
N17880 X19.141 Z7.671
N17885 X18.677 Z7.704
N17890 X12.039 Z7.707
N17895 X11.949 Z7.714
N17900 X11.85 Z7.743
N17905 X11.742 Z7.8
N17910 X11.608 Z7.921
N17915 X10.408 Z9.117
N17920 X10.219 Z9.279
N17925 X9.917 Z9.477
N17930 X9.671 Z9.596
N17935 X9.501 Z9.659
N17940 X9.234 Z9.735
N17945 X8.961 Z9.779
N17950 X8.654 Z9.792
N17955 X8.381 Z9.77
N17960 X8.138 Z9.728
N17965 X7.892 Z9.659
N17970 X7.58 Z9.528
N17975 X7.288 Z9.356
N17980 X7.02 Z9.144
N17985 X6.781 Z8.895
N17990 X6.69 Z8.776
N17995 G3 X6.151 Z8.957 I-0.239 K0.182
N18000 G0 Z11.791
N18005 X34.92
N18010 Z9.484
N18015 G1 Z7.793 F500
N18020 G3 X34.531 Z7.507 I-0.3 K0
N18025 G1 X34.284 Z7.584
N18030 X33.951 Z7.658
N18035 X33.646 Z7.696
N18040 X33.365 Z7.707
N18045 X23.572 Z7.704
N18050 X23.057 Z7.668
N18055 X21.84 Z7.527
N18060 X21.612 Z7.507
N18065 X21.604 Y20.192 Z7.505
N18070 X21.587 Y20.196 Z7.502
N18075 X21.569 Y20.2 Z7.499
N18080 X21.552 Y20.203 Z7.495
N18085 X21.544 Y20.205 Z7.494
N18090 X21.534 Y20.21 Z7.49
N18095 X21.525 Y20.215 Z7.486
N18100 X21.515 Y20.22 Z7.483
N18105 X21.506 Y20.225 Z7.479
N18110 X21.497 Y20.23 Z7.475
N18115 X21.494 Y20.232 Z7.474
N18120 X21.49 Y20.238 Z7.47
N18125 X21.486 Y20.244 Z7.466
N18130 X21.483 Y20.25 Z7.461
N18135 X21.479 Y20.256 Z7.457
N18140 X21.476 Y20.262 Z7.453
N18145 X21.475 Y20.264 Z7.451
N18150 X21.472 Y20.27 Z7.448
N18155 X21.469 Y20.275 Z7.444
N18160 X21.466 Y20.28 Z7.44
N18165 X21.464 Y20.285 Z7.436
N18170 X21.461 Y20.291 Z7.432
N18175 X21.46 Y20.293 Z7.431
N18180 X21.453 Y20.297 Z7.427
N18185 X21.445 Y20.302 Z7.423
N18190 X21.438 Y20.306 Z7.419
N18195 X21.431 Y20.311 Z7.415
N18200 X21.423 Y20.316 Z7.411
N18205 X21.421 Y20.317 Z7.41
N18210 X21.416 Y20.319 Z7.408
N18215 X21.414
N18220 X21.4 Y20.324 Z7.404
N18225 X21.386 Y20.328 Z7.4
N18230 X21.372 Y20.332 Z7.396
N18235 X21.365 Y20.334 Z7.395
N18240 X21.302 Y20.34 Z7.387
N18245 X21.21 Z7.384
N18250 X21.16 Z7.382
N18255 X20.907 Z7.384
N18260 X20.905
N18265 X20.843 Z7.387
N18270 X20.783 Z7.391
N18275 X20.723 Z7.394
N18280 X20.654 Z7.398
N18285 X20.652
N18290 X20.623 Z7.401
N18295 X20.581 Z7.405
N18300 X20.54 Z7.41
N18305 X20.499 Z7.414
N18310 X20.458 Z7.418
N18315 X20.418 Z7.422
N18320 X20.395 Z7.424
N18325 X20.394
N18330 X20.379 Z7.426
N18335 X20.352 Z7.43
N18340 X20.326 Z7.433
N18345 X20.3 Z7.437
N18350 X20.273 Z7.441
N18355 X20.247 Z7.444
N18360 X20.221 Z7.448
N18365 X20.194 Z7.451
N18370 X20.173 Z7.454
N18375 X20.171
N18380 X19.871 Z7.507
N18385 X19.158 Z7.632
N18390 X18.673 Z7.69
N18395 X18.266 Z7.707
N18400 X12.012 Z7.708
N18405 X11.958 Z7.713
N18410 X11.845 Z7.744
N18415 X11.793 Z7.768
N18420 X11.65 Z7.879
N18425 X10.488 Z9.04
N18430 X10.286 Z9.223
N18435 X10.106 Z9.358
N18440 X9.913 Z9.479
N18445 X9.667 Z9.598
N18450 X9.495 Z9.661
N18455 X9.231 Z9.736
N18460 X8.957 Z9.78
N18465 X8.653 Z9.792
N18470 X8.381 Z9.77
N18475 X8.138 Z9.728
N18480 X7.892 Z9.659
N18485 X7.58 Z9.528
N18490 X7.288 Z9.356
N18495 X7.02 Z9.144
N18500 X6.781 Z8.895
N18505 X6.69 Z8.776
N18510 G3 X6.151 Z8.957 I-0.239 K0.182
N18515 G0 Z11.791
N18520 X34.92
N18525 Z9.484
N18530 G1 Z7.793 F500
N18535 G3 X34.531 Z7.507 I-0.3 K0
N18540 G1 X34.284 Z7.584
N18545 X33.951 Z7.658
N18550 X33.646 Z7.696
N18555 X33.365 Z7.707
N18560 X23.793 Z7.703
N18565 X23.37 Z7.67
N18570 X22.765 Z7.583
N18575 X22.312 Z7.507
N18580 X19.492 Y20.49
N18585 X18.966 Z7.619
N18590 X18.599 Z7.674
N18595 X18.23 Z7.704
N18600 X11.982 Z7.71
N18605 X11.837 Z7.747
N18610 X11.79 Z7.77
N18615 X11.647 Z7.881
N18620 X10.478 Z9.051
N18625 X10.276 Z9.232
N18630 X10.095 Z9.365
N18635 X9.861 Z9.506
N18640 X9.571 Z9.636
N18645 X9.307 Z9.718
N18650 X8.99 Z9.776
N18655 X8.758 Z9.79
N18660 X8.518 Z9.786
N18665 X8.197 Z9.742
N18670 X7.873 Z9.652
N18675 X7.563 Z9.519
N18680 X7.272 Z9.345
N18685 X7.006 Z9.132
N18690 X6.77 Z8.882
N18695 X6.69 Z8.776
N18700 G3 X6.15 Z8.956 I-0.24 K0.181
N18705 G0 Z11.791
N18710 X19.559 Y20.64
N18715 Z9.586
N18720 G1 Z7.798 F500
N18725 G3 X19.186 Z7.507 I-0.3 K0
N18730 G1 X18.831 Z7.596
N18735 X18.467 Z7.664
N18740 X18.098 Z7.702
N18745 X17.333 Z7.707
N18750 X11.978 Z7.71
N18755 X11.834 Z7.749
N18760 X11.751 Z7.793
N18765 X11.617 Z7.911
N18770 X10.435 Z9.093
N18775 X10.229 Z9.271
N18780 X9.968 Z9.447
N18785 X9.726 Z9.57
N18790 X9.51 Z9.657
N18795 X9.249 Z9.732
N18800 X8.976 Z9.777
N18805 X8.679 Z9.792
N18810 X8.464 Z9.78
N18815 X8.216 Z9.745
N18820 X7.892 Z9.659
N18825 X7.58 Z9.528
N18830 X7.288 Z9.356
N18835 X7.02 Z9.144
N18840 X6.781 Z8.895
N18845 X6.69 Z8.776
N18850 G3 X6.151 Z8.957 I-0.239 K0.182
N18855 G0 Z11.791
N18860 X19.315 Y20.79
N18865 Z9.579
N18870 G1 Z7.796 F500
N18875 G3 X18.935 Z7.507 I-0.3 K0
N18880 G1 X18.579 Z7.605
N18885 X18.216 Z7.673
N18890 X17.893 Z7.703
N18895 X12.052 Z7.707
N18900 X11.949 Z7.714
N18905 X11.863 Z7.738
N18910 X11.742 Z7.8
N18915 X11.608 Z7.921
N18920 X10.408 Z9.117
N18925 X10.219 Z9.279
N18930 X9.917 Z9.477
N18935 X9.671 Z9.596
N18940 X9.501 Z9.659
N18945 X9.234 Z9.735
N18950 X8.961 Z9.779
N18955 X8.654 Z9.792
N18960 X8.381 Z9.77
N18965 X8.138 Z9.728
N18970 X7.892 Z9.659
N18975 X7.58 Z9.528
N18980 X7.288 Z9.356
N18985 X7.02 Z9.144
N18990 X6.781 Z8.895
N18995 X6.69 Z8.776
N19000 G3 X6.151 Z8.957 I-0.239 K0.182
N19005 G0 Z11.791
N19010 X19.103 Y20.94
N19015 Z9.572
N19020 G1 Z7.795 F500
N19025 G3 X18.717 Z7.507 I-0.3 K0
N19030 G1 X18.408 Z7.599
N19035 X18.092 Z7.666
N19040 X17.816 Z7.699
N19045 X17.59 Z7.707
N19050 X11.977 Z7.71
N19055 X11.903 Z7.726
N19060 X11.791 Z7.769
N19065 X11.648 Z7.881
N19070 X10.478 Z9.05
N19075 X10.277 Z9.231
N19080 X10.096 Z9.365
N19085 X9.862 Z9.506
N19090 X9.571 Z9.636
N19095 X9.308 Z9.718
N19100 X8.991 Z9.775
N19105 X8.758 Z9.79
N19110 X8.519 Z9.786
N19115 X8.197 Z9.742
N19120 X7.873 Z9.652
N19125 X7.563 Z9.519
N19130 X7.272 Z9.345
N19135 X7.006 Z9.132
N19140 X6.77 Z8.882
N19145 X6.69 Z8.776
N19150 G3 X6.15 Z8.956 I-0.24 K0.181
N19155 G0 Z11.791
N19160 X18.915 Y21.09
N19165 Z9.566
N19170 G1 Z7.793 F500
N19175 G3 X18.523 Z7.508 I-0.3 K0
N19180 G1 X18.259 Z7.593
N19185 X17.99 Z7.656
N19190 X17.715 Z7.695
N19195 X17.437 Z7.707
N19200 X12.053
N19205 X11.959 Z7.713
N19210 X11.874 Z7.734
N19215 X11.793 Z7.768
N19220 X11.716 Z7.819
N19225 X10.413 Z9.113
N19230 X10.204 Z9.29
N19235 X9.9 Z9.486
N19240 X9.653 Z9.604
N19245 X9.371 Z9.7
N19250 X9.17 Z9.747
N19255 X8.941 Z9.781
N19260 X8.654 Z9.792
N19265 X8.381 Z9.77
N19270 X8.138 Z9.728
N19275 X7.892 Z9.659
N19280 X7.58 Z9.528
N19285 X7.288 Z9.356
N19290 X7.02 Z9.144
N19295 X6.781 Z8.895
N19300 X6.69 Z8.776
N19305 G3 X6.151 Z8.957 I-0.239 K0.182
N19310 G0 Z11.791
N19315 X18.748 Y21.24
N19320 Z9.56
N19325 G1 Z7.792 F500
N19330 G3 X18.352 Z7.508 I-0.3 K0
N19335 G1 X18.076 Z7.601
N19340 X17.807 Z7.663
N19345 X17.509 Z7.701
N19350 X17.049 Z7.707
N19355 X11.978 Z7.71
N19360 X11.834 Z7.749
N19365 X11.751 Z7.793
N19370 X11.617 Z7.911
N19375 X10.435 Z9.093
N19380 X10.229 Z9.271
N19385 X9.968 Z9.447
N19390 X9.726 Z9.57
N19395 X9.51 Z9.657
N19400 X9.249 Z9.732
N19405 X8.976 Z9.777
N19410 X8.681 Z9.792
N19415 X8.464 Z9.78
N19420 X8.216 Z9.745
N19425 X7.892 Z9.659
N19430 X7.58 Z9.528
N19435 X7.288 Z9.356
N19440 X7.02 Z9.144
N19445 X6.781 Z8.895
N19450 X6.69 Z8.776
N19455 G3 X6.151 Z8.957 I-0.239 K0.182
N19460 G0 Z11.791
N19465 X18.598 Y21.39
N19470 Z9.554
N19475 G1 Z7.79 F500
N19480 G3 X18.198 Z7.508 I-0.3 K0
N19485 G1 X17.937 Z7.6
N19490 X17.669 Z7.664
N19495 X17.394 Z7.701
N19500 X16.931 Z7.707
N19505 X11.977 Z7.71
N19510 X11.905 Z7.725
N19515 X11.791 Z7.769
N19520 X11.648 Z7.881
N19525 X10.478 Z9.05
N19530 X10.277 Z9.231
N19535 X10.096 Z9.365
N19540 X9.862 Z9.506
N19545 X9.571 Z9.636
N19550 X9.308 Z9.718
N19555 X8.991 Z9.775
N19560 X8.758 Z9.79
N19565 X8.519 Z9.786
N19570 X8.197 Z9.742
N19575 X7.873 Z9.652
N19580 X7.563 Z9.519
N19585 X7.272 Z9.345
N19590 X7.006 Z9.132
N19595 X6.77 Z8.882
N19600 X6.69 Z8.776
N19605 G3 X6.15 Z8.956 I-0.24 K0.181
N19610 G0 Z11.791
N19615 X18.463 Y21.54
N19620 Z9.549
N19625 G1 Z7.789 F500
N19630 G3 X18.06 Z7.507 I-0.3 K0
N19635 G1 X17.801 Z7.602
N19640 X17.533 Z7.667
N19645 X17.258 Z7.702
N19650 X14.74 Z7.707
N19655 X11.991 Z7.709
N19660 X11.926 Z7.72
N19665 X11.824 Z7.753
N19670 X11.751 Z7.793
N19675 X11.617 Z7.911
N19680 X10.434 Z9.093
N19685 X10.229 Z9.271
N19690 X9.967 Z9.447
N19695 X9.725 Z9.571
N19700 X9.509 Z9.657
N19705 X9.248 Z9.732
N19710 X8.975 Z9.777
N19715 X8.681 Z9.792
N19720 X8.464 Z9.78
N19725 X8.216 Z9.745
N19730 X7.892 Z9.659
N19735 X7.58 Z9.528
N19740 X7.288 Z9.356
N19745 X7.02 Z9.144
N19750 X6.781 Z8.895
N19755 X6.69 Z8.776
N19760 G3 X6.151 Z8.957 I-0.239 K0.182
N19765 G0 Z11.791
N19770 X18.336 Y21.69
N19775 Z9.545
N19780 G1 Z7.789 F500
N19785 G3 X17.93 Z7.508 I-0.3 K0
N19790 G1 X17.672 Z7.605
N19795 X17.405 Z7.671
N19800 X17.129 Z7.704
N19805 X16.537 Z7.707
N19810 X11.977 Z7.71
N19815 X11.891 Z7.729
N19820 X11.791 Z7.769
N19825 X11.648 Z7.881
N19830 X10.478 Z9.05
N19835 X10.277 Z9.231
N19840 X10.096 Z9.365
N19845 X9.862 Z9.506
N19850 X9.571 Z9.636
N19855 X9.308 Z9.718
N19860 X8.991 Z9.775
N19865 X8.758 Z9.79
N19870 X8.519 Z9.786
N19875 X8.197 Z9.742
N19880 X7.873 Z9.652
N19885 X7.563 Z9.519
N19890 X7.272 Z9.345
N19895 X7.006 Z9.132
N19900 X6.77 Z8.882
N19905 X6.69 Z8.776
N19910 G3 X6.15 Z8.956 I-0.24 K0.181
N19915 G0 Z11.791
N19920 X18.223 Y21.84
N19925 Z9.54
N19930 G1 Z7.786 F500
N19935 G3 X17.814 Z7.507 I-0.3 K0
N19940 G1 X17.558 Z7.607
N19945 X17.292 Z7.673
N19950 X17.016 Z7.705
N19955 X11.989 Z7.709
N19960 X11.926 Z7.72
N19965 X11.823 Z7.754
N19970 X11.751 Z7.793
N19975 X11.617 Z7.912
N19980 X10.434 Z9.093
N19985 X10.229 Z9.271
N19990 X9.967 Z9.448
N19995 X9.725 Z9.571
N20000 X9.509 Z9.657
N20005 X9.248 Z9.732
N20010 X8.975 Z9.777
N20015 X8.682 Z9.792
N20020 X8.464 Z9.78
N20025 X8.216 Z9.745
N20030 X7.892 Z9.659
N20035 X7.58 Z9.528
N20040 X7.288 Z9.356
N20045 X7.02 Z9.144
N20050 X6.781 Z8.895
N20055 X6.69 Z8.776
N20060 G3 X6.151 Z8.957 I-0.239 K0.182
N20065 G0 Z11.791
N20070 X18.119 Y21.99
N20075 Z9.536
N20080 G1 Z7.786 F500
N20085 G3 X17.708 Z7.508 I-0.3 K0
N20090 G1 X17.452 Z7.609
N20095 X17.186 Z7.676
N20100 X16.92 Z7.705
N20105 X11.977 Z7.71
N20110 X11.905 Z7.725
N20115 X11.791 Z7.769
N20120 X11.648 Z7.881
N20125 X10.478 Z9.05
N20130 X10.277 Z9.231
N20135 X10.096 Z9.365
N20140 X9.862 Z9.506
N20145 X9.571 Z9.636
N20150 X9.308 Z9.718
N20155 X8.991 Z9.775
N20160 X8.758 Z9.79
N20165 X8.519 Z9.786
N20170 X8.197 Z9.742
N20175 X7.873 Z9.652
N20180 X7.563 Z9.519
N20185 X7.272 Z9.345
N20190 X7.006 Z9.132
N20195 X6.77 Z8.882
N20200 X6.69 Z8.776
N20205 G3 X6.15 Z8.956 I-0.24 K0.181
N20210 G0 Z11.791
N20215 X18.031 Y22.14
N20220 Z9.53
N20225 G1 Z7.783 F500
N20230 G3 X17.612 Z7.508 I-0.3 K0
N20235 G1 X17.444 Z7.58
N20240 X17.18 Z7.66
N20245 X16.999 Z7.692
N20250 X16.74 Z7.707
N20255 X11.987 Z7.71
N20260 X11.847 Z7.744
N20265 X11.792 Z7.768
N20270 X11.649 Z7.879
N20275 X10.474 Z9.055
N20280 X10.272 Z9.236
N20285 X10.09 Z9.368
N20290 X9.898 Z9.487
N20295 X9.65 Z9.605
N20300 X9.368 Z9.7
N20305 X9.168 Z9.747
N20310 X8.939 Z9.781
N20315 X8.653 Z9.792
N20320 X8.464 Z9.78
N20325 X8.197 Z9.742
N20330 X7.873 Z9.652
N20335 X7.563 Z9.519
N20340 X7.272 Z9.345
N20345 X7.006 Z9.132
N20350 X6.77 Z8.882
N20355 X6.69 Z8.776
N20360 G3 X6.15 Z8.956 I-0.24 K0.181
N20365 G0 Z11.791
N20370 X17.944 Y22.29
N20375 Z9.527
N20380 G1 Z7.782 F500
N20385 G3 X17.522 Z7.508 I-0.3 K0
N20390 G1 X17.355 Z7.582
N20395 X17.181 Z7.639
N20400 X16.956 Z7.687
N20405 X16.819 Z7.702
N20410 X16.402 Z7.707
N20415 X11.977 Z7.71
N20420 X11.81 Z7.76
N20425 X11.648 Z7.881
N20430 X10.478 Z9.05
N20435 X10.277 Z9.231
N20440 X10.096 Z9.365
N20445 X9.862 Z9.506
N20450 X9.571 Z9.636
N20455 X9.308 Z9.718
N20460 X8.991 Z9.775
N20465 X8.758 Z9.79
N20470 X8.519 Z9.786
N20475 X8.197 Z9.742
N20480 X7.873 Z9.652
N20485 X7.563 Z9.519
N20490 X7.272 Z9.345
N20495 X7.006 Z9.132
N20500 X6.77 Z8.882
N20505 X6.69 Z8.776
N20510 G3 X6.15 Z8.956 I-0.24 K0.181
N20515 G0 Z11.791
N20520 X17.866 Y22.44
N20525 Z9.523
N20530 G1 Z7.781 F500
N20535 G3 X17.444 Z7.508 I-0.3 K0
N20540 G1 X17.277 Z7.582
N20545 X17.104 Z7.64
N20550 X16.926 Z7.681
N20555 X16.742 Z7.703
N20560 X15.766 Z7.707
N20565 X12.068
N20570 X11.949 Z7.714
N20575 X11.878 Z7.732
N20580 X11.752 Z7.793
N20585 X11.608 Z7.921
N20590 X10.408 Z9.117
N20595 X10.219 Z9.279
N20600 X9.917 Z9.477
N20605 X9.671 Z9.596
N20610 X9.501 Z9.659
N20615 X9.234 Z9.735
N20620 X8.961 Z9.779
N20625 X8.654 Z9.792
N20630 X8.381 Z9.77
N20635 X8.138 Z9.728
N20640 X7.892 Z9.659
N20645 X7.58 Z9.528
N20650 X7.288 Z9.356
N20655 X7.02 Z9.144
N20660 X6.781 Z8.895
N20665 X6.69 Z8.776
N20670 G3 X6.151 Z8.957 I-0.239 K0.182
N20675 G0 Z11.791
N20680 X17.797 Y22.59
N20685 Z9.52
N20690 G1 Z7.78 F500
N20695 G3 X17.372 Z7.507 I-0.3 K0
N20700 G1 X17.208 Z7.583
N20705 X16.968 Z7.658
N20710 X16.764 Z7.695
N20715 X16.524 Z7.707
N20720 X12.01 Z7.708
N20725 X11.956 Z7.713
N20730 X11.843 Z7.745
N20735 X11.745 Z7.798
N20740 X11.611 Z7.917
N20745 X10.428 Z9.099
N20750 X10.222 Z9.276
N20755 X9.921 Z9.475
N20760 X9.591 Z9.629
N20765 X9.328 Z9.712
N20770 X9.058 Z9.765
N20775 X8.824 Z9.788
N20780 X8.528 Z9.787
N20785 X8.216 Z9.745
N20790 X7.892 Z9.659
N20795 X7.58 Z9.528
N20800 X7.288 Z9.356
N20805 X7.02 Z9.144
N20810 X6.781 Z8.895
N20815 X6.69 Z8.776
N20820 G3 X6.151 Z8.957 I-0.239 K0.182
N20825 G0 Z11.791
N20830 X17.732 Y22.74
N20835 Z9.517
N20840 G1 Z7.779 F500
N20845 G3 X17.305 Z7.507 I-0.3 K0
N20850 G1 X17.141 Z7.584
N20855 X16.969 Z7.643
N20860 X16.79 Z7.683
N20865 X16.556 Z7.706
N20870 X12.048 Z7.707
N20875 X11.953 Z7.714
N20880 X11.872 Z7.735
N20885 X11.788 Z7.771
N20890 X11.715 Z7.82
N20895 X10.412 Z9.114
N20900 X10.203 Z9.291
N20905 X9.977 Z9.441
N20910 X9.819 Z9.527
N20915 X9.566 Z9.638
N20920 X9.303 Z9.719
N20925 X9.031 Z9.77
N20930 X8.8 Z9.789
N20935 X8.565
N20940 X8.216 Z9.745
N20945 X7.892 Z9.659
N20950 X7.58 Z9.528
N20955 X7.288 Z9.356
N20960 X7.02 Z9.144
N20965 X6.781 Z8.895
N20970 X6.69 Z8.776
N20975 G3 X6.151 Z8.957 I-0.239 K0.182
N20980 G0 Z11.791
N20985 X17.673 Y22.89
N20990 Z9.514
N20995 G1 Z7.78 F500
N21000 G3 X17.246 Z7.508 I-0.3 K0
N21005 G1 X17.081 Z7.585
N21010 X16.909 Z7.644
N21015 X16.73 Z7.684
N21020 X16.547 Z7.705
N21025 X11.977 Z7.71
N21030 X11.906 Z7.725
N21035 X11.791 Z7.769
N21040 X11.648 Z7.881
N21045 X10.478 Z9.05
N21050 X10.277 Z9.231
N21055 X10.096 Z9.365
N21060 X9.862 Z9.506
N21065 X9.571 Z9.636
N21070 X9.308 Z9.718
N21075 X8.991 Z9.775
N21080 X8.758 Z9.79
N21085 X8.519 Z9.786
N21090 X8.197 Z9.742
N21095 X7.873 Z9.652
N21100 X7.563 Z9.519
N21105 X7.272 Z9.345
N21110 X7.006 Z9.132
N21115 X6.77 Z8.882
N21120 X6.69 Z8.776
N21125 G3 X6.15 Z8.956 I-0.24 K0.181
N21130 G0 Z11.791
N21135 X17.623 Y23.04
N21140 Z9.512
N21145 G1 Z7.779 F500
N21150 G3 X17.194 Z7.508 I-0.3 K0
N21155 G1 X17.029 Z7.586
N21160 X16.857 Z7.645
N21165 X16.678 Z7.685
N21170 X16.443 Z7.707
N21175 X12.05
N21180 X11.949 Z7.714
N21185 X11.861 Z7.739
N21190 X11.742 Z7.8
N21195 X11.608 Z7.921
N21200 X10.408 Z9.117
N21205 X10.219 Z9.279
N21210 X9.917 Z9.477
N21215 X9.671 Z9.596
N21220 X9.501 Z9.659
N21225 X9.234 Z9.735
N21230 X8.961 Z9.779
N21235 X8.654 Z9.792
N21240 X8.381 Z9.77
N21245 X8.138 Z9.728
N21250 X7.892 Z9.659
N21255 X7.58 Z9.528
N21260 X7.288 Z9.356
N21265 X7.02 Z9.144
N21270 X6.781 Z8.895
N21275 X6.69 Z8.776
N21280 G3 X6.151 Z8.957 I-0.239 K0.182
N21285 G0 Z11.791
N21290 X17.577 Y23.19
N21295 Z9.51
N21300 G1 Z7.778 F500
N21305 G3 X17.147 Z7.508 I-0.3 K0
N21310 G1 X16.983 Z7.586
N21315 X16.812 Z7.646
N21320 X16.633 Z7.686
N21325 X16.45 Z7.705
N21330 X12.013 Z7.708
N21335 X11.958 Z7.713
N21340 X11.847 Z7.744
N21345 X11.792 Z7.768
N21350 X11.649 Z7.879
N21355 X10.488 Z9.041
N21360 X10.286 Z9.223
N21365 X10.106 Z9.358
N21370 X9.913 Z9.479
N21375 X9.666 Z9.598
N21380 X9.495 Z9.661
N21385 X9.23 Z9.736
N21390 X8.957 Z9.78
N21395 X8.653 Z9.792
N21400 X8.381 Z9.77
N21405 X8.138 Z9.728
N21410 X7.892 Z9.659
N21415 X7.58 Z9.528
N21420 X7.288 Z9.356
N21425 X7.02 Z9.144
N21430 X6.781 Z8.895
N21435 X6.69 Z8.776
N21440 G3 X6.151 Z8.957 I-0.239 K0.182
N21445 G0 Z11.791
N21450 X17.54 Y23.34
N21455 Z9.507
N21460 G1 Z7.777 F500
N21465 G3 X17.109 Z7.507 I-0.3 K0
N21470 G1 X16.947 Z7.586
N21475 X16.775 Z7.646
N21480 X16.596 Z7.686
N21485 X16.376 Z7.707
N21490 X11.978 Z7.71
N21495 X11.923 Z7.721
N21500 X11.811 Z7.759
N21505 X11.749 Z7.795
N21510 X11.615 Z7.914
N21515 X10.432 Z9.095
N21520 X10.226 Z9.273
N21525 X9.925 Z9.472
N21530 X9.596 Z9.627
N21535 X9.334 Z9.711
N21540 X9.155 Z9.749
N21545 X8.879 Z9.786
N21550 X8.597 Z9.791
N21555 X8.298 Z9.76
N21560 X8.002 Z9.692
N21565 X7.792 Z9.62
N21570 X7.58 Z9.528
N21575 X7.288 Z9.356
