(1001)
(T1 D=3 CR=0 - ZMIN=-0.793 - vlcov frza)
N10 G90
N15 G17
N20 G21
(-Attention- Property Safe Retracts is set to Clearance Height.)
(Ensure the clearance height will clear the part and or fixtures.)
(Raise the Z-axis to a safe height before starting the program.)
(Horizontal3)
N25 T1 M6
N30 S10000 M3
N35 G17 G90
N40 M8
N45 G0 X22.587 Y39.915
N50 Z18
N55 G0 Z4.707
N60 G1 Z3.007 F150
N65 X22.586 Y39.917 Z2.974
N70 X22.583 Y39.921 Z2.94
N75 X22.578 Y39.929 Z2.908
N80 X22.57 Y39.939 Z2.877
N85 X22.559 Y39.952 Z2.848
N90 X22.546 Y39.966 Z2.82
N95 X22.529 Y39.981 Z2.795
N100 X22.51 Y39.996 Z2.773
N105 X22.487 Y40.011 Z2.753
N110 X22.461 Y40.025 Z2.737
N115 X22.432 Y40.037 Z2.724
N120 X22.401 Y40.045 Z2.715
N125 X22.368 Y40.051 Z2.709
N130 X22.335 Y40.053 Z2.707
N135 X21.634 F600
N140 X22.029 Y35.532
N145 X23.156 Y40.053
N150 X22.335
N155 G17 G2 X21.057 Y40.905 I0 J1.384
N160 G3 X19.779 Y41.757 I-1.278 J-0.532
N165 G1 X19.774
N170 X21.219 Y25.241
N175 X25.337 Y41.757
N180 X19.779
N185 G2 X18.763 Y42.415 I0 J1.113
N190 G3 X17.592 Y42.11 I-0.56 J-0.251
N195 G1 X19.152 Y24.277
N200 X19.166 Y24.139
N205 X19.186 Y24.001
N210 X19.215 Y23.863
N215 X19.223 Y23.835
N220 X19.254 Y23.725
N225 X19.305 Y23.587
N230 X19.361 Y23.461
N235 X19.442 Y23.311
N240 X19.499 Y23.218
N245 X19.531 Y23.173
N250 X19.638 Y23.033
N255 X19.762 Y22.897
N260 X19.776 Y22.883
N265 X19.915 Y22.758
N270 X20.052 Y22.656
N275 X20.105 Y22.62
N280 X20.191 Y22.568
N285 X20.329 Y22.495
N290 X20.355 Y22.482
N295 X20.467 Y22.434
N300 X20.606 Y22.382
N305 X20.744 Y22.353
N310 X20.807 Y22.344
N315 X20.882 Y22.336
N320 X21.021 Y22.328
N325 X21.159 Y22.329
N330 X21.297 Y22.339
N335 X21.34 Y22.344
N340 X21.435 Y22.359
N345 X21.574 Y22.387
N350 X21.712 Y22.426
N355 X21.85 Y22.476
N360 X21.989 Y22.538
N365 X22.127 Y22.612
N370 X22.265 Y22.701
N375 X22.345 Y22.758
N380 X22.404 Y22.806
N385 X22.506 Y22.897
N390 X22.542 Y22.931
N395 X22.638 Y23.035
N400 X22.68 Y23.083
N405 X22.749 Y23.173
N410 X22.818 Y23.272
N415 X22.844 Y23.311
N420 X22.922 Y23.449
N425 X22.957 Y23.519
N430 X22.988 Y23.587
N435 X23.041 Y23.725
N440 X23.083 Y23.863
N445 X23.095 Y23.907
N450 X23.233 Y24.459
N455 X27.871 Y43.058
N460 X27.912 Y43.196
N465 X27.936 Y43.26
N470 X27.968 Y43.334
N475 X28.041 Y43.472
N480 X28.074 Y43.524
N485 X28.135 Y43.61
N490 X28.212 Y43.703
N495 X28.254 Y43.748
N500 X28.351 Y43.838
N505 X28.423 Y43.897
N510 X28.425 Y43.898
N515 X28.423 Y43.9
N520 X16.981
N525 X16.939
N530 X16.937 Y43.898
N535 X17.01 Y43.84
N540 X17.108 Y43.748
N545 X17.148 Y43.705
N550 X17.227 Y43.61
N555 X17.286 Y43.527
N560 X17.321 Y43.472
N565 X17.394 Y43.334
N570 X17.425 Y43.264
N575 X17.45 Y43.196
N580 X17.491 Y43.058
N585 X17.519 Y42.92
N590 X17.533 Y42.781
N595 X17.592 Y42.11
N600 X17.597 Y42.077 Z2.709
N605 X17.605 Y42.045 Z2.715
N610 X17.617 Y42.015 Z2.724
N615 X17.631 Y41.987 Z2.737
N620 X17.647 Y41.962 Z2.753
N625 X17.663 Y41.941 Z2.773
N630 X17.681 Y41.922 Z2.795
N635 X17.697 Y41.907 Z2.82
N640 X17.712 Y41.895 Z2.848
N645 X17.726 Y41.886 Z2.877
N650 X17.737 Y41.879 Z2.908
N655 X17.745 Y41.874 Z2.94
N660 X17.75 Y41.872 Z2.974
N665 X17.751 Y41.871 Z3.007
N670 G0 Z18
(2D Pocket3)
N675 G0 Z23
N680 X29.7 Y28.95
N685 Z23
N690 Z12
N695 G1 Z9 F150
N700 G3 Y28.45 I0 J-0.25 F600
N705 Y28.95 I0 J0.25
N710 G1 Z8 F150
N715 G3 Y28.45 I0 J-0.25 F600
N720 Y28.95 I0 J0.25
N725 G1 Z7 F150
N730 G3 Y28.45 I0 J-0.25 F600
N735 Y28.95 I0 J0.25
N740 G1 Z6 F150
N745 G3 Y28.45 I0 J-0.25 F600
N750 Y28.95 I0 J0.25
N755 G1 Z5 F150
N760 G3 Y28.45 I0 J-0.25 F600
N765 Y28.95 I0 J0.25
N770 G1 Z4 F150
N775 G3 Y28.45 I0 J-0.25 F600
N780 Y28.95 I0 J0.25
N785 G1 Z3 F150
N790 G3 Y28.45 I0 J-0.25 F600
N795 Y28.95 I0 J0.25
N800 G1 Z2 F150
N805 G3 Y28.45 I0 J-0.25 F600
N810 Y28.95 I0 J0.25
N815 G1 Z1 F150
N820 G3 Y28.45 I0 J-0.25 F600
N825 Y28.95 I0 J0.25
N830 G1 Z0 F150
N835 G3 Y28.45 I0 J-0.25 F600
N840 Y28.95 I0 J0.25
N845 G1 Z-0.793 F150
N850 G3 Y28.45 I0 J-0.25 F600
N855 Y28.95 I0 J0.25
N860 G1 X29.643 Y28.943 Z-0.781
N865 X29.589 Y28.924 Z-0.77
N870 X29.548 Y28.898 Z-0.738
N875 X29.512 Y28.865 Z-0.705
N880 X29.493 Y28.84 Z-0.656
N885 X29.476 Y28.811 Z-0.608
N890 X29.467 Y28.791 Z-0.493
N895 G0 Z13
N900 X29.7 Y13.95
N905 Z12
N910 G1 Z9 F150
N915 G3 Y13.45 I0 J-0.25 F600
N920 Y13.95 I0 J0.25
N925 G1 Z8 F150
N930 G3 Y13.45 I0 J-0.25 F600
N935 Y13.95 I0 J0.25
N940 G1 Z7 F150
N945 G3 Y13.45 I0 J-0.25 F600
N950 Y13.95 I0 J0.25
N955 G1 Z6 F150
N960 G3 Y13.45 I0 J-0.25 F600
N965 Y13.95 I0 J0.25
N970 G1 Z5 F150
N975 G3 Y13.45 I0 J-0.25 F600
N980 Y13.95 I0 J0.25
N985 G1 Z4 F150
N990 G3 Y13.45 I0 J-0.25 F600
N995 Y13.95 I0 J0.25
N1000 G1 Z3 F150
N1005 G3 Y13.45 I0 J-0.25 F600
N1010 Y13.95 I0 J0.25
N1015 G1 Z2 F150
N1020 G3 Y13.45 I0 J-0.25 F600
N1025 Y13.95 I0 J0.25
N1030 G1 Z1 F150
N1035 G3 Y13.45 I0 J-0.25 F600
N1040 Y13.95 I0 J0.25
N1045 G1 Z0 F150
N1050 G3 Y13.45 I0 J-0.25 F600
N1055 Y13.95 I0 J0.25
N1060 G1 Z-0.793 F150
N1065 G3 Y13.45 I0 J-0.25 F600
N1070 Y13.95 I0 J0.25
N1075 G1 X29.643 Y13.943 Z-0.781
N1080 X29.589 Y13.924 Z-0.77
N1085 X29.548 Y13.898 Z-0.738
N1090 X29.512 Y13.865 Z-0.705
N1095 X29.493 Y13.84 Z-0.656
N1100 X29.476 Y13.811 Z-0.608
N1105 X29.467 Y13.791 Z-0.493
N1110 G0 Z13
N1115 X13.7 Y13.95
N1120 Z12
N1125 G1 Z9 F150
N1130 G3 Y13.45 I0 J-0.25 F600
N1135 Y13.95 I0 J0.25
N1140 G1 Z8 F150
N1145 G3 Y13.45 I0 J-0.25 F600
N1150 Y13.95 I0 J0.25
N1155 G1 Z7 F150
N1160 G3 Y13.45 I0 J-0.25 F600
N1165 Y13.95 I0 J0.25
N1170 G1 Z6 F150
N1175 G3 Y13.45 I0 J-0.25 F600
N1180 Y13.95 I0 J0.25
N1185 G1 Z5 F150
N1190 G3 Y13.45 I0 J-0.25 F600
N1195 Y13.95 I0 J0.25
N1200 G1 Z4 F150
N1205 G3 Y13.45 I0 J-0.25 F600
N1210 Y13.95 I0 J0.25
N1215 G1 Z3 F150
N1220 G3 Y13.45 I0 J-0.25 F600
N1225 Y13.95 I0 J0.25
N1230 G1 Z2 F150
N1235 G3 Y13.45 I0 J-0.25 F600
N1240 Y13.95 I0 J0.25
N1245 G1 Z1 F150
N1250 G3 Y13.45 I0 J-0.25 F600
N1255 Y13.95 I0 J0.25
N1260 G1 Z0 F150
N1265 G3 Y13.45 I0 J-0.25 F600
N1270 Y13.95 I0 J0.25
N1275 G1 Z-0.793 F150
N1280 G3 Y13.45 I0 J-0.25 F600
N1285 Y13.95 I0 J0.25
N1290 G1 X13.643 Y13.943 Z-0.781
N1295 X13.589 Y13.924 Z-0.77
N1300 X13.548 Y13.898 Z-0.738
N1305 X13.512 Y13.865 Z-0.705
N1310 X13.493 Y13.84 Z-0.656
N1315 X13.476 Y13.811 Z-0.608
N1320 X13.467 Y13.791 Z-0.493
N1325 G0 Z13
N1330 X13.7 Y28.95
N1335 Z12
N1340 G1 Z9 F150
N1345 G3 Y28.45 I0 J-0.25 F600
N1350 Y28.95 I0 J0.25
N1355 G1 Z8 F150
N1360 G3 Y28.45 I0 J-0.25 F600
N1365 Y28.95 I0 J0.25
N1370 G1 Z7 F150
N1375 G3 Y28.45 I0 J-0.25 F600
N1380 Y28.95 I0 J0.25
N1385 G1 Z6 F150
N1390 G3 Y28.45 I0 J-0.25 F600
N1395 Y28.95 I0 J0.25
N1400 G1 Z5 F150
N1405 G3 Y28.45 I0 J-0.25 F600
N1410 Y28.95 I0 J0.25
N1415 G1 Z4 F150
N1420 G3 Y28.45 I0 J-0.25 F600
N1425 Y28.95 I0 J0.25
N1430 G1 Z3 F150
N1435 G3 Y28.45 I0 J-0.25 F600
N1440 Y28.95 I0 J0.25
N1445 G1 Z2 F150
N1450 G3 Y28.45 I0 J-0.25 F600
N1455 Y28.95 I0 J0.25
N1460 G1 Z1 F150
N1465 G3 Y28.45 I0 J-0.25 F600
N1470 Y28.95 I0 J0.25
N1475 G1 Z0 F150
N1480 G3 Y28.45 I0 J-0.25 F600
N1485 Y28.95 I0 J0.25
N1490 G1 Z-0.793 F150
N1495 G3 Y28.45 I0 J-0.25 F600
N1500 Y28.95 I0 J0.25
N1505 G1 X13.643 Y28.943 Z-0.781
N1510 X13.589 Y28.924 Z-0.77
N1515 X13.548 Y28.898 Z-0.738
N1520 X13.512 Y28.865 Z-0.705
N1525 X13.493 Y28.84 Z-0.656
N1530 X13.476 Y28.811 Z-0.608
N1535 X13.467 Y28.791 Z-0.493
N1540 G0 Z23
(2D Kontura3)
N1545 G0 Z25
N1550 X23 Y5.3
N1555 Z25
N1560 Z15
N1565 G1 Z11 F150
N1570 Z-0.493
N1575 G19 G3 Y5.6 Z-0.793 J0.3 K0 F600
N1580 G1 Y5.9
N1585 G17 G3 X22.7 Y6.2 I-0.3 J0
N1590 G1 X7.7
N1595 G2 X6.2 Y7.7 I0 J1.5
N1600 G1 Y42.7
N1605 G2 X7.7 Y44.2 I1.5 J0
N1610 G1 X37.7
N1615 G2 X39.2 Y42.7 I0 J-1.5
N1620 G1 Y7.7
N1625 G2 X37.7 Y6.2 I-1.5 J0
N1630 G1 X22.7
N1635 G3 X22.4 Y5.9 I0 J-0.3
N1640 G1 Y5.6
N1645 G19 G2 Y5.3 Z-0.493 J0 K0.3
N1650 G0 Z25
N1655 G17
N1660 M9
N1665 M2
