(1001)
(T2 D=3 CR=1.5 - ZMIN=2.707 - Frza s kulovm koncem)
N10 G90
N15 G17
N20 G21
(-Attention- Property Safe Retracts is set to Clearance Height.)
(Ensure the clearance height will clear the part and or fixtures.)
(Raise the Z-axis to a safe height before starting the program.)
(Contour4)
N25 T2 M6
N30 S10000 M3
N35 G17 G90
N40 M8
N45 G0 X16.689 Y43.049
N50 Z22
N55 G0 Z9.001
N60 G1 Z3.007 F20
N65 X16.681 Y43.048 Z2.94
N70 X16.659 Y43.046 Z2.877
N75 X16.624 Y43.043 Z2.82
N80 X16.576 Y43.039 Z2.773
N85 X16.52 Y43.034 Z2.737
N90 X16.457 Y43.029 Z2.715
N95 X16.39 Y43.023 Z2.707
N100 G17 G3 X16.117 Y42.698 I0.026 J-0.299 F500
N105 G1 X17.734 Y24.216
N110 X17.747 Y24.078
N115 X17.765 Y23.923
N120 X17.78 Y23.814 F20
N125 X17.811 Y23.643 F500
N130 X17.849 Y23.486 F20
N135 X17.856 Y23.458 F500
N140 X17.876 Y23.389
N145 X17.914 Y23.265
N150 X17.952 Y23.16 F20
N155 X17.97 Y23.113 F500
N160 X18.026 Y22.975
N165 X18.058 Y22.903
N170 X18.106 Y22.802 F20
N175 X18.187 Y22.648 F500
N180 X18.249 Y22.546 F20
N185 X18.281 Y22.492 F500
N190 X18.326 Y22.423
N195 X18.398 Y22.32
N200 X18.464 Y22.232 F20
N205 X18.531 Y22.147 F500
N210 X18.603 Y22.064
N215 X18.642 Y22.019
N220 X18.72 Y21.935 F20
N225 X18.842 Y21.814 F500
N230 X18.937 Y21.731 F20
N235 X18.976 Y21.697 F500
N240 X19.017 Y21.661
N245 X19.142 Y21.565
N250 X19.233 Y21.499 F20
N255 X19.295 Y21.457 F500
N260 X19.432 Y21.371
N265 X19.468 Y21.349
N270 X19.565 Y21.293 F20
N275 X19.72 Y21.214 F500
N280 X19.826 Y21.167 F20
N285 X19.847 Y21.158 F500
N290 X19.985 Y21.101
N295 X20.08 Y21.066
N300 X20.203 Y21.026 F20
N305 X20.261 Y21.008 F500
N310 X20.307 Y20.995
N315 X20.309 Y20.994
N320 X20.33 Y20.99
N325 X20.399 Y20.976
N330 X20.415 Y20.973
N335 X20.551 Y20.95 F20
N340 X20.676 Y20.933 F500
N345 X20.745 Y20.925
N350 X20.81 Y20.921
N355 X20.944 Y20.912 F20
N360 X21.119 Y20.91 F500
N365 X21.242 Y20.914 F20
N370 X21.298 Y20.917 F500
N375 X21.367 Y20.921
N380 X21.505 Y20.937
N385 X21.643 Y20.956
N390 X21.782 Y20.981
N395 X21.851 Y20.997
N400 X21.877 Y21.003
N405 X22.017 Y21.038 F20
N410 X22.183 Y21.089 F500
N415 X22.298 Y21.131 F20
N420 X22.334 Y21.145 F500
N425 X22.43 Y21.182
N430 X22.55 Y21.236
N435 X22.657 Y21.288 F20
N440 X22.749 Y21.336 F500
N445 X22.818 Y21.374
N450 X22.864 Y21.401
N455 X23.001 Y21.486 F20
N460 X23.141 Y21.585 F500
N465 X23.239 Y21.66 F20
N470 X23.331 Y21.733 F500
N475 X23.44 Y21.831
N480 X23.448 Y21.838
N485 X23.534 Y21.919 F20
N490 X23.622 Y22.009 F500
N495 X23.671 Y22.062
N500 X23.681 Y22.074
N505 X23.801 Y22.214 F20
N510 X23.904 Y22.35 F500
N515 X23.974 Y22.451 F20
N520 X24.047 Y22.561 F500
N525 X24.087 Y22.63
N530 X24.117 Y22.682
N535 X24.176 Y22.788 F20
N540 X24.253 Y22.942 F500
N545 X24.34 Y23.149 F20
N550 X24.398 Y23.314 F500
N555 X24.432 Y23.427 F20
N560 X24.46 Y23.527 F500
N565 X24.497 Y23.665
N570 X29.242 Y42.698
N575 G3 X29.024 Y43.062 I-0.291 J0.073
N580 G1 X28.959 Y43.078 Z2.715
N585 X28.897 Y43.093 Z2.737
N590 X28.842 Y43.107 Z2.773
N595 X28.796 Y43.118 Z2.82
N600 X28.761 Y43.127 Z2.877
N605 X28.74 Y43.132 Z2.94
N610 X28.732 Y43.134 Z3.007
N615 G0 Z22
N620 M9
N625 M2
