(Project rapoukLegv9)
(Created by Estlcam version 11 build 11,245)
(Machining time about 00:41:46 hours)

(Required tools:)
(End mill 3mm)

G90
G91.1
M03 S4260
G00 Z5.0000


(No. 1: V??ezy 1)
G00 X34.0875 Y8.9248
G00 Z0.5000
G01 Z0.0000 F15 S4260
G01 Z-0.2500
G01 Y12.7349 F65
G01 X56.6411 Y7.1117
G01 X56.7121 Y7.0940
G01 X56.6880 Y7.0919
G01 X34.7859 Y5.1757
G01 X34.0875 Y5.1146
G01 Y8.9248
G01 Z-0.5000 F15
G01 Y12.7349 F65
G01 X56.6411 Y7.1117
G01 X56.7121 Y7.0940
G01 X56.6880 Y7.0919
G01 X34.7859 Y5.1757
G01 X34.0875 Y5.1146
G01 Y8.9248
G01 Z-0.7500 F15
G01 Y12.7349 F65
G01 X56.6411 Y7.1117
G01 X56.7121 Y7.0940
G01 X56.6880 Y7.0919
G01 X34.7859 Y5.1757
G01 X34.0875 Y5.1146
G01 Y8.9248
G01 Z-1.0000 F15
G01 Y12.7349 F65
G01 X56.6411 Y7.1117
G01 X56.7121 Y7.0940
G01 X56.6880 Y7.0919
G01 X34.7859 Y5.1757
G01 X34.0875 Y5.1146
G01 Y8.9248
G01 Z-1.2500 F15
G01 Y12.7349 F65
G01 X56.6411 Y7.1117
G01 X56.7121 Y7.0940
G01 X56.6880 Y7.0919
G01 X34.7859 Y5.1757
G01 X34.0875 Y5.1146
G01 Y8.9248
G01 Z-1.5000 F15
G01 Y12.7349 F65
G01 X56.6411 Y7.1117
G01 X56.7121 Y7.0940
G01 X56.6880 Y7.0919
G01 X34.7859 Y5.1757
G01 X34.0875 Y5.1146
G01 Y8.9248
G01 Z-1.7500 F15
G01 Y12.7349 F65
G01 X56.6411 Y7.1117
G01 X56.7121 Y7.0940
G01 X56.6880 Y7.0919
G01 X34.7859 Y5.1757
G01 X34.0875 Y5.1146
G01 Y8.9248
G01 Z-2.0000 F15
G01 Y12.7349 F65
G01 X56.6411 Y7.1117
G01 X56.7121 Y7.0940
G01 X56.6880 Y7.0919
G01 X34.7859 Y5.1757
G01 X34.0875 Y5.1146
G01 Y8.9248
G01 Z-2.2500 F15
G01 Y12.7349 F65
G01 X56.6411 Y7.1117
G01 X56.7121 Y7.0940
G01 X56.6880 Y7.0919
G01 X34.7859 Y5.1757
G01 X34.0875 Y5.1146
G01 Y8.9248
G01 Z-2.5000 F15
G01 Y12.7349 F65
G01 X56.6411 Y7.1117
G01 X56.7121 Y7.0940
G01 X56.6880 Y7.0919
G01 X34.7859 Y5.1757
G01 X34.0875 Y5.1146
G01 Y8.9248
G01 Z-2.7500 F15
G01 Y12.7349 F65
G01 X56.6411 Y7.1117
G01 X56.7121 Y7.0940
G01 X56.6880 Y7.0919
G01 X34.7859 Y5.1757
G01 X34.0875 Y5.1146
G01 Y8.9248
G01 Z-3.0000 F15
G01 Y12.7349 F65
G01 X56.6411 Y7.1117
G01 X56.7121 Y7.0940
G01 X56.6880 Y7.0919
G01 X34.7859 Y5.1757
G01 X34.0875 Y5.1146
G01 Y8.9248
G01 Z-3.2500 F15
G01 Y12.7349 F65
G01 X56.6411 Y7.1117
G01 X56.7121 Y7.0940
G01 X56.6880 Y7.0919
G01 X34.7859 Y5.1757
G01 X34.0875 Y5.1146
G01 Y8.9248
G01 Z-3.5000 F15
G01 Y12.7349 F65
G01 X56.6411 Y7.1117
G01 X56.7121 Y7.0940
G01 X56.6880 Y7.0919
G01 X34.7859 Y5.1757
G01 X34.0875 Y5.1146
G01 Y8.9248
G01 Z-3.7500 F15
G01 Y12.7349 F65
G01 X56.6411 Y7.1117
G01 X56.7121 Y7.0940
G01 X56.6880 Y7.0919
G01 X34.7859 Y5.1757
G01 X34.0875 Y5.1146
G01 Y8.9248
G01 Z-4.0000 F15
G01 Y12.7349 F65
G01 X56.6411 Y7.1117
G01 X56.7121 Y7.0940
G01 X56.6880 Y7.0919
G01 X34.7859 Y5.1757
G01 X34.0875 Y5.1146
G01 Y8.9248
G01 Z-4.2500 F15
G01 Y12.7349 F65
G01 X56.6411 Y7.1117
G01 X56.7121 Y7.0940
G01 X56.6880 Y7.0919
G01 X34.7859 Y5.1757
G01 X34.0875 Y5.1146
G01 Y8.9248
G01 Z-4.5000 F15
G01 Y12.7349 F65
G01 X56.6411 Y7.1117
G01 X56.7121 Y7.0940
G01 X56.6880 Y7.0919
G01 X34.7859 Y5.1757
G01 X34.0875 Y5.1146
G01 Y8.9248
G01 Z-4.7500 F15
G01 Y12.7349 F65
G01 X56.6411 Y7.1117
G01 X56.7121 Y7.0940
G01 X56.6880 Y7.0919
G01 X34.7859 Y5.1757
G01 X34.0875 Y5.1146
G01 Y8.9248
G01 Z-5.0000 F15
G01 Y12.7349 F65
G01 X56.6411 Y7.1117
G01 X56.7121 Y7.0940
G01 X56.6880 Y7.0919
G01 X34.7859 Y5.1757
G01 X34.0875 Y5.1146
G01 Y8.9248
G01 Z-5.2500 F15
G01 Y12.7349 F65
G01 X56.6411 Y7.1117
G01 X56.7121 Y7.0940
G01 X56.6880 Y7.0919
G01 X34.7859 Y5.1757
G01 X34.0875 Y5.1146
G01 Y8.9248
G01 Z-5.5000 F15
G01 Y12.7349 F65
G01 X56.6411 Y7.1117
G01 X56.7121 Y7.0940
G01 X56.6880 Y7.0919
G01 X34.7859 Y5.1757
G01 X34.0875 Y5.1146
G01 Y8.9248
G01 Z-5.7500 F15
G01 Y12.7349 F65
G01 X56.6411 Y7.1117
G01 X56.7121 Y7.0940
G01 X56.6880 Y7.0919
G01 X34.7859 Y5.1757
G01 X34.0875 Y5.1146
G01 Y8.9248
G01 Z-6.0000 F15
G01 Y12.7349 F65
G01 X56.6411 Y7.1117
G01 X56.7121 Y7.0940
G01 X56.6880 Y7.0919
G01 X34.7859 Y5.1757
G01 X34.0875 Y5.1146
G01 Y8.9248
G01 Z-6.2500 F15
G01 Y12.7349 F65
G01 X56.6411 Y7.1117
G01 X56.7121 Y7.0940
G01 X56.6880 Y7.0919
G01 X34.7859 Y5.1757
G01 X34.0875 Y5.1146
G01 Y8.9248
G01 Z-6.5000 F15
G01 Y12.7349 F65
G01 X56.6411 Y7.1117
G01 X56.7121 Y7.0940
G01 X56.6880 Y7.0919
G01 X34.7859 Y5.1757
G01 X34.0875 Y5.1146
G01 Y8.9248
G01 Z-6.7500 F15
G01 Y12.7349 F65
G01 X56.6411 Y7.1117
G01 X56.7121 Y7.0940
G01 X56.6880 Y7.0919
G01 X34.7859 Y5.1757
G01 X34.0875 Y5.1146
G01 Y8.9248
G01 Z-7.0000 F15
G01 Y12.7349 F65
G01 X56.6411 Y7.1117
G01 X56.7121 Y7.0940
G01 X56.6880 Y7.0919
G01 X34.7859 Y5.1757
G01 X34.0875 Y5.1146
G01 Y8.9248
G01 Z-7.2500 F15
G01 Y12.7349 F65
G01 X56.6411 Y7.1117
G01 X56.7121 Y7.0940
G01 X56.6880 Y7.0919
G01 X34.7859 Y5.1757
G01 X34.0875 Y5.1146
G01 Y8.9248
G01 Z-7.5000 F15
G01 Y12.7349 F65
G01 X56.6411 Y7.1117
G01 X56.7121 Y7.0940
G01 X56.6880 Y7.0919
G01 X34.7859 Y5.1757
G01 X34.0875 Y5.1146
G01 Y8.9248
G01 Z-7.7500 F15
G01 Y12.7349 F65
G01 X56.6411 Y7.1117
G01 X56.7121 Y7.0940
G01 X56.6880 Y7.0919
G01 X34.7859 Y5.1757
G01 X34.0875 Y5.1146
G01 Y8.9248
G01 Z-8.0000 F15
G01 Y12.7349 F65
G01 X56.6411 Y7.1117
G01 X56.7121 Y7.0940
G01 X56.6880 Y7.0919
G01 X34.7859 Y5.1757
G01 X34.0875 Y5.1146
G01 Y8.9248
G01 Z-8.2500 F15
G01 Y12.7349 F65
G01 X56.6411 Y7.1117
G01 X56.7121 Y7.0940
G01 X56.6880 Y7.0919
G01 X34.7859 Y5.1757
G01 X34.0875 Y5.1146
G01 Y8.9248
G01 Z-8.5000 F15
G01 Y12.7349 F65
G01 X56.6411 Y7.1117
G01 X56.7121 Y7.0940
G01 X56.6880 Y7.0919
G01 X34.7859 Y5.1757
G01 X34.0875 Y5.1146
G01 Y8.9248
G01 Z-8.7500 F15
G01 Y12.7349 F65
G01 X56.6411 Y7.1117
G01 X56.7121 Y7.0940
G01 X56.6880 Y7.0919
G01 X34.7859 Y5.1757
G01 X34.0875 Y5.1146
G01 Y8.9248
G01 Z-9.0000 F15
G01 Y12.7349 F65
G01 X56.6411 Y7.1117
G01 X56.7121 Y7.0940
G01 X56.6880 Y7.0919
G01 X34.7859 Y5.1757
G01 X34.0875 Y5.1146
G01 Y8.9248
G01 Z-9.2500 F15
G01 Y12.7349 F65
G01 X56.6411 Y7.1117
G01 X56.7121 Y7.0940
G01 X56.6880 Y7.0919
G01 X34.7859 Y5.1757
G01 X34.0875 Y5.1146
G01 Y8.9248
G01 Z-9.5000 F15
G01 Y12.7349 F65
G01 X56.6411 Y7.1117
G01 X56.7121 Y7.0940
G01 X56.6880 Y7.0919
G01 X34.7859 Y5.1757
G01 X34.0875 Y5.1146
G01 Y8.9248
G01 Z-9.7500 F15
G01 Y12.7349 F65
G01 X56.6411 Y7.1117
G01 X56.7121 Y7.0940
G01 X56.6880 Y7.0919
G01 X34.7859 Y5.1757
G01 X34.0875 Y5.1146
G01 Y8.9248
G01 Z-10.0000 F15
G01 Y12.7349 F65
G01 X56.6411 Y7.1117
G01 X56.7121 Y7.0940
G01 X56.6880 Y7.0919
G01 X34.7859 Y5.1757
G01 X34.0875 Y5.1146
G01 Y8.9248
G00 Z5.0000
G00 X0.0000 Y0.0000

M05
M30
