; generated by PrusaSlicer 2.5.1+win64 on 2025-01-28 at 07:21:03 UTC


;
;

;
;

;
;
; 

; external perimeters extrusion width = 0.45mm
; perimeters extrusion width = 0.45mm
; infill extrusion width = 0.45mm
; solid infill extrusion width = 0.45mm
; top infill extrusion width = 0.40mm
; first layer extrusion width = 0.50mm

; external perimeters extrusion width = 0.45mm
; perimeters extrusion width = 0.45mm
; infill extrusion width = 0.45mm
; solid infill extrusion width = 0.45mm
; top infill extrusion width = 0.40mm
; first layer extrusion width = 0.50mm

; external perimeters extrusion width = 0.45mm
; perimeters extrusion width = 0.45mm
; infill extrusion width = 0.45mm
; solid infill extrusion width = 0.45mm
; top infill extrusion width = 0.40mm
; first layer extrusion width = 0.50mm

; external perimeters extrusion width = 0.45mm
; perimeters extrusion width = 0.45mm
; infill extrusion width = 0.45mm
; solid infill extrusion width = 0.45mm
; top infill extrusion width = 0.40mm
; first layer extrusion width = 0.50mm

; external perimeters extrusion width = 0.45mm
; perimeters extrusion width = 0.45mm
; infill extrusion width = 0.45mm
; solid infill extrusion width = 0.45mm
; top infill extrusion width = 0.40mm
; first layer extrusion width = 0.50mm

; external perimeters extrusion width = 0.45mm
; perimeters extrusion width = 0.45mm
; infill extrusion width = 0.45mm
; solid infill extrusion width = 0.45mm
; top infill extrusion width = 0.40mm
; first layer extrusion width = 0.50mm

; external perimeters extrusion width = 0.45mm
; perimeters extrusion width = 0.45mm
; infill extrusion width = 0.45mm
; solid infill extrusion width = 0.45mm
; top infill extrusion width = 0.40mm
; first layer extrusion width = 0.50mm

; external perimeters extrusion width = 0.45mm
; perimeters extrusion width = 0.45mm
; infill extrusion width = 0.45mm
; solid infill extrusion width = 0.45mm
; top infill extrusion width = 0.40mm
; first layer extrusion width = 0.50mm

; external perimeters extrusion width = 0.45mm
; perimeters extrusion width = 0.45mm
; infill extrusion width = 0.45mm
; solid infill extrusion width = 0.45mm
; top infill extrusion width = 0.40mm
; first layer extrusion width = 0.50mm

; external perimeters extrusion width = 0.45mm
; perimeters extrusion width = 0.45mm
; infill extrusion width = 0.45mm
; solid infill extrusion width = 0.45mm
; top infill extrusion width = 0.40mm
; first layer extrusion width = 0.50mm

; external perimeters extrusion width = 0.45mm
; perimeters extrusion width = 0.45mm
; infill extrusion width = 0.45mm
; solid infill extrusion width = 0.45mm
; top infill extrusion width = 0.40mm
; first layer extrusion width = 0.50mm

; external perimeters extrusion width = 0.45mm
; perimeters extrusion width = 0.45mm
; infill extrusion width = 0.45mm
; solid infill extrusion width = 0.45mm
; top infill extrusion width = 0.40mm
; first layer extrusion width = 0.50mm

; external perimeters extrusion width = 0.45mm
; perimeters extrusion width = 0.45mm
; infill extrusion width = 0.45mm
; solid infill extrusion width = 0.45mm
; top infill extrusion width = 0.40mm
; first layer extrusion width = 0.50mm

; external perimeters extrusion width = 0.45mm
; perimeters extrusion width = 0.45mm
; infill extrusion width = 0.45mm
; solid infill extrusion width = 0.45mm
; top infill extrusion width = 0.40mm
; first layer extrusion width = 0.50mm

; external perimeters extrusion width = 0.45mm
; perimeters extrusion width = 0.45mm
; infill extrusion width = 0.45mm
; solid infill extrusion width = 0.45mm
; top infill extrusion width = 0.40mm
; first layer extrusion width = 0.50mm

; external perimeters extrusion width = 0.45mm
; perimeters extrusion width = 0.45mm
; infill extrusion width = 0.45mm
; solid infill extrusion width = 0.45mm
; top infill extrusion width = 0.40mm
; first layer extrusion width = 0.50mm

M73 P0 R42
M201 X5000 Y5000 Z200 E2500 ; sets maximum accelerations, mm/sec^2
M203 X400 Y400 Z20 E100 ; sets maximum feedrates, mm / sec
M204 P3000 R1200 T3000 ; sets acceleration (P, T) and retract acceleration (R), mm/sec^2
M205 X8.00 Y8.00 Z2.00 E10.00 ; sets the jerk limits, mm/sec
M205 S0 T0 ; sets the minimum extruding and travel feed rate, mm/sec
M107
;TYPE:Custom
M17 ; enable steppers
M862.3 P "XL" ; printer model check
G90 ; use absolute coordinates
M83 ; extruder relative mode
; set print area
M555 X42.6876 Y31.5956 W285.181 H214.742
; inform about nozzle diameter
M862.1 P0.4
; set & wait for bed and extruder temp for MBL
M140 S100 ; set bed temp
M104 T0 S170 ; set extruder temp for bed leveling
M109 T0 R170 ; wait for temp
; home carriage, pick tool, home all
G28 XY
M84 E ; turn off E motor
G28 Z
M190 S100 ; wait for bed temp
G29 G ; absorb heat
; move to the nozzle cleanup area
G1 X74.6876 Y24.5956 Z5 F4800
M302 S160 ; lower cold extrusion limit to 160C
G1 E-2 F2400 ; retraction for nozzle cleanup
; nozzle cleanup
M84 E ; turn off E motor
G29 P9 X42.6876 Y24.5956 W32 H7
G0 Z10 F480 ; move away in Z

G0 Z70 F480 ; move away (a bit more) in Z
G0 X30 Y0 F6000 ; move away in X/Y for higher bed temperatures

M106 S100 ; cool off the nozzle
M107 ; stop cooling off the nozzle - turn off the fan
; MBL
M84 E ; turn off E motor
G29 P1 ; invalidate mbl & probe print area
G29 P1 X30 Y0 W50 H20 C ; probe near purge place
G29 P3.2 ; interpolate mbl probes
G29 P3.13 ; extrapolate mbl outside probe area
G29 A ; activate mbl
M104 S255 ; set extruder temp
G1 Z10 F720 ; move away in Z
G0 X30 Y-8 F6000 ; move next to the sheet
; wait for extruder temp
M109 T0 S255
;
; purge
;
G92 E0 ; reset extruder position
G0 X30 Y-8 ; move close to the sheet's edge
G1 E2 F2400 ; deretraction after the initial one before nozzle cleaning
G0 E10 X40 Z0.2 F500 ; purge
G0 X70 E9 F800 ; purge
G0 X73 Z0.05 F8000 ; wipe, move close to the bed
G0 X76 Z0.2 F8000 ; wipe, move quickly away from the bed
G92 E0 ; reset extruder position
G21 ; set units to millimeters
G90 ; use absolute coordinates
M83 ; use relative distances for extrusion
M900 K0.04 ; Filament gcode

M142 S40 ; set heatbreak target temp
M107
;LAYER_CHANGE
;Z:0.2
;HEIGHT:0.2
;BEFORE_LAYER_CHANGE
G92 E0.0
;0.2


G1 E-.8 F2100
G1 Z.3 F600
;AFTER_LAYER_CHANGE
;0.2
; printing object rapoukServoWasherv0.stl id:0 copy 0
G1 X253.673 Y172.773 F24000
G1 Z.2 F600
M73 P0 R41
G1 E.8 F1500
M204 P600
;TYPE:Perimeter
;WIDTH:0.499999
G1 F900
G1 X253.684 Y169.605 E.12041
G1 X253.792 Y169.372 E.00976
G1 X253.976 Y169.308 E.00741
G1 X257.181 Y169.308 E.12184
G1 X257.368 Y169.394 E.00782
G1 X257.455 Y169.582 E.00788
G1 X257.464 Y172.774 E.1213
G1 X257.313 Y172.6 E.00874
G1 X256.907 Y172.277 E.01971
G1 X256.446 Y172.048 E.01957
G1 X255.892 Y171.916 E.02163
G1 X255.049 Y171.946 E.03208
G1 X254.559 Y172.104 E.01956
G1 X254.108 Y172.361 E.01971
G1 X253.716 Y172.732 E.02052
M204 P1250
G1 E-.64 F2100
;WIPE_START
G1 F19200
G1 X253.701 Y171.269 E-.152
;WIPE_END
G1 E-.008 F2100
G1 Z.5 F600
G1 X253.673 Y176.015 F24000
G1 Z.2 F600
G1 E.8 F1500
M204 P600
G1 F900
G1 X253.716 Y176.072 E.00273
G1 X254.203 Y176.491 E.02439
G1 X254.68 Y176.736 E.02038
G1 X255.178 Y176.868 E.01958
G1 X255.691 Y176.896 E.01953
G1 X256.2 Y176.818 E.01957
G1 X256.682 Y176.637 E.01957
G1 X257.118 Y176.36 E.01965
G1 X257.464 Y176.003 E.01888
G1 X257.462 Y179.098 E.11764
G1 X257.399 Y179.353 E.00994
G1 X257.181 Y179.481 E.00962
G1 X254.031 Y179.487 E.11971
G1 X253.792 Y179.415 E.00949
G1 X253.682 Y179.186 E.00966
G1 X253.673 Y176.075 E.11824
M204 P1250
G1 E-.64 F2100
;WIPE_START
G1 F19200
G1 X253.716 Y176.072 E-.00446
G1 X254.203 Y176.491 E-.06669
G1 X254.68 Y176.736 E-.05572
G1 X254.914 Y176.798 E-.02514
;WIPE_END
G1 E-.008 F2100
G1 Z.5 F600
G1 X253.913 Y173.217 F24000
G1 Z.2 F600
G1 E.8 F1500
M204 P600
;TYPE:External perimeter
G1 F900
G1 X254.118 Y172.951 E.01275
G1 X254.443 Y172.683 E.01605
G1 X254.817 Y172.489 E.016
G1 X255.239 Y172.376 E.01662
G1 X255.895 Y172.373 E.0249
G1 X256.361 Y172.505 E.01844
G1 X256.732 Y172.708 E.01606
G1 X257.053 Y172.987 E.01618
G1 X257.306 Y173.339 E.01645
;WIDTH:0.50845
G1 X257.497 Y173.842 E.02084
G1 X257.529 Y174.405 E.02185
;WIDTH:0.506836
G1 X257.533 Y174.586 E.00699
;WIDTH:0.527093
G1 X257.452 Y175.152 E.02299
G1 X257.217 Y175.594 E.02019
;WIDTH:0.499999
G1 X256.862 Y175.981 E.01995
G1 X256.51 Y176.214 E.01604
G1 X256.118 Y176.368 E.01601
G1 X255.703 Y176.439 E.01601
G1 X255.283 Y176.423 E.01598
G1 X254.874 Y176.322 E.01601
G1 X254.489 Y176.134 E.01628
G1 X254.082 Y175.799 E.02003
G1 X253.829 Y175.446 E.0165
;WIDTH:0.511338
G1 X253.64 Y174.953 E.02058
G1 X253.603 Y174.322 E.0246
;WIDTH:0.50786
G1 X253.657 Y173.768 E.02152
G1 X253.859 Y173.288 E.02011
;WIDTH:0.499999
G1 X253.876 Y173.265 E.00111
M204 P1250
G1 E-.64 F2100
;WIPE_START
G1 F19200
G1 X254.118 Y172.951 E-.0411
G1 X254.443 Y172.683 E-.04387
G1 X254.817 Y172.489 E-.04374
G1 X255.033 Y172.431 E-.02328
;WIPE_END
G1 E-.008 F2100
G1 Z.5 F600
G1 X253.341 Y179.595 F24000
G1 Z.2 F600
G1 E.8 F1500
M204 P600
G1 F900
G1 X253.225 Y179.264 E.01333
G1 X253.216 Y176.088 E.12072
G1 X253.202 Y175.583 E.01918
;WIDTH:0.510343
G1 X253.166 Y174.859 E.02818
G1 X253.156 Y174.259 E.02335
;WIDTH:0.50786
G1 X253.215 Y172.955 E.05047
;WIDTH:0.499999
G1 X253.218 Y169.689 E.12411
G1 X253.263 Y169.354 E.01285
G1 X253.505 Y169.013 E.01589
G1 X253.898 Y168.851 E.01615
G1 X257.135 Y168.851 E.12304
G1 X257.492 Y168.921 E.01382
G1 X257.696 Y169.066 E.0095
G1 X257.841 Y169.27 E.00952
G1 X257.912 Y169.517 E.00976
G1 X257.921 Y172.698 E.12088
G1 X257.934 Y173.201 E.01915
;WIDTH:0.50845
G1 X257.992 Y174.406 E.04669
;WIDTH:0.506836
G1 X257.981 Y174.664 E.00994
;WIDTH:0.529313
G1 X257.93 Y175.239 E.02337
G1 X257.922 Y175.833 E.02404
;WIDTH:0.499999
G1 X257.919 Y179.099 E.12411
G1 X257.873 Y179.441 E.01311
G1 X257.756 Y179.653 E.00922
G1 X257.486 Y179.868 E.01311
G1 X257.246 Y179.937 E.00949
G1 X254.064 Y179.944 E.12092
G1 X253.721 Y179.898 E.01315
G1 X253.503 Y179.777 E.00947
G1 X253.38 Y179.64 E.007
M204 P1250
G1 X253.516 Y179.292 F24000
G1 E-.64 F2100
;WIPE_START
G1 F19200
M73 P1 R41
G1 X253.225 Y179.264 E-.04227
G1 X253.222 Y178.208 E-.10973
;WIPE_END
G1 E-.008 F2100
G1 Z.5 F600
G1 X257.257 Y177.482 F24000
G1 Z.2 F600
G1 E.8 F1500
M204 P600
;TYPE:Solid infill
;WIDTH:0.531134
G1 F900
G1 X256.806 Y177.031 E.02591
G1 X256.482 Y177.163 E.01421
G1 X256.301 Y177.216 E.00767
G1 X257.051 Y177.966 E.0431
G1 X257.051 Y178.656 E.028
G1 X255.702 Y177.307 E.07745
G1 X255.154 Y177.283 E.02225
G1 X254.937 Y177.233 E.00904
G1 X256.774 Y179.07 E.10546
G1 X256.085 Y179.071 E.02797
G1 X254.087 Y177.074 E.11469
G1 X254.089 Y177.766 E.02811
G1 X255.396 Y179.073 E.07501
G1 X254.707 Y179.074 E.02797
G1 X253.885 Y178.252 E.04719
M204 P1250
G1 E-.64 F2100
;WIPE_START
G1 F19200
G1 X254.707 Y179.074 E-.12078
G1 X255.007 Y179.073 E-.03122
;WIPE_END
G1 E-.008 F2100
G1 Z.5 F600
G1 X257.252 Y170.512 F24000
G1 Z.2 F600
G1 E.8 F1500
M204 P600
;WIDTH:0.534079
G1 F900
G1 X256.459 Y169.719 E.04583
G1 X255.764 Y169.719 E.02837
G1 X257.048 Y171.003 E.07414
G1 X257.05 Y171.699 E.02845
G1 X255.069 Y169.719 E.11437
G1 X254.375 Y169.719 E.02837
G1 X256.206 Y171.55 E.10574
G1 X256.034 Y171.513 E.00716
G1 X255.9 Y171.505 E.00548
G1 X255.467 Y171.506 E.01766
G1 X254.086 Y170.125 E.07976
G1 X254.086 Y170.819 E.02834
G1 X254.844 Y171.577 E.04376
G1 X254.565 Y171.658 E.01183
G1 X254.331 Y171.759 E.01043
G1 X253.88 Y171.308 E.02605
M204 P1250
; stop printing object rapoukServoWasherv0.stl id:0 copy 0
;LAYER_CHANGE
;Z:0.4
;HEIGHT:0.2
;BEFORE_LAYER_CHANGE
G92 E0.0
;0.4


G1 E-.64 F2100
;WIPE_START
G1 F19200
G1 X254.331 Y171.759 E-.06628
G1 X254.565 Y171.658 E-.02653
G1 X254.844 Y171.577 E-.03011
G1 X254.646 Y171.379 E-.02908
;WIPE_END
G1 E-.008 F2100
G1 Z.5 F600
;AFTER_LAYER_CHANGE
;0.4
M140 S105 ; set bed temperature
; printing object rapoukServoWasherv0.stl id:0 copy 0
G1 X253.426 Y174.585 F24000
G1 Z.4 F600
G1 E.8 F1500
M204 P1000
;TYPE:Perimeter
;WIDTH:0.493696
G1 F900
G1 X253.555 Y175.077 E.01907
;WIDTH:0.449999
G1 X253.871 Y175.675 E.0229
G1 X254.359 Y176.143 E.0229
G1 X254.97 Y176.435 E.0229
G1 X255.179 Y176.482 E.00727
G1 X255.835 Y176.504 E.0222
G1 X256.484 Y176.313 E.0229
G1 X257.041 Y175.929 E.0229
G1 X257.448 Y175.389 E.0229
;WIDTH:0.488231
G1 X257.571 Y175.108 E.01136
;WIDTH:0.526462
G1 X257.695 Y174.827 E.01233
G1 X257.714 Y175.135 E.01239
;WIDTH:0.488231
G1 X257.734 Y175.442 E.01141
;WIDTH:0.449999
G1 X257.736 Y179.085 E.1233
G1 X257.696 Y179.378 E.01002
G1 X257.52 Y179.635 E.01053
G1 X257.214 Y179.755 E.01112
G1 X254.02 Y179.762 E.1081
G1 X253.705 Y179.679 E.01102
G1 X253.483 Y179.477 E.01019
G1 X253.408 Y179.257 E.00786
G1 X253.405 Y175.093 E.14094
;WIDTH:0.493696
G1 X253.424 Y174.645 E.01683
M204 P1250
G1 X253.809 Y173.224 F24000
M204 P1000
;WIDTH:0.449999
G1 F900
G1 X253.745 Y173.301 E.00339
;WIDTH:0.494887
G1 X253.597 Y173.612 E.01297
;WIDTH:0.539774
G1 X253.449 Y173.924 E.01425
G1 X253.426 Y173.575 E.01443
;WIDTH:0.494887
G1 X253.403 Y173.227 E.01313
;WIDTH:0.449999
G1 X253.401 Y169.703 E.11927
G1 X253.47 Y169.338 E.0126
G1 X253.655 Y169.127 E.00948
G1 X254.004 Y169.026 E.0123
G1 X257.111 Y169.027 E.10517
G1 X257.293 Y169.044 E.00619
G1 X257.478 Y169.138 E.00702
G1 X257.672 Y169.351 E.00977
G1 X257.729 Y169.633 E.00975
G1 X257.732 Y173.347 E.12568
;WIDTH:0.481539
G1 X257.716 Y173.705 E.01308
;WIDTH:0.513078
G1 X257.701 Y174.063 E.01402
G1 X257.622 Y173.834 E.00948
;WIDTH:0.481539
G1 X257.543 Y173.605 E.00885
;WIDTH:0.449999
G1 X257.195 Y173.024 E.0229
G1 X256.683 Y172.583 E.0229
G1 X256.058 Y172.324 E.0229
G1 X255.568 Y172.265 E.0167
G1 X255.352 Y172.284 E.00734
G1 X254.757 Y172.429 E.02073
G1 X254.18 Y172.783 E.0229
G1 X253.848 Y173.178 E.01748
M204 P1250
G1 E-.64 F2100
;WIPE_START
G1 F19200
G1 X253.745 Y173.301 E-.01663
G1 X253.597 Y173.612 E-.03585
G1 X253.449 Y173.924 E-.03585
G1 X253.426 Y173.575 E-.03629
G1 X253.409 Y173.312 E-.02739
;WIPE_END
G1 E-.008 F2100
G1 Z.7 F600
G1 X253.131 Y179.675 F24000
G1 Z.4 F600
G1 E.8 F1500
M204 P850
;TYPE:External perimeter
G1 F900
G1 X253.001 Y179.303 E.01335
G1 X252.994 Y169.704 E.32492
G1 X253.03 Y169.399 E.01039
G1 X253.144 Y169.076 E.01159
G1 X253.354 Y168.847 E.01052
G1 X253.626 Y168.699 E.01048
G1 X253.981 Y168.619 E.01233
G1 X257.111 Y168.62 E.10594
G1 X257.473 Y168.676 E.01241
G1 X257.856 Y168.906 E.01511
G1 X258.044 Y169.172 E.01103
G1 X258.089 Y169.328 E.00551
G1 X258.136 Y169.633 E.01044
G1 X258.143 Y179.085 E.31993
G1 X258.086 Y179.515 E.01467
G1 X257.926 Y179.805 E.01122
G1 X257.696 Y180.005 E.01034
G1 X257.272 Y180.162 E.01528
G1 X254.078 Y180.169 E.10811
G1 X253.647 Y180.111 E.01472
G1 X253.373 Y179.961 E.01058
G1 X253.16 Y179.727 E.01073
M204 P1250
G1 X253.331 Y179.336 F24000
G1 E-.64 F2100
;WIPE_START
G1 F19200
G1 X253.001 Y179.303 E-.047
G1 X253 Y178.292 E-.105
;WIPE_END
G1 E-.008 F2100
G1 Z.7 F600
G1 X254.161 Y173.417 F24000
G1 Z.4 F600
G1 E.8 F1500
M204 P850
G1 F900
G1 X254.479 Y173.059 E.0162
G1 X254.954 Y172.785 E.01855
G1 X255.483 Y172.674 E.01831
G1 X255.92 Y172.707 E.01481
G1 X256.431 Y172.903 E.01855
G1 X256.856 Y173.249 E.01855
G1 X257.15 Y173.712 E.01855
G1 X257.285 Y174.232 E.01819
G1 X257.256 Y174.751 E.01758
G1 X257.069 Y175.241 E.01775
G1 X256.727 Y175.669 E.01855
G1 X256.268 Y175.968 E.01855
G1 X255.738 Y176.108 E.01855
G1 X255.212 Y176.077 E.01785
G1 X254.682 Y175.871 E.01922
G1 X254.263 Y175.518 E.01855
G1 X253.976 Y175.051 E.01855
G1 X253.85 Y174.518 E.01855
G1 X253.898 Y173.972 E.01855
G1 X254.122 Y173.462 E.01885
M204 P1250
G1 X253.98 Y173.06 F24000
G1 E-.64 F2100
;WIPE_START
G1 F19200
G1 X254.479 Y173.059 E-.05597
G1 X254.954 Y172.785 E-.05695
G1 X255.322 Y172.707 E-.03909
;WIPE_END
G1 E-.008 F2100
G1 Z.7 F600
G1 X257.701 Y174.063 F24000
G1 Z.4 F600
G1 E.8 F1500
M204 P1000
;TYPE:Perimeter
;WIDTH:0.517646
G1 F900
G1 X257.699 Y174.75 E.0271
;WIDTH:0.526462
G1 X257.695 Y174.827 E.00311
M204 P1250
G1 E-.64 F2100
;WIPE_START
G1 F19200
G1 X257.699 Y174.75 E-.00805
G1 X257.701 Y174.063 E-.07134
;WIPE_END
G1 E-.08062 F2100
G1 Z.7 F600
G1 X253.426 Y174.585 F24000
G1 Z.4 F600
G1 E.8 F1500
M204 P1000
