; generated by PrusaSlicer 2.5.1+win64 on 2024-11-26 at 07:44:51 UTC


;
;
; 

; external perimeters extrusion width = 0.45mm
; perimeters extrusion width = 0.45mm
; infill extrusion width = 0.45mm
; solid infill extrusion width = 0.45mm
; top infill extrusion width = 0.40mm
; first layer extrusion width = 0.42mm

; external perimeters extrusion width = 0.45mm
; perimeters extrusion width = 0.45mm
; infill extrusion width = 0.45mm
; solid infill extrusion width = 0.45mm
; top infill extrusion width = 0.40mm
; first layer extrusion width = 0.42mm

; external perimeters extrusion width = 0.45mm
; perimeters extrusion width = 0.45mm
; infill extrusion width = 0.45mm
; solid infill extrusion width = 0.45mm
; top infill extrusion width = 0.40mm
; first layer extrusion width = 0.42mm

; external perimeters extrusion width = 0.45mm
; perimeters extrusion width = 0.45mm
; infill extrusion width = 0.45mm
; solid infill extrusion width = 0.45mm
; top infill extrusion width = 0.40mm
; first layer extrusion width = 0.42mm

M73 P0 R51
M73 Q0 S51
M201 X1000 Y1000 Z200 E5000 ; sets maximum accelerations, mm/sec^2
M203 X200 Y200 Z12 E120 ; sets maximum feedrates, mm / sec
M204 P1250 R1250 T1250 ; sets acceleration (P, T) and retract acceleration (R), mm/sec^2
M205 X8.00 Y8.00 Z0.40 E4.50 ; sets the jerk limits, mm/sec
M205 S0 T0 ; sets the minimum extruding and travel feed rate, mm/sec
M107
;TYPE:Custom
M862.3 P "MK3S" ; printer model check
M862.1 P0.4 ; nozzle diameter check
M115 U3.12.2 ; tell printer latest fw version
G90 ; use absolute coordinates
M83 ; extruder relative mode
M104 S255 ; set extruder temp
M140 S100 ; set bed temp
M190 S100 ; wait for bed temp
M109 S255 ; wait for extruder temp
G28 W ; home all without mesh bed level
G80 ; mesh bed leveling

G1 Z0.2 F720
G1 Y-3 F1000 ; go outside print area
G92 E0
G1 X60 E9 F1000 ; intro line
G1 X100 E12.5 F1000 ; intro line

G92 E0
M221 S95

; Don't change E values below. Excessive value can damage the printer.
M907 E430 ; set extruder motor current
G21 ; set units to millimeters
G90 ; use absolute coordinates
M83 ; use relative distances for extrusion
M900 K0.04 ; Filament gcode LA 1.5
M900 K20 ; Filament gcode LA 1.0
M107
;LAYER_CHANGE
;Z:0.2
;HEIGHT:0.2
;BEFORE_LAYER_CHANGE
G92 E0.0
;0.2


G1 E-.8 F2100
G1 Z.4 F720
;AFTER_LAYER_CHANGE
;0.2
G1 X71.519 Y59.612 F10800
G1 Z.2 F720
G1 E.8 F2100
M204 S800
;TYPE:Skirt/Brim
;WIDTH:0.42
G1 F1200
G1 X72.344 Y58.788 E.03655
G1 X73.397 Y58.085 E.03972
G1 X74.473 Y57.639 E.03652
G1 X75.796 Y57.383 E.04224
G1 X130.434 Y55.358 E1.7143
G1 X131.408 Y55.451 E.03069
G1 X132.614 Y55.791 E.03927
G1 X133.551 Y56.254 E.03277
G1 X134.294 Y56.783 E.02861
G1 X134.997 Y57.464 E.03069
G1 X135.592 Y58.258 E.0311
G1 X136.068 Y59.174 E.03236
G1 X136.4 Y60.219 E.03438
G1 X147.565 Y116.115 E1.78719
G1 X147.611 Y131.58 E.48492
M73 P0 R50
G1 X146.915 Y133.261 E.05704
G1 X146.415 Y133.761 E.02217
G1 X144.806 Y134.456 E.05494
G1 X83.386 Y136.324 E1.92668
G1 X68.314 Y136.325 E.47258
M73 Q0 S50
G1 X66.633 Y135.629 E.05704
G1 X66.133 Y135.129 E.02217
G1 X65.437 Y133.448 E.05704
G1 X65.445 Y118.248 E.47659
G1 X70.117 Y62.995 E1.73858
G1 X70.256 Y62.147 E.02694
G1 X70.57 Y61.179 E.03192
G1 X70.957 Y60.412 E.02694
G1 X71.485 Y59.661 E.02878
M204 S1000
; printing object rapoukCupLv0.stl id:0 copy 0
;WIPE_START
G1 F8640
G1 X72.344 Y58.788 E-.2828
G1 X73.397 Y58.085 E-.29249
G1 X74.136 Y57.778 E-.18471
;WIPE_END
G1 E-.04 F2100
G1 Z.6 F720
G1 X68.318 Y122.126 F10800
G1 Z.2 F720
G1 E.8 F2100
M204 S800
;TYPE:External perimeter
;WIDTH:0.38292
G1 F1200
G1 X68.286 Y121.724 E.01141
M204 S1000
;WIPE_START
G1 F8640
G1 X68.318 Y122.126 E-.09321
;WIPE_END
G1 E-.70679 F2100
G1 Z.6 F720
G1 X68.909 Y123.486 F10800
G1 Z.2 F720
G1 E.8 F2100
M204 S800
;TYPE:Perimeter
;WIDTH:0.419999
G1 F1200
G1 X69.358 Y123.693 E.01551
G1 X69.804 Y123.778 E.01423
G1 X72.813 Y123.788 E.09436
G1 X73.518 Y123.676 E.02237
G1 X74.093 Y123.403 E.01995
G1 X74.573 Y122.986 E.01995
G1 X74.922 Y122.454 E.01995
G1 X75.095 Y121.964 E.01629
G1 X75.149 Y121.366 E.01884
G1 X75.04 Y120.739 E.01995
G1 X74.766 Y120.165 E.01995
G1 X74.549 Y119.88 E.01122
G1 X74.2 Y119.57 E.01465
G1 X73.804 Y119.331 E.0145
;WIDTH:0.432084
G1 X73.21 Y119.14 E.02019
G1 X73.693 Y119.134 E.01566
;WIDTH:0.419999
G1 X78.912 Y119.123 E.16363
G1 X78.776 Y119.285 E.00664
G1 X78.75 Y120.968 E.05278
G1 X76.77 Y122.948 E.0878
G1 X76.649 Y123.127 E.00676
G1 X76.604 Y123.348 E.00708
G1 X76.604 Y128.67 E.16684
G1 X76.625 Y128.823 E.00484
G1 X76.78 Y129.08 E.00941
G1 X76.933 Y129.183 E.00577
G1 X77.17 Y129.235 E.00762
G1 X78.207 Y129.235 E.03253
G1 X78.746 Y129.774 E.02391
G1 X78.748 Y131.437 E.05214
G1 X78.777 Y132.616 E.03698
G1 X78.935 Y132.774 E.00702
G1 X69 Y132.761 E.3115
G1 X68.996 Y124.584 E.25639
G1 X68.983 Y124.193 E.01228
G1 X68.915 Y123.545 E.0204
M204 S1000
;WIPE_START
G1 F8640
G1 X69.358 Y123.693 E-.10778
G1 X69.804 Y123.778 E-.10479
G1 X72.175 Y123.786 E-.54744
;WIPE_END
G1 E-.04 F2100
G1 Z.6 F720
G1 X68.424 Y120.403 F10800
G1 Z.2 F720
G1 E.8 F2100
M204 S800
;TYPE:External perimeter
G1 F1200
G1 X68.427 Y119.954 E.01409
G1 X68.535 Y119.362 E.01888
G1 X68.602 Y118.756 E.01911
G1 X77.468 Y118.757 E.27796
G1 X79.816 Y118.728 E.07363
G1 X82.368 Y118.73 E.08002
;WIDTH:0.41914
G1 X82.911 Y118.741 E.01699
;WIDTH:0.40731
G1 X82.911 Y119.094 E.01069
;WIDTH:0.419999
G1 X79.342 Y119.108 E.1119
G1 X79.154 Y119.291 E.00824
G1 X79.125 Y121.127 E.05757
G1 X77.037 Y123.215 E.09259
G1 X76.981 Y123.348 E.00452
G1 X76.981 Y128.67 E.16684
G1 X77.04 Y128.806 E.00466
G1 X77.17 Y128.858 E.00438
G1 X78.364 Y128.858 E.03742
G1 X79.123 Y129.618 E.0337
G1 X79.125 Y131.428 E.05675
G1 X79.154 Y132.607 E.03698
G1 X79.339 Y132.789 E.00813
G1 X82.368 Y132.791 E.09499
;WIDTH:0.419153
G1 X82.911 Y132.803 E.01698
;WIDTH:0.407396
G1 X82.911 Y132.979 E.00534
G1 X82.911 Y133.156 E.00535
;WIDTH:0.419999
G1 X79.818 Y133.168 E.09699
G1 X78.314 Y133.139 E.04715
G1 X68.624 Y133.138 E.30383
G1 X68.619 Y124.584 E.2682
G1 X68.606 Y124.213 E.01165
G1 X68.543 Y123.589 E.01965
G1 X68.427 Y122.943 E.02057
G1 X68.424 Y122.529 E.01301
G1 X69.041 Y123.124 E.0269
G1 X69.47 Y123.33 E.01491
G1 X69.805 Y123.401 E.01074
G1 X72.815 Y123.411 E.09436
G1 X73.368 Y123.33 E.01753
G1 X73.855 Y123.111 E.01675
G1 X74.265 Y122.768 E.01675
G1 X74.558 Y122.348 E.01607
G1 X74.733 Y121.861 E.01622
G1 X74.772 Y121.34 E.01638
G1 X74.67 Y120.815 E.01675
G1 X74.431 Y120.338 E.01675
G1 X74.257 Y120.117 E.00881
G1 X73.955 Y119.857 E.0125
G1 X73.615 Y119.657 E.01235
G1 X73.106 Y119.508 E.01663
G1 X72.821 Y119.485 E.00896
G1 X69.805 Y119.495 E.09457
G1 X69.328 Y119.608 E.01536
G1 X69.052 Y119.762 E.00991
G1 X68.681 Y120.097 E.01569
G1 X68.462 Y120.357 E.01065
M204 S1000
G1 X68.528 Y120.017 F10800
;WIPE_START
M73 Q1 S50
G1 F8640
G1 X68.427 Y119.954 E-.09353
G1 X68.535 Y119.362 E-.13901
G1 X68.602 Y118.756 E-.14074
G1 X70.277 Y118.756 E-.38672
;WIPE_END
G1 E-.04 F2100
G1 Z.6 F720
G1 X69.03 Y119.227 F10800
G1 Z.2 F720
G1 E.8 F2100
M204 S800
;TYPE:Perimeter
;WIDTH:0.608722
M73 P1 R50
G1 F1200
G1 X69.19 Y119.204 E.00759
;WIDTH:0.562022
G1 X69.35 Y119.181 E.00696
;WIDTH:0.515321
G1 X69.509 Y119.157 E.00634
;WIDTH:0.468621
G1 X69.669 Y119.134 E.00571
;WIDTH:0.42192
G1 X69.804 Y119.126 E.00426
;WIDTH:0.405142
G1 X72.819 Y119.121 E.09082
;WIDTH:0.432084
G1 X73.21 Y119.14 E.01264
M204 S1000
;WIPE_START
G1 F8640
G1 X72.819 Y119.121 E-.0902
G1 X69.919 Y119.125 E-.6698
;WIPE_END
G1 E-.04 F2100
G1 Z.6 F720
G1 X78.595 Y120.063 F10800
G1 Z.2 F720
G1 E.8 F2100
M204 S800
;TYPE:Solid infill
;WIDTH:0.426861
G1 F1200
G1 X78 Y119.469 E.02683
G1 X77.458 Y119.47 E.01732
G1 X78.419 Y120.431 E.04339
G1 X78.413 Y120.826 E.01261
G1 X78.342 Y120.897 E.0032
G1 X76.916 Y119.47 E.0644
G1 X76.373 Y119.471 E.01732
G1 X78.071 Y121.168 E.07664
G1 X77.799 Y121.44 E.01226
G1 X75.831 Y119.471 E.08888
G1 X75.288 Y119.472 E.01732
G1 X77.528 Y121.712 E.10112
G1 X77.257 Y121.983 E.01226
G1 X74.746 Y119.472 E.11336
G1 X74.609 Y119.473 E.00437
G1 X74.706 Y119.555 E.00404
G1 X74.969 Y119.858 E.01282
G1 X75.064 Y120.002 E.0055
G1 X75.294 Y120.447 E.01601
G1 X75.359 Y120.628 E.00615
G1 X76.985 Y122.255 E.07344
G1 X76.714 Y122.526 E.01226
G1 X75.482 Y121.295 E.05562
G1 X75.458 Y121.813 E.01659
G1 X76.452 Y122.808 E.04489
G1 X76.339 Y122.988 E.00679
G1 X76.285 Y123.184 E.00649
G1 X75.353 Y122.252 E.04208
G1 X75.207 Y122.649 E.0135
G1 X76.265 Y123.706 E.04775
G1 X76.265 Y124.249 E.01733
G1 X74.994 Y122.978 E.0574
G1 X74.756 Y123.284 E.01235
G1 X76.265 Y124.792 E.06811
G1 X76.265 Y125.335 E.01733
G1 X74.466 Y123.537 E.0812
G1 X74.299 Y123.673 E.00689
G1 X74.15 Y123.763 E.00556
G1 X76.265 Y125.878 E.09548
G1 X76.265 Y126.421 E.01733
G1 X73.777 Y123.933 E.11233
G1 X73.644 Y123.991 E.00464
G1 X73.362 Y124.061 E.00927
G1 X76.265 Y126.964 E.13107
G1 X76.265 Y127.507 E.01733
G1 X72.878 Y124.12 E.15292
G1 X72.334 Y124.12 E.01735
G1 X76.435 Y128.22 E.18512
M204 S1000
;WIPE_START
G1 F8640
G1 X74.107 Y125.892 E-.76
;WIPE_END
G1 E-.04 F2100
G1 Z.6 F720
G1 X77.618 Y129.404 F10800
G1 Z.2 F720
G1 E.8 F2100
M204 S800
G1 F1200
G1 X78.407 Y130.193 E.03562
G1 X78.408 Y130.736 E.01735
G1 X77.244 Y129.572 E.05254
G1 X77.089 Y129.572 E.00496
G1 X76.79 Y129.493 E.00986
G1 X76.546 Y129.328 E.0094
G1 X76.385 Y129.123 E.00834
G1 X76.297 Y128.914 E.00724
G1 X76.265 Y128.593 E.01029
G1 X71.791 Y124.119 E.20199
G1 X71.248 Y124.119 E.01735
G1 X78.408 Y131.28 E.3233
G1 X78.418 Y131.832 E.01765
G1 X70.704 Y124.118 E.34829
G1 X70.161 Y124.118 E.01735
G1 X78.432 Y132.389 E.37343
G1 X78.433 Y132.428 E.00124
G1 X77.927 Y132.427 E.01613
G1 X69.589 Y124.09 E.37644
G1 X69.428 Y124.067 E.00521
G1 X69.309 Y124.025 E.00402
G1 X69.331 Y124.374 E.01117
G1 X77.384 Y132.427 E.36359
G1 X76.841 Y132.427 E.01735
G1 X69.335 Y124.921 E.33886
G1 X69.336 Y125.465 E.01734
G1 X76.297 Y132.426 E.31431
G1 X75.754 Y132.426 E.01735
G1 X69.336 Y126.008 E.28977
G1 X69.336 Y126.551 E.01734
G1 X75.211 Y132.426 E.26522
G1 X74.667 Y132.425 E.01735
G1 X69.337 Y127.094 E.24068
G1 X69.337 Y127.638 E.01734
G1 X74.124 Y132.425 E.21613
G1 X73.581 Y132.425 E.01735
G1 X69.337 Y128.181 E.19159
G1 X69.338 Y128.724 E.01734
G1 X73.037 Y132.424 E.16705
G1 X72.494 Y132.424 E.01735
G1 X69.338 Y129.268 E.1425
G1 X69.338 Y129.811 E.01734
G1 X71.951 Y132.424 E.11796
G1 X71.407 Y132.423 E.01735
G1 X69.338 Y130.354 E.09341
G1 X69.339 Y130.897 E.01734
G1 X70.864 Y132.423 E.06887
G1 X70.321 Y132.423 E.01735
G1 X69.339 Y131.441 E.04432
G1 X69.339 Y131.984 E.01734
G1 X69.947 Y132.592 E.02745
M204 S1000
; stop printing object rapoukCupLv0.stl id:0 copy 0
;LAYER_CHANGE
;Z:0.4
;HEIGHT:0.2
;BEFORE_LAYER_CHANGE
G92 E0.0
;0.4


;WIPE_START
G1 F8640
G1 X69.339 Y131.984 E-.19851
G1 X69.339 Y131.441 E-.12545
G1 X70.321 Y132.423 E-.32058
G1 X70.821 Y132.423 E-.11547
;WIPE_END
G1 E-.04 F2100
G1 Z.6 F720
;AFTER_LAYER_CHANGE
;0.4
M140 S110 ; set bed temperature
G1 X70.821 Y136.325 F10800
G1 Z.4 F720
G1 E.8 F2100
;TYPE:Skirt/Brim
;WIDTH:0.42
G1 F2410
G1 X68.314 Y136.325 E.07862
G1 X66.633 Y135.629 E.05704
G1 X66.133 Y135.129 E.02217
G1 X65.437 Y133.448 E.05704
G1 X65.445 Y118.248 E.47659
G1 X70.117 Y62.995 E1.73858
G1 X70.256 Y62.147 E.02694
G1 X70.57 Y61.179 E.03192
G1 X70.957 Y60.412 E.02694
G1 X71.519 Y59.612 E.03066
G1 X72.344 Y58.788 E.03655
G1 X73.397 Y58.085 E.03972
G1 X74.473 Y57.639 E.03652
G1 X75.796 Y57.383 E.04224
G1 X130.434 Y55.358 E1.7143
G1 X131.408 Y55.451 E.03069
G1 X132.614 Y55.791 E.03927
G1 X133.551 Y56.254 E.03277
G1 X134.294 Y56.783 E.02861
G1 X134.997 Y57.464 E.03069
G1 X135.592 Y58.258 E.0311
G1 X136.068 Y59.174 E.03236
G1 X136.4 Y60.219 E.03438
G1 X147.565 Y116.115 E1.78719
G1 X147.611 Y131.58 E.48492
G1 X146.915 Y133.261 E.05704
G1 X146.415 Y133.761 E.02217
G1 X144.806 Y134.456 E.05494
G1 X83.386 Y136.324 E1.92668
G1 X70.881 Y136.325 E.39208
; printing object rapoukCupLv0.stl id:0 copy 0
;WIPE_START
G1 F8640
G1 X68.314 Y136.325 E-.59283
G1 X67.645 Y136.048 E-.16717
;WIPE_END
G1 E-.04 F2100
G1 Z.8 F720
G1 X68.715 Y119.551 F10800
G1 Z.4 F720
G1 E.8 F2100
M204 S800
;TYPE:Perimeter
;WIDTH:0.587789
G1 F2410
G1 X68.715 Y118.849 E.03181
G1 X69.238 Y118.831 E.02373
;WIDTH:0.551994
G1 X69.813 Y118.812 E.02434
;WIDTH:0.514381
G1 X72.815 Y118.812 E.11767
;WIDTH:0.557264
G1 X73.428 Y118.834 E.02626
G1 X73.685 Y118.816 E.01102
;WIDTH:0.521509
G1 X73.942 Y118.798 E.01026
;WIDTH:0.485754
G1 X74.2 Y118.78 E.00949
;WIDTH:0.449999
G1 X78.827 Y118.78 E.15663
;WIDTH:0.48968
G1 X78.968 Y118.8 E.0053
;WIDTH:0.52936
G1 X79.11 Y118.82 E.00578
;WIDTH:0.56904
G1 X79.251 Y118.84 E.00625
;WIDTH:0.60872
G1 X79.393 Y118.86 E.00672
G1 X79.3 Y118.938 E.0057
;WIDTH:0.56904
G1 X79.208 Y119.016 E.0053
;WIDTH:0.52936
G1 X79.116 Y119.094 E.0049
;WIDTH:0.48968
G1 X79.023 Y119.173 E.0045
;WIDTH:0.449999
G1 X78.901 Y119.539 E.01307
G1 X78.901 Y121.036 E.05068
G1 X76.956 Y122.982 E.09314
G1 X76.83 Y123.164 E.00749
G1 X76.777 Y123.414 E.00864
G1 X76.777 Y128.47 E.17114
G1 X76.861 Y128.779 E.01085
G1 X77.092 Y129.004 E.01091
G1 X77.387 Y129.08 E.01033
G1 X78.272 Y129.08 E.02993
G1 X78.901 Y129.71 E.03015
G1 X78.901 Y132.357 E.0896
G1 X79.023 Y132.723 E.01307
;WIDTH:0.499447
G1 X79.186 Y132.83 E.00738
;WIDTH:0.548895
G1 X79.349 Y132.936 E.00818
;WIDTH:0.598342
G1 X79.512 Y133.042 E.00898
G1 X79.284 Y133.067 E.0106
;WIDTH:0.548895
G1 X79.055 Y133.091 E.00966
;WIDTH:0.499447
G1 X78.827 Y133.116 E.00872
;WIDTH:0.449999
G1 X68.646 Y133.116 E.34462
G1 X68.646 Y123.224 E.33483
G1 X68.708 Y123.266 E.00255
G1 X69.283 Y123.508 E.02111
G1 X69.813 Y123.58 E.0181
G1 X72.711 Y123.58 E.09811
G1 X72.91 Y123.573 E.00674
G1 X73.561 Y123.439 E.02249
G1 X74.14 Y123.111 E.02252
G1 X74.542 Y122.697 E.01951
G1 X74.805 Y122.196 E.01918
G1 X74.878 Y121.923 E.00954
G1 X74.938 Y121.353 E.01943
G1 X74.805 Y120.701 E.02252
G1 X74.476 Y120.122 E.02252
G1 X73.985 Y119.673 E.02252
;WIDTH:0.485754
G1 X73.786 Y119.564 E.00837
;WIDTH:0.521509
G1 X73.587 Y119.454 E.00904
;WIDTH:0.557264
G1 X73.388 Y119.345 E.00972
G1 X72.815 Y119.284 E.02466
;WIDTH:0.514381
G1 X69.813 Y119.284 E.11767
;WIDTH:0.519159
G1 X69.718 Y119.288 E.00375
;WIDTH:0.553474
G1 X69.408 Y119.33 E.01329
;WIDTH:0.587789
G1 X69.097 Y119.371 E.01419
G1 X68.769 Y119.526 E.01645
M204 S1000
;WIPE_START
G1 F8640
G1 X68.715 Y118.849 E-.15671
G1 X69.238 Y118.831 E-.12093
G1 X69.813 Y118.812 E-.1328
G1 X71.327 Y118.812 E-.34956
;WIPE_END
G1 E-.04 F2100
G1 Z.8 F720
G1 X68.206 Y120.95 F10800
G1 Z.4 F720
G1 E.8 F2100
M204 S800
;TYPE:External perimeter
;WIDTH:0.449999
G1 F1500
G1 X68.239 Y120.694 E.00876
G1 X68.239 Y118.541 E.07285
G1 X68.407 Y118.373 E.00805
G1 X83.089 Y118.373 E.49696
G1 X83.089 Y119.336 E.03258
G1 X79.512 Y119.336 E.12107
G1 X79.349 Y119.417 E.00616
G1 X79.308 Y119.539 E.00436
G1 X79.308 Y121.205 E.05638
G1 X77.243 Y123.27 E.09884
G1 X77.184 Y123.414 E.00527
G1 X77.184 Y128.47 E.17114
G1 X77.243 Y128.613 E.00526
G1 X77.387 Y128.673 E.00528
G1 X78.44 Y128.673 E.03563
G1 X79.308 Y129.541 E.04156
G1 X79.308 Y132.357 E.09531
G1 X79.349 Y132.479 E.00436
G1 X79.512 Y132.561 E.00616
G1 X83.089 Y132.561 E.12107
G1 X83.089 Y133.042 E.01629
G1 X83.089 Y133.523 E.01629
G1 X68.407 Y133.523 E.49696
G1 X68.239 Y133.355 E.00805
G1 X68.239 Y122.148 E.37933
G1 X68.464 Y122.52 E.01471
G1 X68.833 Y122.865 E.01707
G1 X69.286 Y123.088 E.0171
G1 X69.813 Y123.173 E.01808
G1 X72.846 Y123.171 E.10268
G1 X73.376 Y123.077 E.01822
G1 X73.852 Y122.823 E.01825
G1 X74.226 Y122.435 E.01825
G1 X74.462 Y121.95 E.01825
G1 X74.536 Y121.416 E.01825
G1 X74.442 Y120.886 E.01825
G1 X74.189 Y120.41 E.01825
G1 X73.8 Y120.036 E.01825
G1 X73.316 Y119.8 E.01824
G1 X72.815 Y119.723 E.01716
G1 X69.813 Y119.723 E.1016
G1 X69.343 Y119.791 E.01608
G1 X68.882 Y119.998 E.0171
G1 X68.502 Y120.331 E.01711
G1 X68.263 Y120.697 E.01479
G1 X68.218 Y120.952 E.00876
;WIDTH:0.41646
G1 X68.173 Y121.207 E.00804
G1 X68.198 Y121.01 E.00618
M204 S1000
G1 X68.364 Y120.746 F10800
;WIPE_START
G1 F8640
G1 X68.239 Y120.694 E-.07362
G1 X68.239 Y118.541 E-.49694
G1 X68.407 Y118.373 E-.05492
G1 X68.989 Y118.373 E-.13452
;WIPE_END
G1 E-.04 F2100
G1 Z.8 F720
G1 X79.512 Y133.042 F10800
G1 Z.4 F720
