; generated by PrusaSlicer 2.5.1+win64 on 2024-11-28 at 07:22:11 UTC


;
;
; 

; external perimeters extrusion width = 0.45mm
; perimeters extrusion width = 0.45mm
; infill extrusion width = 0.45mm
; solid infill extrusion width = 0.45mm
; top infill extrusion width = 0.40mm
; first layer extrusion width = 0.42mm

; external perimeters extrusion width = 0.45mm
; perimeters extrusion width = 0.45mm
; infill extrusion width = 0.45mm
; solid infill extrusion width = 0.45mm
; top infill extrusion width = 0.40mm
; first layer extrusion width = 0.42mm

; external perimeters extrusion width = 0.45mm
; perimeters extrusion width = 0.45mm
; infill extrusion width = 0.45mm
; solid infill extrusion width = 0.45mm
; top infill extrusion width = 0.40mm
; first layer extrusion width = 0.42mm

; external perimeters extrusion width = 0.45mm
; perimeters extrusion width = 0.45mm
; infill extrusion width = 0.45mm
; solid infill extrusion width = 0.45mm
; top infill extrusion width = 0.40mm
; first layer extrusion width = 0.42mm

M73 P0 R51
M73 Q0 S51
M201 X1000 Y1000 Z200 E5000 ; sets maximum accelerations, mm/sec^2
M203 X200 Y200 Z12 E120 ; sets maximum feedrates, mm / sec
M204 P1250 R1250 T1250 ; sets acceleration (P, T) and retract acceleration (R), mm/sec^2
M205 X8.00 Y8.00 Z0.40 E4.50 ; sets the jerk limits, mm/sec
M205 S0 T0 ; sets the minimum extruding and travel feed rate, mm/sec
M107
;TYPE:Custom
M862.3 P "MK3S" ; printer model check
M862.1 P0.4 ; nozzle diameter check
M115 U3.12.2 ; tell printer latest fw version
G90 ; use absolute coordinates
M83 ; extruder relative mode
M104 S255 ; set extruder temp
M140 S100 ; set bed temp
M190 S100 ; wait for bed temp
M109 S255 ; wait for extruder temp
G28 W ; home all without mesh bed level
G80 ; mesh bed leveling

G1 Z0.2 F720
G1 Y-3 F1000 ; go outside print area
G92 E0
G1 X60 E9 F1000 ; intro line
G1 X100 E12.5 F1000 ; intro line

G92 E0
M221 S95

; Don't change E values below. Excessive value can damage the printer.
M907 E430 ; set extruder motor current
G21 ; set units to millimeters
G90 ; use absolute coordinates
M83 ; use relative distances for extrusion
M900 K0.04 ; Filament gcode LA 1.5
M900 K20 ; Filament gcode LA 1.0
M107
;LAYER_CHANGE
;Z:0.2
;HEIGHT:0.2
;BEFORE_LAYER_CHANGE
G92 E0.0
;0.2


G1 E-.8 F2100
G1 Z.4 F720
;AFTER_LAYER_CHANGE
;0.2
G1 X71.401 Y59.899 F10800
G1 Z.2 F720
G1 E.8 F2100
M204 S800
;TYPE:Skirt/Brim
;WIDTH:0.42
G1 F1200
G1 X72.307 Y58.929 E.04162
G1 X73.436 Y58.16 E.04284
G1 X74.5 Y57.719 E.0361
G1 X75.803 Y57.467 E.04161
G1 X130.434 Y55.442 E1.7141
G1 X131.342 Y55.524 E.02859
G1 X132.316 Y55.771 E.03152
G1 X133.072 Y56.087 E.02569
G1 X133.932 Y56.608 E.03152
G1 X134.704 Y57.272 E.03193
G1 X135.238 Y57.894 E.02569
G1 X135.774 Y58.744 E.03152
G1 X136.132 Y59.583 E.02859
G1 X152.455 Y115.333 E1.82141
G1 X152.551 Y116.001 E.02115
G1 X152.551 Y131.001 E.47031
G1 X151.855 Y132.682 E.05704
G1 X151.355 Y133.182 E.02217
G1 X149.688 Y133.878 E.05662
G1 X88.445 Y134.254 E1.92029
G1 X73.43 Y134.254 E.47077
G1 X71.749 Y133.558 E.05704
G1 X71.249 Y133.058 E.02217
G1 X70.553 Y131.39 E.05666
G1 X70.173 Y63.591 E2.12583
G1 X70.241 Y62.668 E.02902
M73 P0 R50
G1 X70.476 Y61.676 E.03195
G1 X70.865 Y60.75 E.03151
G1 X71.369 Y59.95 E.02964
M204 S1000
; printing object rapoukStickv0.stl id:0 copy 0
;WIPE_START
G1 F8640
G1 X72.307 Y58.929 E-.32009
G1 X73.436 Y58.16 E-.31552
G1 X73.934 Y57.954 E-.1244
;WIPE_END
G1 E-.04 F2100
G1 Z.6 F720
G1 X128.407 Y59.345 F10800
G1 Z.2 F720
G1 E.8 F2100
M204 S800
;TYPE:Perimeter
;WIDTH:0.419999
G1 F1200
G1 X128.773 Y59.051 E.01474
G1 X129.428 Y58.749 E.02261
G1 X129.861 Y58.645 E.01396
G1 X130.575 Y58.617 E.0224
G1 X131.03 Y58.69 E.01447
G1 X131.659 Y58.93 E.02111
G1 X132.094 Y59.197 E.01601
G1 X132.58 Y59.637 E.02056
G1 X132.978 Y60.233 E.02245
G1 X133.202 Y60.853 E.02068
G1 X133.27 Y61.345 E.01558
G1 X133.278 Y61.564 E.00687
G1 X133.248 Y62.068 E.01582
G1 X133.074 Y62.705 E.02072
G1 X132.728 Y63.307 E.02177
G1 X132.399 Y63.687 E.01577
G1 X131.894 Y64.093 E.02033
G1 X131.239 Y64.396 E.02261
G1 X130.806 Y64.499 E.01396
G1 X130.092 Y64.527 E.0224
G1 X129.636 Y64.455 E.01447
G1 X129.007 Y64.215 E.02111
G1 X128.572 Y63.948 E.01601
G1 X128.087 Y63.507 E.02056
G1 X127.688 Y62.912 E.02245
G1 X127.588 Y62.671 E.00819
G1 X127.407 Y62.049 E.02032
G1 X127.388 Y61.58 E.01469
G1 X127.418 Y61.077 E.01582
G1 X127.592 Y60.439 E.02072
G1 X127.939 Y59.838 E.02177
G1 X128.268 Y59.457 E.01577
G1 X128.36 Y59.383 E.00371
M204 S1000
G1 X128.119 Y59.072 F10800
M204 S800
;TYPE:External perimeter
G1 F1200
G1 X128.581 Y58.724 E.01815
G1 X129.304 Y58.391 E.02494
G1 X129.809 Y58.27 E.01629
G1 X130.597 Y58.239 E.02473
G1 X131.119 Y58.322 E.01657
G1 X131.609 Y58.481 E.01616
G1 X132.082 Y58.722 E.01665
G1 X132.503 Y59.028 E.01632
G1 X132.873 Y59.397 E.01637
G1 X133.312 Y60.054 E.02478
G1 X133.515 Y60.542 E.01656
G1 X133.635 Y61.044 E.0162
G1 X133.666 Y61.84 E.02497
G1 X133.585 Y62.355 E.01636
G1 X133.424 Y62.85 E.01632
G1 X133.182 Y63.323 E.01665
G1 X132.879 Y63.74 E.01617
G1 X132.503 Y64.117 E.01668
G1 X132.085 Y64.42 E.0162
G1 X131.363 Y64.754 E.02494
G1 X130.858 Y64.875 E.01629
G1 X130.07 Y64.906 E.02473
G1 X129.548 Y64.823 E.01657
G1 X129.058 Y64.663 E.01616
G1 X128.584 Y64.423 E.01665
G1 X128.163 Y64.117 E.01632
G1 X127.794 Y63.748 E.01637
G1 X127.354 Y63.091 E.02478
M73 Q0 S50
G1 X127.152 Y62.603 E.01656
G1 X127.031 Y62.1 E.0162
G1 X127 Y61.305 E.02497
G1 X127.082 Y60.789 E.01636
G1 X127.243 Y60.294 E.01632
G1 X127.484 Y59.821 E.01665
G1 X127.788 Y59.404 E.01617
G1 X128.077 Y59.115 E.01283
M204 S1000
G1 X128.498 Y59.201 F10800
;WIPE_START
G1 F8640
G1 X128.581 Y58.724 E-.14736
G1 X129.304 Y58.391 E-.18365
G1 X129.809 Y58.27 E-.11994
G1 X130.597 Y58.239 E-.18214
G1 X131.119 Y58.322 E-.12199
G1 X131.139 Y58.328 E-.00491
;WIPE_END
G1 E-.04 F2100
G1 Z.6 F720
G1 X132.877 Y60.431 F10800
G1 Z.2 F720
G1 E.8 F2100
M204 S800
;TYPE:Solid infill
;WIDTH:0.443771
G1 F1200
G1 X131.976 Y59.53 E.04246
G1 X131.707 Y59.335 E.01109
G1 X131.334 Y59.145 E.01395
G1 X130.89 Y59.011 E.01547
G1 X132.891 Y61.012 E.09431
G1 X132.922 Y61.143 E.00449
G1 X132.941 Y61.629 E.01623
G1 X130.28 Y58.968 E.12542
G1 X129.907 Y58.983 E.01244
G1 X129.763 Y59.018 E.00495
G1 X132.892 Y62.147 E.14751
G1 X132.758 Y62.579 E.01509
G1 X129.341 Y59.163 E.16105
G1 X128.953 Y59.342 E.01424
G1 X132.565 Y62.954 E.17026
G1 X132.325 Y63.281 E.01352
G1 X128.624 Y59.58 E.17445
G1 X128.341 Y59.864 E.01336
G1 X132.042 Y63.565 E.17445
G1 X131.714 Y63.803 E.01353
G1 X128.102 Y60.191 E.17026
G1 X127.909 Y60.565 E.01403
G1 X131.326 Y63.982 E.16105
G1 X131.127 Y64.073 E.00728
G1 X130.904 Y64.127 E.00766
G1 X127.775 Y60.998 E.14751
G1 X127.719 Y61.347 E.0118
G1 X127.726 Y61.515 E.00562
G1 X130.386 Y64.176 E.12542
G1 X130.112 Y64.187 E.00913
G1 X129.777 Y64.134 E.01133
G1 X127.776 Y62.133 E.09431
G1 X127.835 Y62.381 E.00849
G1 X127.989 Y62.751 E.01336
G1 X128.316 Y63.24 E.01961
G1 X129.197 Y64.121 E.04152
M204 S1000
; stop printing object rapoukStickv0.stl id:0 copy 0
;LAYER_CHANGE
;Z:0.4
;HEIGHT:0.2
;BEFORE_LAYER_CHANGE
G92 E0.0
;0.4


;WIPE_START
G1 F8640
G1 X128.316 Y63.24 E-.2876
G1 X127.989 Y62.751 E-.13587
G1 X127.835 Y62.381 E-.09258
G1 X127.776 Y62.133 E-.05882
G1 X128.343 Y62.7 E-.18514
;WIPE_END
G1 E-.04 F2100
G1 Z.6 F720
;AFTER_LAYER_CHANGE
;0.4
M140 S110 ; set bed temperature
G1 X128.077 Y55.53 F10800
G1 Z.4 F720
G1 E.8 F2100
;TYPE:Skirt/Brim
;WIDTH:0.42
G1 F1225
G1 X130.434 Y55.442 E.07393
G1 X131.342 Y55.524 E.02859
G1 X132.316 Y55.771 E.03152
G1 X133.072 Y56.087 E.02569
G1 X133.932 Y56.608 E.03152
G1 X134.704 Y57.272 E.03193
G1 X135.238 Y57.894 E.02569
G1 X135.774 Y58.744 E.03152
G1 X136.132 Y59.583 E.02859
G1 X152.455 Y115.333 E1.82141
G1 X152.551 Y116.001 E.02115
M73 P1 R50
M73 Q1 S50
G1 X152.551 Y131.001 E.47031
G1 X151.855 Y132.682 E.05704
G1 X151.355 Y133.182 E.02217
G1 X149.688 Y133.878 E.05662
G1 X88.445 Y134.254 E1.92029
G1 X73.43 Y134.254 E.47077
G1 X71.749 Y133.558 E.05704
G1 X71.249 Y133.058 E.02217
G1 X70.553 Y131.39 E.05666
G1 X70.173 Y63.591 E2.12583
G1 X70.241 Y62.668 E.02902
G1 X70.476 Y61.676 E.03195
G1 X70.865 Y60.75 E.03151
G1 X71.401 Y59.899 E.03152
G1 X72.307 Y58.929 E.04162
G1 X73.436 Y58.16 E.04284
G1 X74.5 Y57.719 E.0361
G1 X75.803 Y57.467 E.04161
G1 X128.017 Y55.532 E1.63828
; printing object rapoukStickv0.stl id:0 copy 0
;WIPE_START
G1 F8640
G1 X130.434 Y55.442 E-.55831
G1 X131.304 Y55.521 E-.20169
;WIPE_END
G1 E-.04 F2100
G1 Z.8 F720
G1 X128.366 Y59.293 F10800
G1 Z.4 F720
G1 E.8 F2100
M204 S800
;TYPE:Perimeter
;WIDTH:0.449999
G1 F1225
G1 X128.74 Y58.999 E.01609
G1 X129.409 Y58.688 E.02499
G1 X129.858 Y58.581 E.01562
G1 X130.567 Y58.553 E.02401
G1 X131.06 Y58.633 E.01693
G1 X131.716 Y58.879 E.02369
G1 X132.298 Y59.268 E.02371
G1 X132.483 Y59.451 E.0088
G1 X132.913 Y59.985 E.0232
G1 X133.211 Y60.628 E.02401
G1 X133.344 Y61.319 E.02382
G1 X133.362 Y61.559 E.00814
G1 X133.272 Y62.305 E.02545
G1 X133.138 Y62.716 E.01463
G1 X132.904 Y63.172 E.01735
G1 X132.468 Y63.719 E.02369
G1 X131.927 Y64.146 E.0233
G1 X131.258 Y64.456 E.02499
G1 X130.809 Y64.563 E.01562
G1 X130.1 Y64.592 E.02401
G1 X129.606 Y64.511 E.01693
G1 X128.951 Y64.266 E.02369
G1 X128.368 Y63.877 E.02371
G1 X128.184 Y63.694 E.0088
G1 X127.754 Y63.16 E.0232
G1 X127.456 Y62.516 E.02401
G1 X127.382 Y62.204 E.01084
G1 X127.305 Y61.585 E.02112
G1 X127.395 Y60.839 E.02545
G1 X127.528 Y60.428 E.01463
G1 X127.763 Y59.973 E.01735
G1 X128.199 Y59.425 E.02369
G1 X128.319 Y59.33 E.00518
M204 S1000
G1 X128.114 Y58.974 F10800
M204 S800
;TYPE:External perimeter
G1 F1225
G1 X128.525 Y58.649 E.01771
G1 X129.275 Y58.302 E.02799
G1 X129.802 Y58.176 E.01834
G1 X130.592 Y58.145 E.02674
G1 X131.166 Y58.238 E.01969
G1 X131.903 Y58.514 E.02664
G1 X132.557 Y58.951 E.02664
G1 X132.944 Y59.336 E.01847
G1 X133.265 Y59.778 E.01848
G1 X133.597 Y60.495 E.02674
G1 X133.67 Y60.799 E.0106
G1 X133.75 Y61.288 E.01678
G1 X133.771 Y61.568 E.00949
G1 X133.671 Y62.393 E.02814
G1 X133.515 Y62.873 E.01708
G1 X133.247 Y63.394 E.01983
G1 X132.757 Y64.01 E.02664
G1 X132.142 Y64.495 E.02651
G1 X131.392 Y64.843 E.02799
G1 X130.865 Y64.969 E.01834
G1 X130.075 Y65 E.02674
G1 X129.501 Y64.906 E.01969
G1 X128.764 Y64.63 E.02664
G1 X128.109 Y64.193 E.02664
G1 X127.722 Y63.809 E.01847
G1 X127.401 Y63.367 E.01848
G1 X127.069 Y62.65 E.02674
G1 X126.934 Y62.08 E.01983
G1 X126.896 Y61.576 E.0171
G1 X126.995 Y60.751 E.02814
G1 X127.151 Y60.271 E.01708
G1 X127.42 Y59.75 E.01983
G1 X127.91 Y59.135 E.02664
G1 X128.067 Y59.011 E.00677
M204 S1000
G1 X128.494 Y59.1 F10800
;WIPE_START
G1 F8640
G1 X128.525 Y58.649 E-.13468
G1 X129.275 Y58.302 E-.19092
G1 X129.802 Y58.176 E-.12514
G1 X130.592 Y58.145 E-.18242
G1 X131.134 Y58.233 E-.12684
;WIPE_END
G1 E-.04 F2100
G1 Z.8 F720
G1 X130.703 Y64.384 F10800
G1 Z.4 F720
G1 E.8 F2100
;TYPE:Solid infill
;WIDTH:0.451988
G1 F1225
G1 X132.92 Y62.168 E.10662
G1 X132.992 Y61.517 E.02226
G1 X130.292 Y64.217 E.12988
G1 X130.122 Y64.224 E.00576
G1 X129.765 Y64.166 E.01233
G1 X132.924 Y61.006 E.15197
G1 X132.863 Y60.749 E.009
G1 X132.781 Y60.571 E.00666
G1 X129.334 Y64.018 E.16579
G1 X129.119 Y63.937 E.00781
G1 X128.949 Y63.824 E.00694
G1 X132.597 Y60.176 E.17549
G1 X132.355 Y59.841 E.01407
G1 X128.602 Y63.592 E.1805
G1 X128.312 Y63.304 E.01391
G1 X132.064 Y59.552 E.1805
G1 X131.717 Y59.32 E.01419
G1 X128.069 Y62.969 E.17549
G1 X127.886 Y62.573 E.01482
G1 X131.333 Y59.127 E.16579
G1 X130.902 Y58.979 E.01549
G1 X127.743 Y62.138 E.15197
G1 X127.701 Y61.961 E.0062
G1 X127.675 Y61.627 E.01138
G1 X130.375 Y58.927 E.12987
G1 X129.908 Y58.946 E.01589
G1 X129.737 Y58.987 E.00598
G1 X127.537 Y61.186 E.10582
; stop printing object rapoukStickv0.stl id:0 copy 0
;LAYER_CHANGE
;Z:0.6
;HEIGHT:0.2
;BEFORE_LAYER_CHANGE
G92 E0.0
;0.6


;WIPE_START
G1 F8640
G1 X129.737 Y58.987 E-.71835
G1 X129.908 Y58.946 E-.04059
G1 X129.913 Y58.946 E-.00106
;WIPE_END
G1 E-.04 F2100
G1 Z.8 F720
;AFTER_LAYER_CHANGE
;0.6
G1 X129.784 Y55.466 F10800
G1 Z.6 F720
G1 E.8 F2100
;TYPE:Skirt/Brim
;WIDTH:0.42
G1 F1214
G1 X130.434 Y55.442 E.02039
G1 X131.342 Y55.524 E.02859
G1 X132.316 Y55.771 E.03152
G1 X133.072 Y56.087 E.02569
G1 X133.932 Y56.608 E.03152
G1 X134.704 Y57.272 E.03193
G1 X135.238 Y57.894 E.02569
G1 X135.774 Y58.744 E.03152
G1 X136.132 Y59.583 E.02859
G1 X152.455 Y115.333 E1.82141
G1 X152.551 Y116.001 E.02115
G1 X152.551 Y131.001 E.47031
G1 X151.855 Y132.682 E.05704
G1 X151.355 Y133.182 E.02217
G1 X149.688 Y133.878 E.05662
G1 X88.445 Y134.254 E1.92029
G1 X73.43 Y134.254 E.47077
G1 X71.749 Y133.558 E.05704
G1 X71.249 Y133.058 E.02217
G1 X70.553 Y131.39 E.05666
G1 X70.173 Y63.591 E2.12583
G1 X70.241 Y62.668 E.02902
M73 Q2 S50
G1 X70.476 Y61.676 E.03195
G1 X70.865 Y60.75 E.03151
G1 X71.401 Y59.899 E.03152
G1 X72.307 Y58.929 E.04162
G1 X73.436 Y58.16 E.04284
M73 P2 R50
G1 X74.5 Y57.719 E.0361
G1 X75.803 Y57.467 E.04161
G1 X129.724 Y55.469 E1.69183
; printing object rapoukStickv0.stl id:0 copy 0
;WIPE_START
G1 F8640
G1 X130.434 Y55.442 E-.16399
G1 X131.342 Y55.524 E-.21057
G1 X132.316 Y55.771 E-.23213
G1 X132.929 Y56.027 E-.15331
;WIPE_END
G1 E-.04 F2100
G1 Z1 F720
G1 X128.427 Y59.362 F10800
G1 Z.6 F720
G1 E.8 F2100
M204 S800
;TYPE:Perimeter
;WIDTH:0.449999
G1 F1214
G1 X128.768 Y59.087 E.01483
G1 X129.438 Y58.775 E.02501
G1 X129.879 Y58.67 E.01535
G1 X130.548 Y58.643 E.02268
G1 X130.871 Y58.697 E.01106
G1 X131.463 Y58.86 E.02078
G1 X132.057 Y59.202 E.02322
G1 X132.556 Y59.652 E.02275
G1 X132.933 Y60.207 E.02271
G1 X133.18 Y60.874 E.02406
G1 X133.239 Y61.3 E.01457
G1 X133.26 Y61.822 E.01768
G1 X133.217 Y62.085 E.00903
G1 X133.057 Y62.675 E.02067
G1 X132.722 Y63.27 E.02313
G1 X132.349 Y63.694 E.01912
G1 X131.899 Y64.058 E.01957
G1 X131.229 Y64.37 E.02501
G1 X130.788 Y64.474 E.01535
G1 X130.118 Y64.501 E.02268
G1 X129.796 Y64.448 E.01106
G1 X129.204 Y64.285 E.02078
G1 X128.609 Y63.943 E.02322
G1 X128.11 Y63.492 E.02275
G1 X127.734 Y62.937 E.02271
G1 X127.599 Y62.614 E.01186
G1 X127.437 Y62.06 E.01952
G1 X127.407 Y61.322 E.025
G1 X127.45 Y61.059 E.00903
G1 X127.61 Y60.47 E.02067
G1 X127.945 Y59.874 E.02313
G1 X128.38 Y59.4 E.02179
M204 S1000
G1 X128.173 Y59.048 F10800
M204 S800
;TYPE:External perimeter
G1 F1214
G1 X128.56 Y58.734 E.01687
G1 X129.303 Y58.388 E.02774
G1 X129.823 Y58.265 E.01809
G1 X130.574 Y58.235 E.02543
G1 X130.904 Y58.29 E.01132
G1 X131.396 Y58.408 E.01714
G1 X131.893 Y58.623 E.01832
G1 X132.487 Y59.011 E.02403
G1 X132.871 Y59.391 E.01826
G1 X133.293 Y60.012 E.02543
G1 X133.412 Y60.298 E.01047
G1 X133.576 Y60.779 E.01722
G1 X133.646 Y61.284 E.01724
G1 X133.668 Y61.847 E.01908
G1 X133.619 Y62.151 E.01043
G1 X133.507 Y62.607 E.01588
G1 X133.312 Y63.074 E.01713
G1 X133.053 Y63.507 E.0171
G1 X132.639 Y63.98 E.02127
G1 X132.107 Y64.41 E.02316
G1 X131.364 Y64.756 E.02774
G1 X130.844 Y64.879 E.01809
G1 X130.093 Y64.91 E.02543
G1 X129.763 Y64.855 E.01132
G1 X129.271 Y64.736 E.01714
G1 X128.774 Y64.521 E.01832
G1 X128.179 Y64.133 E.02403
G1 X127.796 Y63.754 E.01826
G1 X127.374 Y63.132 E.02543
G1 X127.223 Y62.771 E.01324
G1 X127.032 Y62.116 E.02309
G1 X126.998 Y61.298 E.02774
G1 X127.048 Y60.993 E.01043
G1 X127.16 Y60.538 E.01588
G1 X127.355 Y60.071 E.01713
G1 X127.614 Y59.637 E.0171
G1 X128.028 Y59.165 E.02126
G1 X128.126 Y59.086 E.00426
M204 S1000
G1 X128.552 Y59.175 F10800
;WIPE_START
G1 F8640
G1 X128.56 Y58.734 E-.12895
G1 X129.303 Y58.388 E-.18926
G1 X129.823 Y58.265 E-.12338
G1 X130.574 Y58.235 E-.17347
G1 X130.904 Y58.29 E-.0772
G1 X131.189 Y58.358 E-.06774
;WIPE_END
G1 E-.04 F2100
G1 Z1 F720
G1 X132.845 Y60.472 F10800
G1 Z.6 F720
G1 E.8 F2100
;TYPE:Solid infill
;WIDTH:0.468577
G1 F1214
G1 X131.949 Y59.576 E.04486
G1 X131.696 Y59.392 E.01105
G1 X131.32 Y59.198 E.01497
G1 X130.985 Y59.087 E.0125
G1 X130.833 Y59.062 E.00546
G1 X132.853 Y61.082 E.10112
G1 X132.889 Y61.72 E.02263
G1 X130.193 Y59.024 E.13495
G1 X129.929 Y59.035 E.00936
G1 X129.665 Y59.098 E.00962
G1 X132.812 Y62.245 E.15752
G1 X132.717 Y62.535 E.01081
G1 X132.644 Y62.679 E.00573
G1 X129.237 Y59.272 E.17054
G1 X128.954 Y59.404 E.01104
G1 X128.846 Y59.483 E.00475
G1 X132.422 Y63.059 E.17901
