(1)
(T1 D=3 CR=0 - ZMIN=0.317 - vlcov frza)
N10 G90
N15 G17
N20 G21
(-Attention- Property Safe Retracts is set to Clearance Height.)
(Ensure the clearance height will clear the part and or fixtures.)
(Raise the Z-axis to a safe height before starting the program.)
(elo1 2)
N25 T1 M6
N30 S10000 M3
N35 G17 G90
N40 M8
N45 G0 X47.35 Y1.329
N50 Z27
N55 G0 Z17
N60 G1 Z10.093 F150
N65 G18 G3 X47.05 Z9.793 I-0.3 K0 F600
N70 G1 X45.4
N75 X0
N80 G17 G2 Y4.13 I0 J1.401
N85 G1 X45.4
N90 G3 Y6.931 I0 J1.401
N95 G1 X0
N100 G2 Y9.733 I0 J1.4
N105 G1 X45.4
N110 G3 Y12.533 I0 J1.401
N115 G1 X0
N120 G2 Y15.335 I0 J1.401
N125 G1 X45.4
N130 G3 Y18.135 I0 J1.401
N135 G1 X0
N140 G2 Y20.937 I0 J1.4
N145 G1 X45.4
N150 G3 Y23.737 I0 J1.4
N155 G1 X0
N160 G2 Y26.538 I0 J1.401
N165 G1 X45.4
N170 G3 Y29.34 I0 J1.4
N175 G1 X0
N180 G2 Y32.14 I0 J1.4
N185 G1 X45.4
N190 G3 Y34.942 I0 J1.401
N195 G1 X0
N200 G2 Y37.743 I0 J1.4
N205 G1 X45.4
N210 G3 Y40.543 I0 J1.401
N215 G1 X0
N220 G2 Y43.345 I0 J1.401
N225 G1 X45.4
N230 G3 Y46.146 I0 J1.4
N235 G1 X0
N240 G2 Y48.946 I0 J1.401
N245 G1 X45.4
N250 G18 G2 X45.7 Z10.093 I0 K0.3
N255 G0 Z27
N260 G17
(Adaptive3)
N265 G0 X-0.297 Y-3.438
N270 Z23
N275 Z13
N280 Z9.61
N285 G1 Z9.31 F600
N290 X-0.295 Y-3.431 Z9.243
N295 X-0.29 Y-3.409 Z9.18
N300 X-0.281 Y-3.375 Z9.123
N305 X-0.269 Y-3.328 Z9.075
N310 X-0.255 Y-3.273 Z9.04
N315 X-0.239 Y-3.212 Z9.018
N320 X-0.222 Y-3.147 Z9.01
N325 G3 X0.012 Y-1.514 I-7.419 J1.9
N330 G1 Y-1.364
N335 X-0.115 Y-0.732
N340 X-0.188 Y-0.091
N345 X-0.23 Y0.552
N350 X-0.253 Y1.196
N355 X-0.267 Y1.841
N360 X-0.274 Y2.486
N365 X-0.278 Y3.13
N370 X-0.281 Y3.775
N375 X-0.283 Y5.709
N380 X-0.287 Y48.908
N385 Y49.069
N390 X-0.251 Y49.226
N395 X-0.107 Y49.514
N400 X0.335 Y49.983
N405 X0.911 Y50.274
N410 X1.532 Y50.446
N415 X2.169 Y50.547
N420 X2.811 Y50.604
N425 X3.455 Y50.636
N430 X4.1 Y50.655
N435 X4.744 Y50.665
N440 X5.389 Y50.671
N445 X6.034 Y50.675
N450 X7.323 Y50.678
N455 X11.192 Y50.68
N460 X44.074 Y50.688
N465 X44.381 Y50.59
N470 X44.64 Y50.398
N475 X45.065 Y49.913
N480 X45.325 Y49.323
N485 X45.479 Y48.697
N490 X45.568 Y48.058
N495 X45.618 Y47.416
N500 X45.647 Y46.772
N505 X45.663 Y46.127
N510 X45.672 Y45.482
N515 X45.677 Y44.838
N520 X45.68 Y44.193
N525 X45.683 Y42.903
N530 X45.685 Y38.39
N535 X45.687 Y1.317
N540 X45.584 Y1.012
N545 X45.389 Y0.755
N550 X44.901 Y0.334
N555 X44.31 Y0.076
N560 X43.683 Y-0.075
N565 X43.044 Y-0.163
N570 X42.401 Y-0.213
N575 X41.757 Y-0.242
N580 X41.113 Y-0.258
N585 X40.468 Y-0.267
N590 X39.823 Y-0.272
N595 X39.179 Y-0.275
N600 X37.889 Y-0.278
N605 X33.376 Y-0.28
N610 X2.75 Y-0.287
N615 X2.589 Y-0.277
N620 X2.281 Y-0.184
N625 X2.018 Y0.003
N630 X1.582 Y0.478
N635 X1.309 Y1.062
N640 X1.145 Y1.686
N645 X1.049 Y2.323
N650 X0.992 Y2.966
N655 X0.96 Y3.61
N660 X0.941 Y4.254
N665 X0.93 Y4.899
N670 X0.924 Y5.543
N675 X0.921 Y6.188
N680 X0.917 Y7.478
N685 X0.916 Y10.701
N690 Y11.346
N695 X0.913 Y47.452
N700 X0.962 Y47.771
N705 X1.098 Y48.063
N710 X1.494 Y48.572
N715 X2.038 Y48.917
N720 X2.644 Y49.138
N725 X3.274 Y49.274
N730 X3.914 Y49.357
N735 X4.556 Y49.407
N740 X5.201 Y49.437
N745 X5.845 Y49.454
N750 X6.49 Y49.465
N755 X7.134 Y49.471
N760 X7.779 Y49.474
N765 X9.069 Y49.478
N770 X12.292 Y49.48
N775 X14.227 Y49.481
N780 X42.596 Y49.487
N785 X42.904 Y49.394
N790 X43.18 Y49.228
N795 X43.655 Y48.791
N800 X43.973 Y48.23
N805 X44.174 Y47.618
N810 X44.298 Y46.985
N815 X44.374 Y46.345
N820 X44.419 Y45.702
N825 X44.446 Y45.057
N830 X44.462 Y44.413
N835 X44.471 Y43.768
N840 X44.476 Y43.123
N845 X44.48 Y42.479
N850 X44.483 Y41.189
N855 X44.484 Y37.965
N860 X44.485 Y28.294
N865 X44.487 Y3.149
N870 X44.483 Y2.827
N875 X44.395 Y2.516
N880 X44.232 Y2.238
N885 X43.8 Y1.76
N890 X43.241 Y1.439
N895 X42.629 Y1.235
N900 X41.997 Y1.11
N905 X41.357 Y1.033
N910 X40.714 Y0.987
N915 X40.069 Y0.96
N920 X39.425 Y0.944
N925 X38.78 Y0.934
N930 X38.135 Y0.929
N935 X37.491 Y0.925
N940 X36.201 Y0.922
N945 X32.978 Y0.92
N950 X20.083 Y0.917
N955 X4.286 Y0.913
N960 X3.965 Y0.937
N965 X3.662 Y1.048
N970 X3.392 Y1.225
N975 X2.929 Y1.673
N980 X2.62 Y2.239
N985 X2.423 Y2.853
N990 X2.301 Y3.486
N995 X2.227 Y4.126
N1000 X2.182 Y4.77
N1005 X2.155 Y5.414
N1010 X2.139 Y6.058
N1015 X2.129 Y6.703
N1020 X2.124 Y7.348
N1025 X2.12 Y7.993
N1030 X2.117 Y9.282
N1035 X2.116 Y12.506
N1040 X2.114 Y34.427
N1045 X2.113 Y46.033
N1050 X2.144 Y46.354
N1055 X2.251 Y46.658
N1060 X2.422 Y46.931
N1065 X2.859 Y47.405
N1070 X3.417 Y47.728
N1075 X4.027 Y47.937
N1080 X4.658 Y48.069
N1085 X5.298 Y48.151
N1090 X5.94 Y48.202
N1095 X6.584 Y48.233
N1100 X7.229 Y48.251
N1105 X7.873 Y48.263
N1110 X8.518 Y48.27
N1115 X9.163 Y48.274
N1120 X10.452 Y48.278
N1125 X13.031 Y48.28
N1130 X40.111 Y48.287
N1135 X41.078
N1140 X41.397 Y48.244
N1145 X41.698 Y48.127
N1150 X41.966 Y47.948
N1155 X42.432 Y47.502
N1160 X42.747 Y46.94
N1165 X42.951 Y46.328
N1170 X43.08 Y45.696
N1175 X43.16 Y45.057
N1180 X43.209 Y44.414
N1185 X43.239 Y43.77
N1190 X43.257 Y43.125
N1195 X43.268 Y42.481
N1200 X43.274 Y41.836
N1205 X43.278 Y41.191
N1210 X43.282 Y39.902
N1215 X43.284 Y37.323
N1220 X43.287 Y4.44
N1225 X43.266 Y4.119
N1230 X43.175 Y3.809
N1235 X43.017 Y3.529
N1240 X42.598 Y3.039
N1245 X42.048 Y2.701
N1250 X41.442 Y2.482
N1255 X40.813 Y2.342
N1260 X40.174 Y2.256
N1265 X39.531 Y2.203
N1270 X38.887 Y2.17
N1275 X38.243 Y2.15
N1280 X37.598 Y2.138
N1285 X36.953 Y2.131
N1290 X36.309 Y2.127
N1295 X35.664 Y2.124
N1300 X34.374 Y2.121
N1305 X29.861 Y2.119
N1310 X5.361 Y2.113
N1315 X5.05 Y2.2
N1320 X4.766 Y2.353
N1325 X4.269 Y2.762
N1330 X3.922 Y3.306
N1335 X3.695 Y3.91
N1340 X3.55 Y4.538
N1345 X3.459 Y5.176
N1350 X3.403 Y5.818
N1355 X3.369 Y6.462
N1360 X3.348 Y7.107
N1365 X3.335 Y7.751
N1370 X3.327 Y8.396
N1375 X3.323 Y9.041
N1380 X3.32 Y9.686
N1385 X3.317 Y10.975
N1390 X3.315 Y14.844
N1395 Y17.423
N1400 X3.313 Y44.824
N1405 X3.361 Y45.143
N1410 X3.479 Y45.443
N1415 X3.655 Y45.713
N1420 X4.095 Y46.185
N1425 X4.652 Y46.509
N1430 X5.261 Y46.721
N1435 X5.891 Y46.857
N1440 X6.53 Y46.942
N1445 X7.173 Y46.995
N1450 X7.817 Y47.028
N1455 X8.461 Y47.048
N1460 X9.106 Y47.061
N1465 X9.751 Y47.068
N1470 X10.395 Y47.073
N1475 X11.04 Y47.076
N1480 X12.33 Y47.079
N1485 X16.198 Y47.081
N1490 X25.224 Y47.083
N1495 X40.054 Y47.087
N1500 X40.36 Y46.987
N1505 X40.639 Y46.826
N1510 X41.129 Y46.406
N1515 X41.471 Y45.86
N1520 X41.698 Y45.256
N1525 X41.844 Y44.628
N1530 X41.936 Y43.99
N1535 X41.993 Y43.348
N1540 X42.028 Y42.704
N1545 X42.05 Y42.06
N1550 X42.064 Y41.415
N1555 X42.072 Y40.77
N1560 X42.077 Y40.126
N1565 X42.08 Y39.481
N1570 X42.083 Y38.191
N1575 X42.085 Y34.968
N1580 X42.087 Y12.401
N1585 Y5.309
N1590 X41.978 Y5.006
N1595 X41.809 Y4.731
N1600 X41.38 Y4.25
N1605 X40.829 Y3.915
N1610 X40.223 Y3.695
N1615 X39.594 Y3.554
N1620 X38.956 Y3.465
N1625 X38.313 Y3.409
N1630 X37.669 Y3.375
N1635 X37.025 Y3.354
N1640 X36.38 Y3.34
N1645 X35.736 Y3.332
N1650 X35.091 Y3.327
N1655 X34.446 Y3.324
N1660 X33.157 Y3.321
N1665 X29.933 Y3.319
N1670 X6.722 Y3.314
N1675 X6.405 Y3.374
N1680 X6.109 Y3.502
N1685 X5.581 Y3.872
N1690 X5.204 Y4.395
N1695 X4.952 Y4.988
N1700 X4.788 Y5.612
N1705 X4.685 Y6.248
N1710 X4.62 Y6.889
N1715 X4.58 Y7.533
N1720 X4.555 Y8.177
N1725 X4.54 Y8.822
N1730 X4.53 Y9.466
N1735 X4.524 Y10.111
N1740 X4.521 Y10.756
N1745 X4.517 Y12.045
N1750 X4.516 Y14.624
N1755 X4.513 Y43.638
N1760 X4.574 Y43.955
N1765 X4.7 Y44.251
N1770 X5.063 Y44.784
N1775 X5.582 Y45.167
N1780 X6.173 Y45.425
N1785 X6.795 Y45.593
N1790 X7.431 Y45.7
N1795 X8.072 Y45.768
N1800 X8.715 Y45.811
N1805 X9.36 Y45.837
N1810 X10.004 Y45.854
N1815 X10.649 Y45.864
N1820 X11.293 Y45.87
N1825 X11.938 Y45.874
N1830 X13.228 Y45.878
N1835 X15.807 Y45.881
N1840 X19.675 Y45.882
N1845 X38.373 Y45.886
N1850 X38.695 Y45.876
N1855 X39.01 Y45.808
N1860 X39.303 Y45.674
N1865 X39.825 Y45.296
N1870 X40.198 Y44.77
N1875 X40.448 Y44.175
N1880 X40.61 Y43.551
N1885 X40.714 Y42.915
N1890 X40.778 Y42.273
N1895 X40.819 Y41.63
N1900 X40.844 Y40.986
N1905 X40.86 Y40.341
N1910 X40.869 Y39.696
N1915 X40.875 Y39.052
N1920 X40.879 Y38.407
N1925 X40.883 Y37.117
N1930 X40.885 Y34.538
N1935 X40.886 Y15.196
N1940 X40.887 Y6.814
N1945 X40.842 Y6.495
N1950 X40.728 Y6.193
N1955 X40.556 Y5.921
N1960 X40.122 Y5.444
N1965 X39.569 Y5.114
N1970 X38.962 Y4.896
N1975 X38.332 Y4.755
N1980 X37.694 Y4.667
N1985 X37.052 Y4.611
N1990 X36.408 Y4.576
N1995 X35.763 Y4.554
N2000 X35.119 Y4.541
N2005 X34.474 Y4.533
N2010 X33.829 Y4.528
N2015 X33.185 Y4.524
N2020 X31.895 Y4.521
N2025 X28.671 Y4.519
N2030 X8.039 Y4.514
N2035 X7.72 Y4.555
N2040 X7.416 Y4.663
N2045 X7.141 Y4.831
N2050 X6.658 Y5.259
N2055 X6.323 Y5.809
N2060 X6.101 Y6.415
N2065 X5.957 Y7.043
N2070 X5.866 Y7.682
N2075 X5.809 Y8.324
N2080 X5.773 Y8.967
N2085 X5.751 Y9.612
N2090 X5.737 Y10.256
N2095 X5.729 Y10.901
N2100 X5.724 Y11.546
N2105 X5.72 Y12.191
N2110 X5.717 Y13.48
N2115 X5.715 Y16.704
N2120 X5.713 Y42.494
N2125 X5.785 Y42.808
N2130 X5.923 Y43.1
N2135 X6.306 Y43.618
N2140 X6.598 Y43.824
N2145 X6.624 Y43.843
N2150 X6.649 Y43.864
N2155 X6.673 Y43.885
N2160 X6.728 Y43.936
N2165 X6.81 Y43.998
N2170 X6.875 Y44.042
N2175 X7.021 Y44.124
N2180 X7.168 Y44.192
N2185 X7.314 Y44.238
N2190 X7.461 Y44.271
N2195 X8.089 Y44.415
N2200 X8.726 Y44.513
N2205 X9.368 Y44.576
N2210 X10.012 Y44.615
N2215 X10.656 Y44.64
N2220 X11.301 Y44.655
N2225 X11.945 Y44.665
N2230 X12.59 Y44.671
N2235 X13.235 Y44.675
N2240 X14.524 Y44.679
N2245 X17.103 Y44.681
N2250 X37.09 Y44.686
N2255 X37.413 Y44.681
N2260 X37.73 Y44.626
N2265 X38.029 Y44.505
N2270 X38.567 Y44.149
N2275 X38.955 Y43.634
N2280 X39.218 Y43.046
N2285 X39.39 Y42.424
N2290 X39.5 Y41.789
N2295 X39.57 Y41.148
N2300 X39.613 Y40.505
N2305 X39.64 Y39.861
N2310 X39.657 Y39.216
N2315 X39.668 Y38.571
N2320 X39.674 Y37.927
N2325 X39.678 Y37.282
N2330 X39.682 Y35.992
N2335 X39.685 Y33.413
N2340 X39.686 Y25.032
N2345 X39.687 Y8.268
N2350 X39.676 Y7.946
N2355 X39.61 Y7.631
N2360 X39.479 Y7.336
N2365 X39.109 Y6.808
N2370 X38.587 Y6.429
N2375 X37.995 Y6.174
N2380 X37.372 Y6.007
N2385 X36.736 Y5.9
N2390 X36.095 Y5.832
N2395 X35.452 Y5.79
N2400 X34.808 Y5.763
N2405 X34.163 Y5.747
N2410 X33.518 Y5.736
N2415 X32.874 Y5.73
N2420 X32.229 Y5.726
N2425 X30.939 Y5.722
N2430 X28.36 Y5.719
N2435 X9.018 Y5.714
N2440 X8.71 Y5.809
N2445 X8.335 Y6.014
N2450 X8.228 Y6.061
N2455 X8.115 Y6.09
N2460 X7.999 Y6.1
N2465 X7.9
N2470 X7.754 Y6.102
N2475 X7.607 Y6.107
N2480 X7.579 Y6.11
N2485 X7.461 Y6.129
N2490 X7.314 Y6.162
N2495 X7.168 Y6.208
N2500 X7.021 Y6.276
N2505 X6.875 Y6.358
N2510 X6.81 Y6.402
N2515 X6.728 Y6.464
N2520 X6.637 Y6.548
N2525 X6.582 Y6.602
N2530 X6.5 Y6.695
N2535 X6.435 Y6.779
N2540 X6.394 Y6.841
N2545 X6.314 Y6.987
N2550 X6.288 Y7.039
N2555 X6.248 Y7.134
N2560 X6.199 Y7.28
N2565 X6.172 Y7.426
N2570 X6.147 Y7.572
N2575 X6.141 Y7.719
N2580 Y42.681
N2585 X6.147 Y42.828
N2590 X6.172 Y42.974
N2595 G3 X6.104 Y43.218 I-0.296 J0.049
N2600 G2 X6.049 Y43.513 I0.228 J0.195
N2605 G1 X6.119 Y43.71
N2610 X6.289 Y44.189
N2615 G2 X6.681 Y44.368 I0.283 J-0.1
N2620 G3 X7.461 Y44.271 I0.578 J1.473
N2625 G1 X7.579 Y44.29
N2630 X7.607 Y44.293
N2635 X7.754 Y44.298
N2640 X7.9 Y44.3
N2645 X9.659
N2650 X9.805 Y44.299
N2655 X9.952 Y44.298
N2660 X10.044 Y44.29
N2665 X10.098 Y44.284
N2670 X10.245 Y44.261
N2675 X10.391 Y44.225
N2680 X10.604 Y44.144
N2685 X10.684 Y44.101
N2690 X10.824 Y44.027
N2695 X11.051 Y43.928
N2700 X11.352 Y43.825
N2705 X11.775 Y43.717
N2710 X12.41 Y43.609
N2715 X13.052 Y43.55
N2720 X13.696 Y43.519
N2725 X14.341 Y43.502
N2730 X14.986 Y43.492
N2735 X15.63 Y43.487
N2740 X16.275 Y43.485
N2745 X17.564 Y43.482
N2750 X23.367 Y43.483
N2755 X36.262 Y43.486
N2760 X36.578 Y43.419
N2765 X36.872 Y43.288
N2770 X37.398 Y42.915
N2775 X37.776 Y42.393
N2780 X38.031 Y41.801
N2785 X38.197 Y41.178
N2790 X38.304 Y40.542
N2795 X38.372 Y39.901
N2800 X38.414 Y39.257
N2805 X38.441 Y38.613
N2810 X38.457 Y37.969
N2815 X38.468 Y37.324
N2820 X38.474 Y36.679
N2825 X38.478 Y36.035
N2830 X38.482 Y34.745
N2835 X38.485 Y32.166
N2840 X38.486 Y19.916
N2845 X38.487 Y9.6
N2850 X38.484 Y8.955
N2855 X38.373 Y8.653
N2860 X38.037 Y8.102
N2865 X37.535 Y7.698
N2870 X36.952 Y7.422
N2875 X36.334 Y7.239
N2880 X35.7 Y7.121
N2885 X35.06 Y7.046
N2890 X34.417 Y6.999
N2895 X33.773 Y6.969
N2900 X33.128 Y6.95
N2905 X32.484 Y6.938
N2910 X31.839 Y6.931
N2915 X31.194 Y6.926
N2920 X30.549 Y6.924
N2925 X29.26 Y6.92
N2930 X26.036 Y6.918
N2935 X11.683 Y6.915
N2940 X11.495 Y6.889
N2945 X11.321 Y6.814
N2950 X11.173 Y6.695
N2955 X11.035 Y6.548
N2960 X10.977 Y6.494
N2965 X10.831 Y6.387
N2970 X10.684 Y6.299
N2975 X10.604 Y6.256
N2980 X10.391 Y6.175
N2985 X10.245 Y6.139
N2990 X10.098 Y6.116
N2995 X10.044 Y6.11
N3000 X9.952 Y6.102
N3005 X9.805 Y6.101
N3010 X8.34 Y6.1
N3015 X7.999
N3020 G3 X7.709 Y5.79 I0.01 J-0.3
N3025 X9.454 Y4.379 I1.484 J0.052
N3030 X11.099 Y6.477 I-0.351 J1.969
N3035 G1 X11.101 Y6.536
N3040 X11.115 Y6.593
N3045 X11.139 Y6.647
N3050 X11.173 Y6.695
N3055 X11.279 Y6.841 F540
N3060 X11.36 Y6.987
N3065 X11.433 Y7.118
N3070 X11.533 Y7.23
N3075 X11.647 Y7.328
N3080 X11.771 Y7.414
N3085 X11.93 Y7.507
N3090 X12.135 Y7.606
N3095 X12.405 Y7.71
N3100 X12.772 Y7.819
N3105 X13.306 Y7.932
N3110 X13.946 Y8.013
N3115 X14.589 Y8.059
N3120 X15.233 Y8.084
N3125 X15.878 Y8.098
N3130 X16.523 Y8.106
N3135 X17.167 Y8.11
N3140 X17.812 Y8.113
N3145 X19.102 Y8.115
N3150 X28.128 Y8.119
N3155 X29.418 Y8.121
N3160 X30.707 Y8.126
N3165 X31.352 Y8.13
N3170 X31.996 Y8.136
N3175 X32.641 Y8.147
N3180 X33.286 Y8.164
N3185 X33.93 Y8.192
N3190 X34.573 Y8.237
N3195 X35.213 Y8.311
N3200 X35.844 Y8.445
N3205 X36.126 Y8.601
N3210 X36.594 Y9.044
N3215 X36.884 Y9.62
N3220 X37.056 Y10.242
N3225 X37.156 Y10.879
N3230 X37.213 Y11.521
N3235 X37.245 Y12.165
N3240 X37.263 Y12.809
N3245 X37.273 Y13.454
N3250 X37.279 Y14.099
N3255 X37.282 Y14.743
N3260 X37.285 Y16.033
N3265 X37.286 Y19.901
N3270 X37.284 Y32.796
N3275 Y33.441
N3280 X37.282 Y34.731
N3285 X37.28 Y35.375
N3290 X37.277 Y36.02
N3295 X37.271 Y36.665
N3300 X37.263 Y37.309
N3305 X37.25 Y37.954
N3310 X37.228 Y38.598
N3315 X37.193 Y39.242
N3320 X37.134 Y39.884
N3325 X37.036 Y40.522
N3330 X36.942 Y40.83
N3335 X36.791 Y41.114
N3340 X36.571 Y41.35
N3345 X36.053 Y41.735
N3350 X35.452 Y41.967
N3355 X34.822 Y42.104
N3360 X34.182 Y42.182
N3365 X33.539 Y42.227
N3370 X32.894 Y42.252
N3375 X32.25 Y42.266
N3380 X31.605 Y42.274
N3385 X30.96 Y42.279
N3390 X30.316 Y42.281
N3395 X29.026 Y42.283
N3400 X23.868
N3405 X18.065
N3410 X16.776 Y42.284
N3415 X16.131 Y42.287
N3420 X15.486 Y42.291
N3425 X14.842 Y42.299
N3430 X14.197 Y42.314
N3435 X13.553 Y42.341
N3440 X12.91 Y42.387
N3445 X12.269 Y42.462
N3450 X12.051 Y42.503
N3455 X11.857 Y42.571
N3460 X11.69 Y42.691
N3465 X11.566 Y42.855
N3470 X11.495 Y43.048
N3475 X11.491 Y43.111 F600
N3480 X11.5 Y43.173
N3485 X11.522 Y43.232
N3490 X11.536 Y43.25
N3495 X11.556 Y43.262
N3500 X11.579 Y43.265
N3505 X11.602 Y43.259
N3510 X11.626 Y43.255
N3515 X11.648 Y43.265
N3520 X11.661 Y43.285
N3525 Y43.309
N3530 X11.649 Y43.329
N3535 X11.633 Y43.337
N3540 X11.615 Y43.338
N3545 X11.599 Y43.33
N3550 G3 X11.495 Y43.048 I0.192 J-0.23
N3555 G1 X11.511 Y42.974
N3560 X11.53 Y42.828
N3565 X11.539 Y42.681
N3570 Y42.637
N3575 X11.546 Y42.487
N3580 X11.604 Y42.349
N3585 X11.688 Y42.225
N3590 X11.788 Y42.113
N3595 X11.9 Y42.012
N3600 X12.029 Y41.914
N3605 X12.197 Y41.806
N3610 X12.406 Y41.695
N3615 X12.671 Y41.58
N3620 X13.02 Y41.461
N3625 X13.502 Y41.34
N3630 X14.137 Y41.232
N3635 X14.779 Y41.169
N3640 X15.423 Y41.133
N3645 X16.067 Y41.111
N3650 X16.712 Y41.099
N3655 X17.356 Y41.092
N3660 X18.001 Y41.088
N3665 X18.646 Y41.085
N3670 X19.935 Y41.083
N3675 X25.093
N3680 X28.962
N3685 X30.251 Y41.08
N3690 X30.896 Y41.077
N3695 X31.541 Y41.071
N3700 X32.186 Y41.06
N3705 X32.83 Y41.041
N3710 X33.474 Y41.005
N3715 X34.115 Y40.937
N3720 X34.428 Y40.861
N3725 X34.716 Y40.716
N3730 X35.214 Y40.306
N3735 X35.544 Y39.752
N3740 X35.754 Y39.143
N3745 X35.884 Y38.511
N3750 X35.963 Y37.871
N3755 X36.011 Y37.228
N3760 X36.04 Y36.584
N3765 X36.058 Y35.94
N3770 X36.069 Y35.295
N3775 X36.075 Y34.65
N3780 X36.079 Y34.006
N3785 X36.083 Y32.716
N3790 X36.085 Y30.137
N3795 X36.086 Y17.887
N3800 X36.084 Y15.953
N3805 X36.083 Y15.308
N3810 X36.08 Y14.663
N3815 X36.075 Y14.018
N3820 X36.066 Y13.374
N3825 X36.051 Y12.729
N3830 X36.022 Y12.085
N3835 X35.968 Y11.442
N3840 X35.913 Y11.125
N3845 X35.808 Y10.82
N3850 X35.629 Y10.552
N3855 X35.172 Y10.097
N3860 X34.6 Y9.799
N3865 X33.983 Y9.612
N3870 X33.349 Y9.497
N3875 X32.708 Y9.427
N3880 X32.065 Y9.384
N3885 X31.42 Y9.358
N3890 X30.776 Y9.343
N3895 X30.131 Y9.333
N3900 X29.486 Y9.327
N3905 X28.842 Y9.324
N3910 X27.552 Y9.32
N3915 X24.973 Y9.318
N3920 X19.815 Y9.316
N3925 X18.526 Y9.314
N3930 X17.881 Y9.312
N3935 X17.236 Y9.309
N3940 X16.591 Y9.303
N3945 X15.947 Y9.293
N3950 X15.302 Y9.276
N3955 X14.658 Y9.246
N3960 X14.016 Y9.194
N3965 X13.376 Y9.109
N3970 X12.824 Y8.999
N3975 X12.383 Y8.872
N3980 X12.038 Y8.743
N3985 X11.941 Y8.697
N3990 X11.776 Y8.589
N3995 X11.648 Y8.439
N4000 X11.566 Y8.259
N4005 X11.539 Y8.064
N4010 Y7.719
N4015 X11.534 Y7.638
N4020 G3 X11.677 Y7.375 I0.3 J-0.008
N4025 X11.897 Y7.669 I0.097 J0.157
N4030 G1 X11.801 Y7.745
N4035 X11.697 Y7.809
N4040 G2 X11.539 Y8.064 I0.141 J0.265
N4045 G1 Y8.567 F540
N4050 X11.546 Y8.717
N4055 X11.589 Y8.86
N4060 X11.655 Y8.995
N4065 X11.738 Y9.12
N4070 X11.833 Y9.236
N4075 X11.943 Y9.348
N4080 X12.087 Y9.473
N4085 X12.251 Y9.593
N4090 X12.461 Y9.722
N4095 X12.728 Y9.858
N4100 X13.053 Y9.992
N4105 X13.479 Y10.129
N4110 X14.058 Y10.265
N4115 X14.696 Y10.361
N4120 X15.338 Y10.421
N4125 X15.981 Y10.458
N4130 X16.626 Y10.481
N4135 X17.27 Y10.495
N4140 X17.915 Y10.503
N4145 X18.56 Y10.509
N4150 X19.204 Y10.512
N4155 X20.494 Y10.515
N4160 X24.362 Y10.518
N4165 X26.941 Y10.52
N4170 X28.231 Y10.523
N4175 X28.876 Y10.526
N4180 X29.52 Y10.53
N4185 X30.165 Y10.538
N4190 X30.81 Y10.551
N4195 X31.454 Y10.573
N4200 X32.098 Y10.61
N4205 X32.739 Y10.674
N4210 X33.373 Y10.795
N4215 X33.651 Y10.957
N4220 X34.124 Y11.396
N4225 X34.428 Y11.964
N4230 X34.615 Y12.581
N4235 X34.727 Y13.216
N4240 X34.794 Y13.857
N4245 X34.833 Y14.501
N4250 X34.855 Y15.145
N4255 X34.868 Y15.79
N4260 X34.876 Y16.434
N4265 X34.88 Y17.079
N4270 X34.883 Y17.724
N4275 X34.885 Y19.013
N4280 X34.886 Y23.527
N4285 X34.884 Y31.264
N4290 X34.883 Y32.553
N4295 X34.881 Y33.198
N4300 X34.878 Y33.843
N4305 X34.874 Y34.487
N4310 X34.866 Y35.132
N4315 X34.854 Y35.777
N4320 X34.833 Y36.421
N4325 X34.797 Y37.065
N4330 X34.734 Y37.707
N4335 X34.621 Y38.341
N4340 X34.464 Y38.623
N4345 X34.033 Y39.102
N4350 X33.468 Y39.413
N4355 X32.852 Y39.605
N4360 X32.218 Y39.72
N4365 X31.577 Y39.789
N4370 X30.933 Y39.829
N4375 X30.289 Y39.852
N4380 X29.645 Y39.866
N4385 X29 Y39.873
N4390 X28.355 Y39.878
N4395 X27.71 Y39.88
N4400 X26.421 Y39.882
N4405 X19.973 Y39.884
N4410 X18.684 Y39.886
N4415 X18.039 Y39.889
N4420 X17.394 Y39.895
N4425 X16.75 Y39.904
N4430 X16.105 Y39.919
N4435 X15.461 Y39.944
N4440 X14.818 Y39.986
N4445 X14.177 Y40.057
N4450 X13.541 Y40.162
N4455 X13.008 Y40.292
N4460 X12.58 Y40.433
N4465 X12.234 Y40.58
N4470 X11.948 Y40.728
N4475 X11.866 Y40.779
N4480 X11.73 Y40.891
N4485 X11.626 Y41.034
N4490 X11.561 Y41.197
N4495 X11.539 Y41.372
N4500 Y42.637
N4505 G2 X11.697 Y42.891 I0.3 J-0.01 F600
N4510 G1 X11.75 Y42.914
N4515 X11.807 Y42.928
N4520 X11.865 Y42.933
N4525 X11.866
N4530 G2 X12.221 Y42.612 I0 J-0.358
N4535 X11.697 Y41.627 I-0.995 J-0.103
N4540 G3 X11.539 Y41.372 I0.141 J-0.265
N4545 G1 Y40.845
N4550 X11.546 Y40.696
N4555 X11.586 Y40.551
N4560 X11.647 Y40.414
N4565 X11.724 Y40.285
N4570 X11.813 Y40.165
N4575 X11.916 Y40.048
N4580 X12.047 Y39.92
N4585 X12.218 Y39.779
N4590 X12.407 Y39.646
N4595 X12.658 Y39.499
N4600 X12.961 Y39.353
N4605 X13.359 Y39.199
N4610 X13.842 Y39.055
N4615 X14.473 Y38.922
N4620 X15.112 Y38.835
N4625 X15.754 Y38.779
N4630 X16.398 Y38.743
N4635 X17.043 Y38.72
N4640 X17.687 Y38.705
N4645 X18.332 Y38.696
N4650 X18.977 Y38.691
N4655 X19.621 Y38.688
N4660 X20.911 Y38.684
N4665 X24.134 Y38.683
N4670 X26.713 Y38.682
N4675 X27.358 Y38.68
N4680 X28.003 Y38.678
N4685 X28.648 Y38.673
N4690 X29.292 Y38.665
N4695 X29.937 Y38.652
N4700 X30.581 Y38.628
N4705 X31.225 Y38.585
N4710 X31.864 Y38.502
N4715 X32.173 Y38.411
N4720 X32.446 Y38.239
N4725 X32.91 Y37.792
N4730 X33.213 Y37.222
N4735 X33.401 Y36.606
N4740 X33.515 Y35.971
N4745 X33.584 Y35.33
N4750 X33.625 Y34.687
N4755 X33.649 Y34.042
N4760 X33.664 Y33.398
N4765 X33.673 Y32.753
N4770 X33.678 Y32.108
N4775 X33.681 Y31.464
N4780 X33.684 Y30.174
N4785 X33.685 Y26.95
N4790 Y19.858
N4795 X33.684 Y18.569
N4800 X33.682 Y17.924
N4805 X33.68 Y17.279
N4810 X33.675 Y16.634
N4815 X33.666 Y15.99
N4820 X33.651 Y15.345
N4825 X33.624 Y14.701
N4830 X33.574 Y14.058
N4835 X33.482 Y13.42
N4840 X33.357 Y13.123
N4845 X33.163 Y12.866
N4850 X32.685 Y12.432
N4855 X32.104 Y12.153
N4860 X31.483 Y11.98
N4865 X30.847 Y11.875
N4870 X30.205 Y11.812
N4875 X29.562 Y11.774
N4880 X28.917 Y11.751
N4885 X28.273 Y11.738
N4890 X27.628 Y11.73
N4895 X26.983 Y11.725
N4900 X26.339 Y11.722
N4905 X25.049 Y11.719
N4910 X20.536 Y11.715
N4915 X19.246 Y11.711
N4920 X18.602 Y11.707
N4925 X17.957 Y11.7
N4930 X17.312 Y11.69
N4935 X16.668 Y11.673
N4940 X16.023 Y11.647
N4945 X15.38 Y11.606
N4950 X14.739 Y11.541
N4955 X14.101 Y11.443
N4960 X13.49 Y11.309
N4965 X12.983 Y11.155
N4970 X12.563 Y10.99
N4975 X12.22 Y10.821
N4980 X11.928 Y10.648
N4985 X11.834 Y10.581
N4990 X11.675 Y10.426
N4995 X11.574 Y10.229
N5000 X11.539 Y10.01
N5005 Y8.567
N5010 G3 X11.697 Y8.313 I0.3 J0.01
N5015 X12.139 Y8.464 I0.15 J0.282
N5020 X11.697 Y9.756 I-0.912 J0.409
N5025 G2 X11.539 Y10.01 I0.141 J0.265
N5030 G1 Y10.542 F540
N5035 X11.546 Y10.692
N5040 X11.582 Y10.838
N5045 X11.638 Y10.977
N5050 X11.71 Y11.109
N5055 X11.796 Y11.235
N5060 X11.895 Y11.358
N5065 X12.025 Y11.496
N5070 X12.19 Y11.644
N5075 X12.376 Y11.787
N5080 X12.627 Y11.949
N5085 X12.914 Y12.103
N5090 X13.3 Y12.271
N5095 X13.761 Y12.43
N5100 X14.378 Y12.589
N5105 X15.014 Y12.698
N5110 X15.654 Y12.772
N5115 X16.297 Y12.822
N5120 X16.941 Y12.855
N5125 X17.585 Y12.877
N5130 X18.23 Y12.891
N5135 X18.875 Y12.901
N5140 X19.519 Y12.907
N5145 X20.164 Y12.911
N5150 X21.454 Y12.915
N5155 X25.322 Y12.92
N5160 X25.967 Y12.922
N5165 X26.612 Y12.925
N5170 X27.256 Y12.93
N5175 X27.901 Y12.937
N5180 X28.546 Y12.951
N5185 X29.19 Y12.974
N5190 X29.834 Y13.012
N5195 X30.474 Y13.085
N5200 X30.789 Y13.154
N5205 X31.089 Y13.272
N5210 X31.349 Y13.463
N5215 X31.785 Y13.938
N5220 X32.064 Y14.519
N5225 X32.236 Y15.14
N5230 X32.339 Y15.777
N5235 X32.4 Y16.419
N5240 X32.436 Y17.063
N5245 X32.457 Y17.707
N5250 X32.469 Y18.352
N5255 X32.476 Y18.996
N5260 X32.48 Y19.641
N5265 X32.483 Y20.286
N5270 X32.485 Y21.575
N5275 Y26.089
N5280 X32.484 Y29.312
N5285 X32.482 Y30.602
N5290 X32.48 Y31.247
N5295 X32.477 Y31.891
N5300 X32.471 Y32.536
N5305 X32.462 Y33.181
N5310 X32.446 Y33.825
N5315 X32.417 Y34.469
N5320 X32.366 Y35.112
N5325 X32.273 Y35.75
N5330 X32.166 Y36.054
N5335 X31.982 Y36.319
N5340 X31.516 Y36.764
N5345 X30.937 Y37.049
N5350 X30.317 Y37.225
N5355 X29.681 Y37.331
N5360 X29.04 Y37.394
N5365 X28.396 Y37.431
N5370 X27.752 Y37.453
N5375 X27.107 Y37.466
N5380 X26.462 Y37.473
N5385 X25.817 Y37.477
N5390 X25.173 Y37.48
N5395 X23.238 Y37.483
N5400 X20.659 Y37.485
N5405 X20.015 Y37.487
N5410 X19.37 Y37.49
N5415 X18.725 Y37.496
N5420 X18.081 Y37.504
N5425 X17.436 Y37.517
N5430 X16.792 Y37.538
N5435 X16.148 Y37.57
N5440 X15.505 Y37.619
N5445 X14.864 Y37.692
N5450 X14.228 Y37.795
N5455 X13.6 Y37.941
N5460 X13.065 Y38.11
N5465 X12.643 Y38.283
N5470 X12.274 Y38.469
N5475 X11.97 Y38.655
N5480 X11.827 Y38.759
N5485 X11.672 Y38.914
N5490 X11.573 Y39.109
N5495 X11.539 Y39.325
N5500 Y40.845
N5505 G2 X11.697 Y41.1 I0.3 J-0.01 F600
N5510 X12.067 Y41.003 I0.133 J-0.249
N5515 X11.697 Y39.579 I-0.841 J-0.542
N5520 G3 X11.539 Y39.325 I0.141 J-0.265
N5525 G1 Y38.797
N5530 X11.546 Y38.648
N5535 X11.578 Y38.501
N5540 X11.631 Y38.361
N5545 X11.699 Y38.227
N5550 X11.78 Y38.101
N5555 X11.881 Y37.967
N5560 X12.003 Y37.831
N5565 X12.166 Y37.676
N5570 X12.354 Y37.524
N5575 X12.59 Y37.363
N5580 X12.887 Y37.193
N5585 X13.249 Y37.024
N5590 X13.702 Y36.854
N5595 X14.301 Y36.684
N5600 X14.933 Y36.557
N5605 X15.572 Y36.469
N5610 X16.214 Y36.407
N5615 X16.857 Y36.365
N5620 X17.501 Y36.337
N5625 X18.146 Y36.318
N5630 X18.79 Y36.305
N5635 X19.435 Y36.297
N5640 X20.08 Y36.292
N5645 X20.724 Y36.288
N5650 X22.014 Y36.285
N5655 X24.593 Y36.281
N5660 X25.238 Y36.278
N5665 X25.882 Y36.275
N5670 X26.527 Y36.269
N5675 X27.172 Y36.258
N5680 X27.816 Y36.239
N5685 X28.46 Y36.206
N5690 X29.102 Y36.148
N5695 X29.737 Y36.035
N5700 X30.016 Y35.874
N5705 X30.492 Y35.438
N5710 X30.802 Y34.873
N5715 X30.995 Y34.258
N5720 X31.113 Y33.624
N5725 X31.183 Y32.983
N5730 X31.225 Y32.34
N5735 X31.25 Y31.695
N5740 X31.264 Y31.051
N5745 X31.273 Y30.406
N5750 X31.278 Y29.761
N5755 X31.281 Y29.117
N5760 X31.284 Y27.827
N5765 X31.285 Y24.603
N5770 Y22.024
N5775 X31.283 Y20.735
N5780 X31.281 Y20.09
N5785 X31.277 Y19.445
N5790 X31.27 Y18.801
N5795 X31.259 Y18.156
N5800 X31.239 Y17.512
N5805 X31.204 Y16.868
N5810 X31.14 Y16.226
N5815 X31.077 Y15.91
N5820 X30.981 Y15.602
N5825 X30.805 Y15.332
N5830 X30.352 Y14.874
N5835 X29.779 Y14.577
N5840 X29.161 Y14.393
N5845 X28.526 Y14.282
N5850 X27.885 Y14.215
N5855 X27.241 Y14.175
N5860 X26.597 Y14.152
N5865 X25.953 Y14.138
N5870 X25.308 Y14.129
N5875 X24.663 Y14.124
N5880 X24.018 Y14.121
N5885 X21.439 Y14.114
N5890 X20.15 Y14.109
N5895 X19.505 Y14.104
N5900 X18.86 Y14.097
N5905 X18.216 Y14.086
N5910 X17.571 Y14.069
N5915 X16.927 Y14.043
N5920 X16.283 Y14.006
N5925 X15.641 Y13.952
N5930 X15.001 Y13.874
N5935 X14.366 Y13.761
N5940 X13.739 Y13.61
N5945 X13.205 Y13.439
N5950 X12.739 Y13.247
N5955 X12.353 Y13.05
N5960 X12.031 Y12.852
N5965 X11.825 Y12.701
N5970 X11.671 Y12.547
N5975 X11.573 Y12.352
N5980 X11.539 Y12.137
N5985 Y10.542
N5990 G3 X11.697 Y10.288 I0.3 J0.01
N5995 X11.977 Y10.339 I0.108 J0.202
N6000 X11.697 Y11.882 I-0.751 J0.661
N6005 G2 X11.539 Y12.137 I0.141 J0.265
N6010 G1 Y12.693 F540
N6015 X11.546 Y12.842
N6020 X11.58 Y12.988
N6025 X11.634 Y13.128
N6030 X11.703 Y13.262
N6035 X11.783 Y13.388
N6040 X11.893 Y13.534
N6045 X12.019 Y13.675
N6050 X12.182 Y13.831
N6055 X12.388 Y13.998
N6060 X12.628 Y14.163
N6065 X12.945 Y14.346
N6070 X13.322 Y14.524
N6075 X13.801 Y14.705
N6080 X14.42 Y14.884
N6085 X15.052 Y15.012
N6090 X15.69 Y15.104
N6095 X16.332 Y15.17
N6100 X16.975 Y15.216
N6105 X17.619 Y15.248
N6110 X18.263 Y15.271
N6115 X18.907 Y15.286
N6120 X19.552 Y15.297
N6125 X20.197 Y15.304
N6130 X20.842 Y15.309
N6135 X22.131 Y15.315
N6140 X24.065 Y15.322
N6145 X24.71 Y15.327
N6150 X25.355 Y15.334
N6155 X25.999 Y15.346
N6160 X26.644 Y15.366
N6165 X27.288 Y15.401
N6170 X27.929 Y15.462
N6175 X28.246 Y15.522
N6180 X28.556 Y15.612
N6185 X28.834 Y15.775
N6190 X29.307 Y16.213
N6195 X29.614 Y16.78
N6200 X29.804 Y17.396
N6205 X29.919 Y18.03
N6210 X29.988 Y18.672
N6215 X30.028 Y19.315
N6220 X30.052 Y19.959
N6225 X30.066 Y20.604
N6230 X30.074 Y21.249
N6235 X30.079 Y21.893
N6240 X30.082 Y22.538
N6245 X30.084 Y23.828
N6250 X30.085 Y26.407
N6255 X30.082 Y28.341
N6260 X30.08 Y28.986
N6265 X30.077 Y29.63
N6270 X30.071 Y30.275
N6275 X30.06 Y30.92
N6280 X30.042 Y31.564
N6285 X30.01 Y32.208
N6290 X29.954 Y32.85
N6295 X29.852 Y33.487
N6300 X29.705 Y33.774
N6305 X29.285 Y34.263
N6310 X28.726 Y34.584
N6315 X28.113 Y34.785
N6320 X27.48 Y34.906
N6325 X26.839 Y34.979
N6330 X26.196 Y35.022
N6335 X25.552 Y35.047
N6340 X24.907 Y35.062
N6345 X24.262 Y35.071
N6350 X23.618 Y35.077
N6355 X22.328 Y35.083
N6360 X21.039 Y35.088
N6365 X20.394 Y35.091
N6370 X19.749 Y35.097
N6375 X19.104 Y35.105
N6380 X18.46 Y35.117
N6385 X17.815 Y35.135
N6390 X17.171 Y35.162
N6395 X16.528 Y35.201
N6400 X15.885 Y35.256
N6405 X15.245 Y35.334
N6410 X14.609 Y35.441
N6415 X13.981 Y35.584
N6420 X13.388 Y35.764
N6425 X12.886 Y35.962
N6430 X12.483 Y36.16
N6435 X12.129 Y36.37
N6440 X11.838 Y36.576
N6445 X11.789 Y36.617
N6450 X11.654 Y36.768
N6455 X11.568 Y36.952
N6460 X11.539 Y37.153
N6465 Y38.797
N6470 G2 X11.697 Y39.052 I0.3 J-0.01 F600
N6475 G1 X11.739 Y39.068
N6480 X11.783 Y39.073
N6485 X11.827 Y39.067
N6490 X11.869 Y39.051
N6495 X11.905 Y39.025
N6500 G2 X11.697 Y37.408 I-0.678 J-0.735
N6505 G3 X11.539 Y37.153 I0.141 J-0.265
N6510 G1 Y36.603
N6515 X11.546 Y36.453
N6520 X11.579 Y36.307
N6525 X11.63 Y36.166
N6530 X11.697 Y36.032
N6535 X11.776 Y35.904
N6540 X11.875 Y35.768
N6545 X12.011 Y35.611
N6550 X12.164 Y35.459
N6555 X12.363 Y35.293
N6560 X12.613 Y35.115
N6565 X12.911 Y34.937
N6570 X13.291 Y34.75
N6575 X13.778 Y34.558
N6580 X14.395 Y34.369
N6585 X15.024 Y34.231
N6590 X15.661 Y34.13
N6595 X16.302 Y34.056
N6600 X16.944 Y34.003
N6605 X17.588 Y33.966
N6610 X18.232 Y33.939
N6615 X18.877 Y33.921
N6620 X19.521 Y33.908
N6625 X20.166 Y33.899
N6630 X20.811 Y33.893
N6635 X22.1 Y33.885
N6640 X23.389 Y33.877
N6645 X24.034 Y33.871
N6650 X24.679 Y33.861
N6655 X25.323 Y33.844
N6660 X25.967 Y33.814
N6665 X26.61 Y33.76
N6670 X27.247 Y33.661
N6675 X27.539 Y33.524
N6680 X27.789 Y33.321
N6685 X28.209 Y32.832
N6690 X28.477 Y32.245
N6695 X28.642 Y31.622
N6700 X28.741 Y30.985
N6705 X28.8 Y30.343
N6710 X28.835 Y29.699
N6715 X28.856 Y29.055
N6720 X28.868 Y28.41
N6725 X28.875 Y27.765
N6730 X28.879 Y27.12
N6735 X28.882 Y26.476
N6740 X28.884 Y25.186
N6745 Y23.897
N6750 X28.881 Y22.607
N6755 X28.877 Y21.962
N6760 X28.871 Y21.318
N6765 X28.861 Y20.673
N6770 X28.842 Y20.029
N6775 X28.81 Y19.385
N6780 X28.752 Y18.743
N6785 X28.645 Y18.107
N6790 X28.495 Y17.822
N6795 X28.072 Y17.335
N6800 X27.512 Y17.016
N6805 X26.898 Y16.817
N6810 X26.265 Y16.695
N6815 X25.625 Y16.623
N6820 X24.981 Y16.579
N6825 X24.337 Y16.553
N6830 X23.692 Y16.537
N6835 X23.048 Y16.528
N6840 X22.403 Y16.521
N6845 X20.469 Y16.505
N6850 X19.824 Y16.498
N6855 X19.179 Y16.487
N6860 X18.535 Y16.472
N6865 X17.891 Y16.45
N6870 X17.247 Y16.419
N6875 X16.603 Y16.376
N6880 X15.961 Y16.315
N6885 X15.322 Y16.232
N6890 X14.687 Y16.12
N6895 X14.059 Y15.973
N6900 X13.454 Y15.786
N6905 X12.932 Y15.578
N6910 X12.514 Y15.371
N6915 X12.153 Y15.154
N6920 X11.85 Y14.937
N6925 X11.787 Y14.884
N6930 X11.653 Y14.732
N6935 X11.568 Y14.549
N6940 X11.539 Y14.349
N6945 Y12.693
N6950 G3 X11.697 Y12.438 I0.3 J0.01
N6955 G1 X11.745 Y12.422
N6960 X11.795 Y12.42
N6965 X11.843 Y12.433
N6970 X11.886 Y12.46
N6975 G3 X11.697 Y14.095 I-0.659 J0.752
N6980 G2 X11.539 Y14.349 I0.141 J0.265
N6985 G1 Y14.887 F540
N6990 X11.546 Y15.037
N6995 X11.576 Y15.184
N7000 X11.624 Y15.326
N7005 X11.689 Y15.461
N7010 X11.768 Y15.595
N7015 X11.862 Y15.729
N7020 X11.991 Y15.883
N7025 X12.15 Y16.045
N7030 X12.339 Y16.209
N7035 X12.594 Y16.397
N7040 X12.88 Y16.574
N7045 X13.263 Y16.771
N7050 X13.739 Y16.968
N7055 X14.34 Y17.163
N7060 X14.967 Y17.312
N7065 X15.602 Y17.422
N7070 X16.242 Y17.505
N7075 X16.883 Y17.565
N7080 X17.527 Y17.61
N7085 X18.171 Y17.642
N7090 X18.815 Y17.665
N7095 X19.459 Y17.682
N7100 X20.104 Y17.694
N7105 X20.749 Y17.703
N7110 X22.683 Y17.725
N7115 X23.328 Y17.735
N7120 X23.972 Y17.752
N7125 X24.616 Y17.779
N7130 X25.259 Y17.825
N7135 X25.898 Y17.912
N7140 X26.206 Y18.008
N7145 X26.476 Y18.184
N7150 X26.934 Y18.638
N7155 X27.23 Y19.21
N7160 X27.414 Y19.828
N7165 X27.525 Y20.464
N7170 X27.591 Y21.105
N7175 X27.63 Y21.749
N7180 X27.653 Y22.393
N7185 X27.666 Y23.037
N7190 X27.674 Y23.682
N7195 X27.678 Y24.327
N7200 X27.68 Y24.972
N7205 X27.681 Y25.616
N7210 X27.68 Y26.261
N7215 X27.678 Y26.906
N7220 X27.674 Y27.551
N7225 X27.666 Y28.195
N7230 X27.653 Y28.84
N7235 X27.629 Y29.484
N7240 X27.586 Y30.128
N7245 X27.507 Y30.768
N7250 X27.426 Y31.08
N7255 X27.282 Y31.368
N7260 X26.866 Y31.861
N7265 X26.308 Y32.183
N7270 X25.695 Y32.384
N7275 X25.062 Y32.507
N7280 X24.422 Y32.58
N7285 X23.778 Y32.623
N7290 X23.134 Y32.65
N7295 X22.49 Y32.666
N7300 X21.845 Y32.677
N7305 X20.556 Y32.694
N7310 X19.911 Y32.704
N7315 X19.266 Y32.717
N7320 X18.622 Y32.734
N7325 X17.978 Y32.758
N7330 X17.334 Y32.792
N7335 X16.691 Y32.838
N7340 X16.049 Y32.902
N7345 X15.41 Y32.987
N7350 X14.775 Y33.1
N7355 X14.147 Y33.247
N7360 X13.534 Y33.436
N7365 X13.003 Y33.647
N7370 X12.553 Y33.869
N7375 X12.192 Y34.085
N7380 X11.877 Y34.31
N7385 X11.788 Y34.385
N7390 X11.653 Y34.536
N7395 X11.568 Y34.72
N7400 X11.539 Y34.92
N7405 Y36.603
N7410 G2 X12.058 Y36.797 I0.3 J-0.01 F600
N7415 X12.229 Y36.188 I-0.504 J-0.47
N7420 X11.634 Y35.129 I-1.959 J0.403
N7425 G1 X11.595 Y35.085
N7430 X11.565 Y35.034
N7435 X11.546 Y34.978
N7440 X11.539 Y34.92
N7445 Y34.343
N7450 X11.546 Y34.193
N7455 X11.581 Y34.047
N7460 X11.633 Y33.907
N7465 X11.7 Y33.772
N7470 X11.787 Y33.631
N7475 X11.888 Y33.493
N7480 X12.024 Y33.335
N7485 X12.196 Y33.165
N7490 X12.397 Y32.997
N7495 X12.669 Y32.804
N7500 X12.976 Y32.621
N7505 X13.384 Y32.42
N7510 X13.901 Y32.216
N7515 X14.518 Y32.027
N7520 X15.147 Y31.885
N7525 X15.782 Y31.778
N7530 X16.422 Y31.698
N7535 X17.064 Y31.638
N7540 X17.707 Y31.593
N7545 X18.351 Y31.561
N7550 X18.995 Y31.536
N7555 X19.64 Y31.518
N7560 X20.285 Y31.505
N7565 X21.574 Y31.482
N7570 X22.218 Y31.469
N7575 X22.863 Y31.45
N7580 X23.507 Y31.42
N7585 X24.15 Y31.367
N7590 X24.787 Y31.271
N7595 X25.086 Y31.15
N7600 X25.344 Y30.957
N7605 X25.779 Y30.481
N7610 X26.058 Y29.9
N7615 X26.23 Y29.278
N7620 X26.334 Y28.642
N7625 X26.396 Y28
N7630 X26.432 Y27.357
N7635 X26.454 Y26.712
N7640 X26.465 Y26.068
N7645 X26.471 Y25.423
N7650 X26.473 Y24.778
N7655 X26.472 Y24.133
N7660 X26.466 Y23.489
N7665 X26.454 Y22.844
N7670 X26.432 Y22.2
N7675 X26.394 Y21.556
N7680 X26.325 Y20.915
N7685 X26.255 Y20.6
N7690 X26.131 Y20.303
N7695 X25.937 Y20.045
N7700 X25.458 Y19.614
N7705 X24.875 Y19.337
N7710 X24.254 Y19.167
N7715 X23.617 Y19.063
N7720 X22.976 Y19
N7725 X22.332 Y18.961
N7730 X21.688 Y18.936
N7735 X21.043 Y18.919
N7740 X19.754 Y18.888
N7745 X19.11 Y18.87
N7750 X18.465 Y18.847
N7755 X17.821 Y18.816
N7760 X17.178 Y18.774
N7765 X16.536 Y18.718
N7770 X15.895 Y18.644
N7775 X15.258 Y18.546
N7780 X14.626 Y18.419
N7785 X14.002 Y18.257
N7790 X13.398 Y18.053
N7795 X12.881 Y17.831
N7800 X12.46 Y17.609
N7805 X12.105 Y17.384
N7810 X11.802 Y17.155
N7815 X11.773 Y17.13
N7820 X11.646 Y16.98
N7825 X11.566 Y16.801
N7830 X11.539 Y16.607
N7835 Y14.887
N7840 G3 X11.849 Y14.597 I0.3 J0.01
N7845 X12.266 Y15.057 I-0.015 J0.433
N7850 X11.634 Y16.398 I-1.996 J-0.122
N7855 G1 X11.595 Y16.442
N7860 X11.565 Y16.493
N7865 X11.546 Y16.549
N7870 X11.539 Y16.607
N7875 Y17.162 F540
N7880 X11.546 Y17.311
N7885 X11.577 Y17.458
N7890 X11.626 Y17.6
N7895 X11.691 Y17.735
N7900 X11.767 Y17.865
N7905 X11.866 Y18.007
N7910 X12.001 Y18.17
N7915 X12.156 Y18.329
N7920 X12.356 Y18.505
N7925 X12.611 Y18.694
N7930 X12.916 Y18.885
N7935 X13.305 Y19.087
N7940 X13.805 Y19.297
N7945 X14.417 Y19.498
N7950 X15.043 Y19.652
N7955 X15.677 Y19.77
N7960 X16.316 Y19.859
N7965 X16.957 Y19.928
N7970 X17.6 Y19.98
N7975 X18.243 Y20.019
N7980 X18.887 Y20.049
N7985 X19.532 Y20.073
N7990 X20.82 Y20.111
N7995 X21.465 Y20.133
N8000 X22.109 Y20.163
N8005 X22.752 Y20.211
N8010 X23.391 Y20.295
N8015 X23.702 Y20.381
N8020 X23.987 Y20.531
N8025 X24.474 Y20.953
N8030 X24.792 Y21.514
N8035 X24.99 Y22.128
N8040 X25.109 Y22.762
N8045 X25.18 Y23.403
N8050 X25.22 Y24.046
N8055 X25.242 Y24.69
N8060 X25.252 Y25.335
N8065 X25.251 Y25.98
N8070 X25.24 Y26.624
N8075 X25.214 Y27.269
N8080 X25.165 Y27.912
N8085 X25.074 Y28.55
N8090 X24.964 Y28.853
N8095 X24.779 Y29.117
N8100 X24.313 Y29.562
N8105 X23.736 Y29.849
N8110 X23.116 Y30.028
N8115 X22.48 Y30.137
N8120 X21.839 Y30.204
N8125 X21.196 Y30.247
N8130 X20.552 Y30.278
N8135 X19.263 Y30.326
N8140 X18.619 Y30.353
N8145 X17.975 Y30.386
N8150 X17.332 Y30.429
N8155 X16.69 Y30.486
N8160 X16.049 Y30.559
N8165 X15.412 Y30.656
N8170 X14.779 Y30.78
N8175 X14.154 Y30.937
N8180 X13.54 Y31.135
N8185 X13 Y31.357
N8190 X12.551 Y31.586
N8195 X12.181 Y31.813
N8200 X11.863 Y32.046
N8205 X11.782 Y32.115
N8210 X11.65 Y32.266
N8215 X11.567 Y32.448
N8220 X11.539 Y32.646
N8225 Y34.343
N8230 G2 X11.849 Y34.632 I0.3 J-0.01 F600
N8235 X12.264 Y34.169 I-0.015 J-0.431
N8240 X11.634 Y32.855 I-1.994 J0.148
N8245 G1 X11.595 Y32.81
N8250 X11.565 Y32.76
N8255 X11.546 Y32.704
N8260 X11.539 Y32.646
N8265 Y32.068
N8270 X11.546 Y31.918
N8275 X11.58 Y31.772
N8280 X11.631 Y31.631
N8285 X11.697 Y31.496
N8290 X11.783 Y31.354
N8295 X11.883 Y31.214
N8300 X12.019 Y31.054
N8305 X12.191 Y30.88
N8310 X12.393 Y30.708
N8315 X12.668 Y30.508
N8320 X12.98 Y30.318
N8325 X13.395 Y30.109
N8330 X13.925 Y29.894
N8335 X14.54 Y29.7
N8340 X15.167 Y29.55
N8345 X15.801 Y29.434
N8350 X16.44 Y29.345
N8355 X17.081 Y29.276
N8360 X17.723 Y29.223
N8365 X18.367 Y29.181
N8370 X19.011 Y29.147
N8375 X20.299 Y29.088
N8380 X20.942 Y29.051
N8385 X21.585 Y28.998
N8390 X22.224 Y28.91
N8395 X22.533 Y28.821
N8400 X22.813 Y28.661
N8405 X23.289 Y28.226
N8410 X23.599 Y27.66
N8415 X23.79 Y27.045
N8420 X23.902 Y26.41
N8425 X23.965 Y25.768
N8430 X23.992 Y25.124
N8435 Y24.479
N8440 X23.964 Y23.835
N8445 X23.893 Y23.194
N8450 X23.809 Y22.883
N8455 X23.655 Y22.6
N8460 X23.229 Y22.115
N8465 X22.669 Y21.797
N8470 X22.056 Y21.596
N8475 X21.424 Y21.471
N8480 X20.784 Y21.39
N8485 X20.142 Y21.336
N8490 X19.498 Y21.294
N8495 X18.854 Y21.256
N8500 X18.211 Y21.217
N8505 X17.568 Y21.171
N8510 X16.926 Y21.114
N8515 X16.285 Y21.043
N8520 X15.647 Y20.951
N8525 X15.013 Y20.833
N8530 X14.386 Y20.682
N8535 X13.769 Y20.494
N8540 X13.187 Y20.271
N8545 X12.716 Y20.047
N8550 X12.308 Y19.81
N8555 X11.972 Y19.577
N8560 X11.795 Y19.432
N8565 X11.657 Y19.28
N8570 X11.569 Y19.094
N8575 X11.539 Y18.891
N8580 Y17.162
N8585 G3 X11.849 Y16.872 I0.3 J0.01
N8590 X12.267 Y17.33 I-0.015 J0.433
N8595 X11.634 Y18.682 I-1.997 J-0.11
N8600 G1 X11.595 Y18.726
N8605 X11.565 Y18.777
N8610 X11.546 Y18.832
N8615 X11.539 Y18.891
N8620 Y19.466 F540
N8625 X11.546 Y19.616
N8630 X11.578 Y19.762
N8635 X11.629 Y19.903
N8640 X11.694 Y20.039
N8645 X11.774 Y20.175
N8650 X11.885 Y20.331
N8655 X12.01 Y20.481
N8660 X12.179 Y20.652
N8665 X12.393 Y20.838
N8670 X12.65 Y21.026
N8675 X12.984 Y21.233
N8680 X13.406 Y21.449
N8685 X13.921 Y21.662
N8690 X14.534 Y21.86
N8695 X15.161 Y22.013
N8700 X15.794 Y22.133
N8705 X16.432 Y22.228
N8710 X17.072 Y22.302
N8715 X17.714 Y22.362
N8720 X18.357 Y22.413
N8725 X19 Y22.459
N8730 X19.643 Y22.507
N8735 X20.285 Y22.565
N8740 X20.924 Y22.651
N8745 X21.237 Y22.73
N8750 X21.527 Y22.869
N8755 X21.776 Y23.074
N8760 X22.189 Y23.569
N8765 X22.443 Y24.162
N8770 X22.582 Y24.792
N8775 X22.634 Y25.434
N8780 X22.605 Y26.078
N8785 X22.523 Y26.39
N8790 X22.357 Y26.667
N8795 X21.915 Y27.136
N8800 X21.349 Y27.444
N8805 X20.735 Y27.641
N8810 X20.103 Y27.767
N8815 X19.464 Y27.854
N8820 X18.822 Y27.919
N8825 X17.538 Y28.034
N8830 X16.896 Y28.1
N8835 X16.257 Y28.179
N8840 X15.619 Y28.277
N8845 X14.986 Y28.399
N8850 X14.36 Y28.553
N8855 X13.745 Y28.745
N8860 X13.183 Y28.964
N8865 X12.697 Y29.199
N8870 X12.288 Y29.441
N8875 X11.956 Y29.674
N8880 X11.791 Y29.811
N8885 X11.655 Y29.962
N8890 X11.568 Y30.147
N8895 X11.539 Y30.349
N8900 Y32.068
N8905 G2 X11.849 Y32.358 I0.3 J-0.01 F600
N8910 X12.266 Y31.898 I-0.015 J-0.433
N8915 X11.634 Y30.558 I-1.996 J0.123
N8920 G1 X11.595 Y30.514
N8925 X11.565 Y30.463
N8930 X11.546 Y30.407
N8935 X11.539 Y30.349
N8940 Y29.808
N8945 X11.546 Y29.658
N8950 X11.562 Y29.509
N8955 X11.599 Y29.364
N8960 X11.651 Y29.223
N8965 X11.718 Y29.089
N8970 X11.795 Y28.96
N8975 X11.881 Y28.837
N8980 X11.975 Y28.72
N8985 X12.076 Y28.609
N8990 X12.183 Y28.504
N8995 X12.294 Y28.403
N9000 X12.409 Y28.308
N9005 X12.529 Y28.217
N9010 X12.652 Y28.131
N9015 X12.778 Y28.049
N9020 X12.906 Y27.971
N9025 X13.036 Y27.897
N9030 X13.169 Y27.827
N9035 X13.303 Y27.76
N9040 X13.439 Y27.697
N9045 X13.576 Y27.636
N9050 X13.715 Y27.579
N9055 X13.855 Y27.525
N9060 X13.996 Y27.473
N9065 X14.137 Y27.424
N9070 X14.28 Y27.377
N9075 X14.423 Y27.333
N9080 X14.567 Y27.291
N9085 X14.712 Y27.251
N9090 X14.857 Y27.213
N9095 X15.002 Y27.177
N9100 X15.148 Y27.142
N9105 X15.295 Y27.11
N9110 X15.441 Y27.078
N9115 X15.589 Y27.049
N9120 X15.736 Y27.02
N9125 X15.883 Y26.994
N9130 X16.031 Y26.968
N9135 X16.179 Y26.943
N9140 X16.339 Y26.918
N9145 X16.519 Y26.891
N9150 X16.721 Y26.862
N9155 X16.953 Y26.83
N9160 X17.231 Y26.794
N9165 X17.796 Y26.726
N9170 X18.436 Y26.653
N9175 X19.076 Y26.574
N9180 X19.712 Y26.467
N9185 X20.02 Y26.371
N9190 X20.283 Y26.185
N9195 X20.486 Y25.935
N9200 X20.626 Y25.644
N9205 X20.657 Y25.486
N9210 X20.65 Y25.325
N9215 X20.607 Y25.17
N9220 X20.451 Y24.887
N9225 X19.991 Y24.436
N9230 X19.417 Y24.143
N9235 X18.801 Y23.952
N9240 X18.17 Y23.818
N9245 X17.534 Y23.713
N9250 X16.896 Y23.619
N9255 X16.578 Y23.57
N9260 X16.292 Y23.524
N9265 X16.144 Y23.5
N9270 X15.985 Y23.472
N9275 X15.807 Y23.439
N9280 X15.621 Y23.404
N9285 X15.474 Y23.375
N9290 X15.327 Y23.344
N9295 X15.181 Y23.311
N9300 X15.035 Y23.277
N9305 X14.889 Y23.242
N9310 X14.743 Y23.206
N9315 X14.598 Y23.168
N9320 X14.454 Y23.127
N9325 X14.31 Y23.085
N9330 X14.167 Y23.041
N9335 X14.024 Y22.995
N9340 X13.882 Y22.947
N9345 X13.74 Y22.896
N9350 X13.6 Y22.844
N9355 X13.46 Y22.789
N9360 X13.322 Y22.731
N9365 X13.184 Y22.672
N9370 X13.048 Y22.609
N9375 X12.913 Y22.544
N9380 X12.779 Y22.476
N9385 X12.647 Y22.405
N9390 X12.516 Y22.331
N9395 X12.387 Y22.255
N9400 X12.261 Y22.174
N9405 X12.136 Y22.091
N9410 X12.014 Y22.004
N9415 X11.894 Y21.914
N9420 X11.8 Y21.839
N9425 X11.659 Y21.686
N9430 X11.569 Y21.498
N9435 X11.539 Y21.293
N9440 Y19.466
N9445 G3 X11.697 Y19.212 I0.3 J0.01
N9450 X12.606 Y20.034 I0.306 J0.575
N9455 X11.697 Y21.039 I-1.85 J-0.76
N9460 G2 X11.539 Y21.293 I0.141 J0.265
N9465 G1 Y21.843 F540
N9470 X11.546 Y21.993
N9475 X11.575 Y22.14
N9480 X11.623 Y22.282
N9485 X11.686 Y22.418
N9490 X11.765 Y22.555
N9495 X11.867 Y22.705
N9500 X11.998 Y22.866
N9505 X12.164 Y23.041
N9510 X12.373 Y23.227
N9515 X12.637 Y23.427
N9520 X12.968 Y23.638
N9525 X13.388 Y23.862
N9530 X13.938 Y24.099
N9535 X14.243 Y24.203
N9540 X14.397 Y24.249
N9545 X15.016 Y24.43
N9550 X15.644 Y24.577
N9555 X15.96 Y24.639
N9560 X16.198 Y24.683
N9565 G2 X16.539 Y24.43 I0.044 J-0.297 F600
N9570 X14.545 Y23.2 I-1.262 J-0.187
N9575 X14.366 Y24.022 I0.357 J0.508
N9580 G1 X14.39 Y24.075
N9585 X14.404 Y24.133
N9590 X14.406 Y24.191
N9595 X14.397 Y24.249
N9600 X14.354 Y24.393
N9605 X14.236 Y24.485
N9610 X14.102 Y24.552
N9615 X13.96 Y24.602
N9620 X13.814 Y24.635
N9625 X13.665 Y24.654
N9630 X13.515 Y24.661
N9635 X13.365 Y24.658
N9640 X13.216 Y24.644
N9645 X13.067 Y24.622
N9650 X12.921 Y24.591
N9655 X12.776 Y24.552
N9660 X12.633 Y24.506
N9665 X12.492 Y24.454
N9670 X12.354 Y24.395
N9675 X12.219 Y24.33
N9680 X12.087 Y24.259
N9685 X11.958 Y24.182
N9690 X11.829 Y24.096
N9695 X11.673 Y23.941
N9700 X11.573 Y23.745
N9705 X11.539 Y23.528
N9710 Y21.843
N9715 G3 X11.849 Y21.553 I0.3 J0.01
N9720 X12.263 Y22.019 I-0.015 J0.431
N9725 X11.634 Y23.32 I-1.993 J-0.162
N9730 G1 X11.595 Y23.364
N9735 X11.565 Y23.415
N9740 X11.546 Y23.47
N9745 X11.539 Y23.528
N9750 Y24.037 F540
N9755 X11.546 Y24.187
N9760 X11.579 Y24.333
N9765 X11.635 Y24.472
N9770 X11.708 Y24.604
N9775 X11.794 Y24.726
N9780 X11.892 Y24.84
N9785 X12 Y24.947
N9790 X12.063 Y24.999
N9795 X12.191 Y25.097
N9800 X12.292 Y25.222
N9805 X12.363 Y25.367
N9810 X12.398 Y25.525
N9815 X12.397 Y25.686
N9820 X12.243 Y26.312
N9825 X11.891 Y26.852
N9830 X11.682 Y27.125
N9835 X11.604 Y27.255
N9840 X11.555 Y27.399
N9845 X11.539 Y27.55
N9850 X11.545 Y27.602 F600
N9855 X11.56 Y27.652
N9860 X11.584 Y27.699
N9865 X11.619 Y27.756 Z9.018
N9870 X11.653 Y27.809 Z9.04
N9875 X11.683 Y27.858 Z9.075
N9880 X11.708 Y27.898 Z9.123
N9885 X11.727 Y27.928 Z9.18
N9890 X11.739 Y27.947 Z9.243
N9895 X11.743 Y27.953 Z9.31
N9900 G0 Z13
N9905 X11.913 Y23.026
N9910 Z9.61
N9915 G1 Z9.31 F600
N9920 X11.909 Y23.032 Z9.243
N9925 X11.898 Y23.051 Z9.18
N9930 X11.88 Y23.082 Z9.123
N9935 X11.855 Y23.123 Z9.075
N9940 X11.826 Y23.172 Z9.04
N9945 X11.794 Y23.226 Z9.018
N9950 X11.76 Y23.283 Z9.01
N9955 G2 X11.539 Y24.037 I1.36 J0.809
N9960 G1 Y29.808 F540
N9965 X11.551 Y29.848 Z9.016 F600
N9970 X11.562 Y29.885 Z9.033
N9975 X11.571 Y29.917 Z9.06
N9980 X11.578 Y29.94 Z9.095
N9985 X11.582 Y29.954 Z9.134
N9990 X11.584 Y29.957 Z9.167
N9995 G0 Z13
N10000 X-0.297 Y-3.438
N10005 Z8.62
N10010 G1 Z8.32 F600
N10015 X-0.295 Y-3.431 Z8.253
N10020 X-0.29 Y-3.409 Z8.19
N10025 X-0.281 Y-3.375 Z8.133
N10030 X-0.269 Y-3.328 Z8.085
N10035 X-0.255 Y-3.273 Z8.05
N10040 X-0.239 Y-3.212 Z8.028
N10045 X-0.222 Y-3.147 Z8.02
N10050 G3 X0.012 Y-1.514 I-7.419 J1.9
N10055 G1 Y-1.364
N10060 X-0.115 Y-0.732
N10065 X-0.188 Y-0.091
N10070 X-0.23 Y0.552
N10075 X-0.253 Y1.196
N10080 X-0.267 Y1.841
N10085 X-0.274 Y2.486
N10090 X-0.278 Y3.13
N10095 X-0.281 Y3.775
N10100 X-0.283 Y5.709
N10105 X-0.287 Y48.908
N10110 Y49.069
N10115 X-0.251 Y49.226
N10120 X-0.107 Y49.514
N10125 X0.335 Y49.983
N10130 X0.911 Y50.274
N10135 X1.532 Y50.446
N10140 X2.169 Y50.547
N10145 X2.811 Y50.604
N10150 X3.455 Y50.636
N10155 X4.1 Y50.655
N10160 X4.744 Y50.665
N10165 X5.389 Y50.671
N10170 X6.034 Y50.675
N10175 X7.323 Y50.678
N10180 X11.192 Y50.68
N10185 X44.074 Y50.688
N10190 X44.381 Y50.59
N10195 X44.64 Y50.398
N10200 X45.065 Y49.913
N10205 X45.325 Y49.323
N10210 X45.479 Y48.697
N10215 X45.568 Y48.058
N10220 X45.618 Y47.416
N10225 X45.647 Y46.772
N10230 X45.663 Y46.127
N10235 X45.672 Y45.482
N10240 X45.677 Y44.838
N10245 X45.68 Y44.193
N10250 X45.683 Y42.903
N10255 X45.685 Y38.39
N10260 X45.687 Y1.317
N10265 X45.584 Y1.012
N10270 X45.389 Y0.755
N10275 X44.901 Y0.334
N10280 X44.31 Y0.076
N10285 X43.683 Y-0.075
N10290 X43.044 Y-0.163
N10295 X42.401 Y-0.213
N10300 X41.757 Y-0.242
N10305 X41.113 Y-0.258
N10310 X40.468 Y-0.267
N10315 X39.823 Y-0.272
N10320 X39.179 Y-0.275
N10325 X37.889 Y-0.278
N10330 X33.376 Y-0.28
N10335 X2.75 Y-0.287
N10340 X2.589 Y-0.277
N10345 X2.281 Y-0.184
N10350 X2.018 Y0.003
N10355 X1.582 Y0.478
N10360 X1.309 Y1.062
N10365 X1.145 Y1.686
N10370 X1.049 Y2.323
N10375 X0.992 Y2.966
N10380 X0.96 Y3.61
N10385 X0.941 Y4.254
N10390 X0.93 Y4.899
N10395 X0.924 Y5.543
N10400 X0.921 Y6.188
N10405 X0.917 Y7.478
N10410 X0.916 Y10.701
N10415 Y11.346
N10420 X0.913 Y47.452
N10425 X0.962 Y47.771
N10430 X1.098 Y48.063
N10435 X1.494 Y48.572
N10440 X2.038 Y48.917
N10445 X2.644 Y49.138
N10450 X3.274 Y49.274
N10455 X3.914 Y49.357
N10460 X4.556 Y49.407
N10465 X5.201 Y49.437
N10470 X5.845 Y49.454
N10475 X6.49 Y49.465
N10480 X7.134 Y49.471
N10485 X7.779 Y49.474
N10490 X9.069 Y49.478
N10495 X12.292 Y49.48
N10500 X14.227 Y49.481
N10505 X42.596 Y49.487
N10510 X42.904 Y49.394
N10515 X43.18 Y49.228
N10520 X43.655 Y48.791
N10525 X43.973 Y48.23
N10530 X44.174 Y47.618
N10535 X44.298 Y46.985
N10540 X44.374 Y46.345
N10545 X44.419 Y45.702
N10550 X44.446 Y45.057
N10555 X44.462 Y44.413
N10560 X44.471 Y43.768
N10565 X44.476 Y43.123
N10570 X44.48 Y42.479
N10575 X44.483 Y41.189
N10580 X44.484 Y37.965
N10585 X44.485 Y28.294
N10590 X44.487 Y3.149
N10595 X44.483 Y2.827
N10600 X44.395 Y2.516
N10605 X44.232 Y2.238
N10610 X43.8 Y1.76
N10615 X43.241 Y1.439
N10620 X42.629 Y1.235
N10625 X41.997 Y1.11
N10630 X41.357 Y1.033
N10635 X40.714 Y0.987
N10640 X40.069 Y0.96
N10645 X39.425 Y0.944
N10650 X38.78 Y0.934
N10655 X38.135 Y0.929
N10660 X37.491 Y0.925
N10665 X36.201 Y0.922
N10670 X32.978 Y0.92
N10675 X20.083 Y0.917
N10680 X4.286 Y0.913
N10685 X3.965 Y0.937
N10690 X3.662 Y1.048
N10695 X3.392 Y1.225
N10700 X2.929 Y1.673
N10705 X2.62 Y2.239
N10710 X2.423 Y2.853
N10715 X2.301 Y3.486
N10720 X2.227 Y4.126
N10725 X2.182 Y4.77
N10730 X2.155 Y5.414
N10735 X2.139 Y6.058
N10740 X2.129 Y6.703
N10745 X2.124 Y7.348
N10750 X2.12 Y7.993
N10755 X2.117 Y9.282
N10760 X2.116 Y12.506
N10765 X2.114 Y34.427
N10770 X2.113 Y46.033
N10775 X2.144 Y46.354
N10780 X2.251 Y46.658
N10785 X2.422 Y46.931
N10790 X2.859 Y47.405
N10795 X3.417 Y47.728
N10800 X4.027 Y47.937
N10805 X4.658 Y48.069
N10810 X5.298 Y48.151
N10815 X5.94 Y48.202
N10820 X6.584 Y48.233
N10825 X7.229 Y48.251
N10830 X7.873 Y48.263
N10835 X8.518 Y48.27
N10840 X9.163 Y48.274
N10845 X10.452 Y48.278
N10850 X13.031 Y48.28
N10855 X40.111 Y48.287
N10860 X41.078
N10865 X41.397 Y48.244
N10870 X41.698 Y48.127
N10875 X41.966 Y47.948
N10880 X42.432 Y47.502
N10885 X42.747 Y46.94
N10890 X42.951 Y46.328
N10895 X43.08 Y45.696
N10900 X43.16 Y45.057
N10905 X43.209 Y44.414
N10910 X43.239 Y43.77
N10915 X43.257 Y43.125
N10920 X43.268 Y42.481
N10925 X43.274 Y41.836
N10930 X43.278 Y41.191
N10935 X43.282 Y39.902
N10940 X43.284 Y37.323
N10945 X43.287 Y4.44
N10950 X43.266 Y4.119
N10955 X43.175 Y3.809
N10960 X43.017 Y3.529
N10965 X42.598 Y3.039
N10970 X42.048 Y2.701
N10975 X41.442 Y2.482
N10980 X40.813 Y2.342
N10985 X40.174 Y2.256
N10990 X39.531 Y2.203
N10995 X38.887 Y2.17
N11000 X38.243 Y2.15
N11005 X37.598 Y2.138
N11010 X36.953 Y2.131
N11015 X36.309 Y2.127
N11020 X35.664 Y2.124
N11025 X34.374 Y2.121
N11030 X29.861 Y2.119
N11035 X5.361 Y2.113
N11040 X5.05 Y2.2
N11045 X4.766 Y2.353
N11050 X4.269 Y2.762
N11055 X3.922 Y3.306
N11060 X3.695 Y3.91
N11065 X3.55 Y4.538
N11070 X3.459 Y5.176
N11075 X3.403 Y5.818
N11080 X3.369 Y6.462
N11085 X3.348 Y7.107
N11090 X3.335 Y7.751
N11095 X3.327 Y8.396
N11100 X3.323 Y9.041
N11105 X3.32 Y9.686
N11110 X3.317 Y10.975
N11115 X3.315 Y14.844
N11120 Y17.423
N11125 X3.313 Y44.824
N11130 X3.361 Y45.143
N11135 X3.479 Y45.443
N11140 X3.655 Y45.713
N11145 X4.095 Y46.185
N11150 X4.652 Y46.509
N11155 X5.261 Y46.721
N11160 X5.891 Y46.857
N11165 X6.53 Y46.942
N11170 X7.173 Y46.995
N11175 X7.817 Y47.028
N11180 X8.461 Y47.048
N11185 X9.106 Y47.061
N11190 X9.751 Y47.068
N11195 X10.395 Y47.073
N11200 X11.04 Y47.076
N11205 X12.33 Y47.079
N11210 X16.198 Y47.081
N11215 X25.224 Y47.083
N11220 X40.054 Y47.087
N11225 X40.36 Y46.987
N11230 X40.639 Y46.826
N11235 X41.129 Y46.406
N11240 X41.471 Y45.86
N11245 X41.698 Y45.256
N11250 X41.844 Y44.628
N11255 X41.936 Y43.99
N11260 X41.993 Y43.348
N11265 X42.028 Y42.704
N11270 X42.05 Y42.06
N11275 X42.064 Y41.415
N11280 X42.072 Y40.77
N11285 X42.077 Y40.126
N11290 X42.08 Y39.481
N11295 X42.083 Y38.191
N11300 X42.085 Y34.968
N11305 X42.087 Y12.401
N11310 Y5.309
N11315 X41.978 Y5.006
N11320 X41.809 Y4.731
N11325 X41.38 Y4.25
N11330 X40.829 Y3.915
N11335 X40.223 Y3.695
N11340 X39.594 Y3.554
N11345 X38.956 Y3.465
N11350 X38.313 Y3.409
N11355 X37.669 Y3.375
N11360 X37.025 Y3.354
N11365 X36.38 Y3.34
N11370 X35.736 Y3.332
N11375 X35.091 Y3.327
N11380 X34.446 Y3.324
N11385 X33.157 Y3.321
N11390 X29.933 Y3.319
N11395 X6.722 Y3.314
N11400 X6.405 Y3.374
N11405 X6.109 Y3.502
N11410 X5.581 Y3.872
N11415 X5.204 Y4.395
N11420 X4.952 Y4.988
N11425 X4.788 Y5.612
N11430 X4.685 Y6.248
N11435 X4.62 Y6.889
N11440 X4.58 Y7.533
N11445 X4.555 Y8.177
N11450 X4.54 Y8.822
N11455 X4.53 Y9.466
N11460 X4.524 Y10.111
N11465 X4.521 Y10.756
N11470 X4.517 Y12.045
N11475 X4.516 Y14.624
N11480 X4.513 Y43.638
N11485 X4.574 Y43.955
N11490 X4.7 Y44.251
N11495 X5.063 Y44.784
N11500 X5.582 Y45.167
N11505 X6.173 Y45.425
N11510 X6.795 Y45.593
N11515 X7.431 Y45.7
N11520 X8.072 Y45.768
N11525 X8.715 Y45.811
N11530 X9.36 Y45.837
N11535 X10.004 Y45.854
N11540 X10.649 Y45.864
N11545 X11.293 Y45.87
N11550 X11.938 Y45.874
N11555 X13.228 Y45.878
N11560 X15.807 Y45.881
N11565 X19.675 Y45.882
N11570 X38.373 Y45.886
N11575 X38.695 Y45.876
N11580 X39.01 Y45.808
N11585 X39.303 Y45.674
N11590 X39.825 Y45.296
N11595 X40.198 Y44.77
N11600 X40.448 Y44.175
N11605 X40.61 Y43.551
N11610 X40.714 Y42.915
N11615 X40.778 Y42.273
N11620 X40.819 Y41.63
N11625 X40.844 Y40.986
N11630 X40.86 Y40.341
N11635 X40.869 Y39.696
N11640 X40.875 Y39.052
N11645 X40.879 Y38.407
N11650 X40.883 Y37.117
N11655 X40.885 Y34.538
N11660 X40.886 Y15.196
N11665 X40.887 Y6.814
N11670 X40.842 Y6.495
N11675 X40.728 Y6.193
N11680 X40.556 Y5.921
N11685 X40.122 Y5.444
N11690 X39.569 Y5.114
N11695 X38.962 Y4.896
N11700 X38.332 Y4.755
N11705 X37.694 Y4.667
N11710 X37.052 Y4.611
N11715 X36.408 Y4.576
N11720 X35.763 Y4.554
N11725 X35.119 Y4.541
N11730 X34.474 Y4.533
N11735 X33.829 Y4.528
N11740 X33.185 Y4.524
N11745 X31.895 Y4.521
N11750 X28.671 Y4.519
N11755 X8.039 Y4.514
N11760 X7.72 Y4.555
N11765 X7.416 Y4.663
N11770 X7.141 Y4.831
N11775 X6.658 Y5.259
N11780 X6.323 Y5.809
N11785 X6.101 Y6.415
N11790 X5.957 Y7.043
N11795 X5.866 Y7.682
N11800 X5.809 Y8.324
N11805 X5.773 Y8.967
N11810 X5.751 Y9.612
N11815 X5.737 Y10.256
N11820 X5.729 Y10.901
N11825 X5.724 Y11.546
N11830 X5.72 Y12.191
N11835 X5.717 Y13.48
N11840 X5.715 Y16.704
N11845 X5.713 Y42.494
N11850 X5.785 Y42.808
N11855 X5.923 Y43.1
N11860 X6.306 Y43.618
N11865 X6.446 Y43.717
N11870 X6.488 Y43.749
N11875 X6.527 Y43.784
N11880 X6.563 Y43.821
N11885 X6.582 Y43.841
N11890 X6.592 Y43.852
N11895 X6.728 Y43.967
N11900 X6.769 Y43.998
N11905 X6.875 Y44.068
N11910 X7.021 Y44.145
N11915 X7.168 Y44.208
N11920 X7.314 Y44.249
N11925 X7.461 Y44.278
N11930 X8.093 Y44.403
N11935 X8.73 Y44.507
N11940 X9.371 Y44.572
N11945 X10.014 Y44.613
N11950 X10.659 Y44.639
N11955 X11.303 Y44.655
N11960 X11.948 Y44.664
N11965 X12.593 Y44.671
N11970 X13.237 Y44.675
N11975 X14.527 Y44.679
N11980 X17.106 Y44.681
N11985 X37.093 Y44.686
N11990 X37.415 Y44.681
N11995 X37.733 Y44.625
N12000 X38.032 Y44.504
N12005 X38.568 Y44.147
N12010 X38.957 Y43.632
N12015 X39.219 Y43.043
N12020 X39.391 Y42.422
N12025 X39.501 Y41.786
N12030 X39.57 Y41.145
N12035 X39.613 Y40.502
N12040 X39.64 Y39.858
N12045 X39.657 Y39.213
N12050 X39.668 Y38.568
N12055 X39.674 Y37.924
N12060 X39.678 Y37.279
N12065 X39.682 Y35.99
N12070 X39.685 Y33.411
N12075 X39.686 Y25.029
N12080 X39.687 Y8.265
N12085 X39.675 Y7.943
N12090 X39.609 Y7.628
N12095 X39.477 Y7.333
N12100 X39.106 Y6.806
N12105 X38.584 Y6.428
N12110 X37.992 Y6.173
N12115 X37.369 Y6.006
N12120 X36.733 Y5.9
N12125 X36.092 Y5.832
N12130 X35.448 Y5.79
N12135 X34.804 Y5.763
N12140 X34.16 Y5.746
N12145 X33.515 Y5.736
N12150 X32.87 Y5.73
N12155 X32.226 Y5.726
N12160 X30.936 Y5.721
N12165 X28.357 Y5.719
N12170 X9.015 Y5.714
N12175 X8.707 Y5.809
N12180 X8.336 Y6.013
N12185 X8.229 Y6.061
N12190 X8.116 Y6.09
N12195 X7.999 Y6.1
N12200 X7.754 Y6.101
N12205 X7.607 Y6.104
N12210 X7.549 Y6.11
N12215 X7.461 Y6.122
N12220 X7.314 Y6.151
N12225 X7.168 Y6.192
N12230 X7.02 Y6.256
N12235 X6.875 Y6.332
N12240 X6.769 Y6.402
N12245 X6.728 Y6.433
N12250 X6.592 Y6.548
N12255 X6.582 Y6.559
N12260 X6.459 Y6.695
N12265 X6.435 Y6.723
N12270 X6.353 Y6.841
N12275 X6.288 Y6.956
N12280 X6.273 Y6.987
N12285 X6.207 Y7.134
N12290 X6.158 Y7.28
N12295 X6.142 Y7.338
N12300 X6.127 Y7.426
N12305 X6.108 Y7.572
N12310 X6.1 Y7.719
N12315 Y42.681
N12320 X6.104 Y42.762
N12325 G3 X6.009 Y42.997 I-0.3 J0.016
N12330 G2 X5.935 Y43.326 I0.205 J0.219
N12335 G1 X5.995 Y43.48
N12340 X6.289 Y44.226
N12345 G2 X6.684 Y44.392 I0.279 J-0.11
N12350 G3 X7.461 Y44.278 I0.612 J1.46
N12355 G1 X7.549 Y44.29
N12360 X7.607 Y44.296
N12365 X7.754 Y44.299
N12370 X7.9 Y44.3
N12375 X10.977
N12380 X11.124 Y44.292
N12385 X11.145 Y44.29
N12390 X11.271 Y44.274
N12395 X11.417 Y44.242
N12400 X11.564 Y44.198
N12405 X11.71 Y44.143
N12410 X11.857 Y44.068
N12415 X11.99 Y43.999
N12420 X12.245 Y43.897
N12425 X12.589 Y43.791
N12430 X13.083 Y43.68
N12435 X13.722 Y43.59
N12440 X14.365 Y43.541
N12445 X15.009 Y43.514
N12450 X15.653 Y43.5
N12455 X16.298 Y43.492
N12460 X16.943 Y43.487
N12465 X17.588 Y43.485
N12470 X18.877 Y43.483
N12475 X24.68
N12480 X36.285 Y43.486
N12485 X36.6 Y43.415
N12490 X36.892 Y43.279
N12495 X37.413 Y42.899
N12500 X37.787 Y42.374
N12505 X38.038 Y41.78
N12510 X38.202 Y41.156
N12515 X38.307 Y40.52
N12520 X38.373 Y39.879
N12525 X38.415 Y39.236
N12530 X38.441 Y38.591
N12535 X38.458 Y37.947
N12540 X38.468 Y37.302
N12545 X38.474 Y36.657
N12550 X38.478 Y36.013
N12555 X38.482 Y34.723
N12560 X38.485 Y32.144
N12565 X38.486 Y18.604
N12570 X38.487 Y9.578
N12575 X38.485 Y9.256
N12580 X38.439 Y8.936
N12585 X38.328 Y8.634
N12590 X37.99 Y8.085
N12595 X37.484 Y7.684
N12600 X36.9 Y7.411
N12605 X36.281 Y7.232
N12610 X35.647 Y7.116
N12615 X35.006 Y7.043
N12620 X34.363 Y6.996
N12625 X33.719 Y6.967
N12630 X33.075 Y6.949
N12635 X32.43 Y6.938
N12640 X31.785 Y6.931
N12645 X31.141 Y6.926
N12650 X30.496 Y6.923
N12655 X29.206 Y6.92
N12660 X25.983 Y6.918
N12665 X12.679 Y6.915
N12670 X12.489 Y6.889
N12675 X12.313 Y6.814
N12680 X12.164 Y6.695
N12685 X12.003 Y6.527
N12690 X11.967 Y6.493
N12695 X11.93 Y6.465
N12700 X11.842 Y6.402
N12705 X11.71 Y6.318
N12710 X11.594 Y6.256
N12715 X11.564 Y6.243
N12720 X11.417 Y6.188
N12725 X11.271 Y6.148
N12730 X11.124 Y6.119
N12735 X10.977 Y6.104
N12740 X10.831 Y6.101
N12745 X10.538 Y6.1
N12750 X7.999
N12755 G3 X7.709 Y5.79 I0.01 J-0.3
N12760 X11.679 Y4.782 I2.131 J0.074
N12765 X12.088 Y6.478 I-2.585 J1.522
N12770 G1 X12.091 Y6.537
N12775 X12.104 Y6.594
N12780 X12.129 Y6.647
N12785 X12.164 Y6.695
N12790 X12.296 Y6.879 F540
N12795 X12.352 Y6.987
N12800 X12.422 Y7.12
N12805 X12.522 Y7.232
N12810 X12.636 Y7.329
N12815 X12.76 Y7.416
N12820 X12.92 Y7.509
N12825 X13.126 Y7.608
N12830 X13.396 Y7.712
N12835 X13.765 Y7.82
N12840 X14.301 Y7.933
N12845 X14.941 Y8.014
N12850 X15.584 Y8.059
N12855 X16.228 Y8.084
N12860 X16.873 Y8.098
N12865 X17.518 Y8.106
N12870 X18.163 Y8.111
N12875 X18.807 Y8.113
N12880 X20.097 Y8.116
N12885 X28.478 Y8.12
N12890 X29.768 Y8.122
N12895 X30.413 Y8.124
N12900 X31.057 Y8.128
N12905 X31.702 Y8.133
N12910 X32.347 Y8.141
N12915 X32.991 Y8.155
N12920 X33.636 Y8.178
N12925 X34.28 Y8.215
N12930 X34.921 Y8.276
N12935 X35.558 Y8.379
N12940 X35.865 Y8.478
N12945 X36.144 Y8.64
N12950 X36.605 Y9.089
N12955 X36.891 Y9.668
N12960 X37.06 Y10.29
N12965 X37.158 Y10.927
N12970 X37.214 Y11.569
N12975 X37.246 Y12.213
N12980 X37.263 Y12.858
N12985 X37.274 Y13.503
N12990 X37.279 Y14.147
N12995 X37.282 Y14.792
N13000 X37.285 Y16.082
N13005 X37.286 Y19.95
N13010 X37.285 Y32.2
N13015 X37.283 Y34.134
N13020 X37.282 Y34.779
N13025 X37.28 Y35.424
N13030 X37.276 Y36.069
N13035 X37.271 Y36.713
N13040 X37.262 Y37.358
N13045 X37.248 Y38.003
N13050 X37.226 Y38.647
N13055 X37.189 Y39.291
N13060 X37.129 Y39.933
N13065 X37.025 Y40.569
N13070 X36.924 Y40.875
N13075 X36.759 Y41.152
N13080 X36.306 Y41.61
N13085 X35.726 Y41.893
N13090 X35.104 Y42.061
N13095 X34.466 Y42.158
N13100 X33.824 Y42.213
N13105 X33.18 Y42.244
N13110 X32.535 Y42.262
N13115 X31.891 Y42.272
N13120 X31.246 Y42.277
N13125 X30.601 Y42.28
N13130 X29.312 Y42.283
N13135 X25.443
N13140 X19.641
N13145 X18.351 Y42.284
N13150 X17.706 Y42.285
N13155 X17.062 Y42.288
N13160 X16.417 Y42.294
N13165 X15.772 Y42.304
N13170 X15.128 Y42.321
N13175 X14.484 Y42.352
N13180 X13.841 Y42.407
N13185 X13.202 Y42.494
N13190 X13.178 Y42.499
N13195 X12.976 Y42.574
N13200 X12.807 Y42.707
N13205 X12.687 Y42.885
N13210 X12.626 Y43.092
N13215 X12.625 Y43.102
N13220 X12.518 Y43.347
N13225 G2 X12.562 Y43.643 I0.279 J0.11 F600
N13230 X12.815 Y43.659 I0.133 J-0.106
N13235 X12.804 Y43.407 I-0.119 J-0.122
N13240 G1 X12.75 Y43.365
N13245 G3 X12.626 Y43.092 I0.175 J-0.244
N13250 G1 X12.681 Y42.681
N13255 Y42.637
N13260 X12.689 Y42.487
N13265 X12.745 Y42.348
N13270 X12.829 Y42.224
N13275 X12.929 Y42.112
N13280 X13.04 Y42.012
N13285 X13.175 Y41.909
N13290 X13.342 Y41.803
N13295 X13.549 Y41.693
N13300 X13.82 Y41.577
N13305 X14.165 Y41.459
N13310 X14.647 Y41.338
N13315 X15.283 Y41.232
N13320 X15.925 Y41.169
N13325 X16.568 Y41.133
N13330 X17.213 Y41.112
N13335 X17.857 Y41.099
N13340 X18.502 Y41.092
N13345 X19.147 Y41.088
N13350 X19.792 Y41.086
N13355 X21.081 Y41.084
N13360 X28.818 Y41.083
N13365 X30.108 Y41.081
N13370 X30.752 Y41.078
N13375 X31.397 Y41.073
N13380 X32.042 Y41.064
N13385 X32.686 Y41.048
N13390 X33.33 Y41.018
N13395 X33.973 Y40.963
N13400 X34.29 Y40.905
N13405 X34.594 Y40.798
N13410 X34.861 Y40.617
N13415 X35.312 Y40.157
N13420 X35.608 Y39.584
N13425 X35.794 Y38.966
N13430 X35.908 Y38.332
N13435 X35.978 Y37.691
N13440 X36.02 Y37.047
N13445 X36.046 Y36.403
N13450 X36.061 Y35.759
N13455 X36.071 Y35.114
N13460 X36.076 Y34.469
N13465 X36.08 Y33.825
N13470 X36.083 Y32.535
N13475 X36.085 Y29.956
N13480 X36.086 Y17.706
N13485 X36.084 Y15.772
N13490 X36.082 Y15.127
N13495 X36.079 Y14.482
N13500 X36.073 Y13.837
N13505 X36.063 Y13.193
N13510 X36.044 Y12.548
N13515 X36.01 Y11.904
N13520 X35.941 Y11.263
N13525 X35.864 Y10.95
N13530 X35.713 Y10.666
N13535 X35.293 Y10.176
N13540 X34.736 Y9.851
N13545 X34.125 Y9.645
N13550 X33.493 Y9.517
N13555 X32.853 Y9.439
N13560 X32.21 Y9.392
N13565 X31.566 Y9.363
N13570 X30.922 Y9.346
N13575 X30.277 Y9.335
N13580 X29.632 Y9.329
N13585 X28.987 Y9.325
N13590 X27.698 Y9.321
N13595 X25.119 Y9.318
N13600 X20.606 Y9.316
N13605 X19.316 Y9.314
N13610 X18.671 Y9.311
N13615 X18.027 Y9.307
N13620 X17.382 Y9.301
N13625 X16.737 Y9.288
N13630 X16.093 Y9.267
N13635 X15.449 Y9.231
N13640 X14.807 Y9.171
N13645 X14.17 Y9.076
N13650 X13.647 Y8.956
N13655 X13.242 Y8.828
N13660 X12.921 Y8.697
N13665 X12.914 Y8.694
N13670 X12.755 Y8.584
N13675 X12.633 Y8.436
N13680 X12.555 Y8.259
N13685 X12.529 Y8.068
N13690 Y7.719
N13695 X12.524 Y7.638
N13700 G3 X12.667 Y7.375 I0.3 J-0.008
N13705 X12.889 Y7.672 I0.098 J0.159
N13710 G1 X12.793 Y7.749
N13715 X12.687 Y7.814
N13720 G2 X12.529 Y8.068 I0.141 J0.265
N13725 G1 Y8.304 F540
N13730 X12.531 Y8.45
N13735 X12.54 Y8.523
N13740 X12.547 Y8.56
N13745 X12.558 Y8.596
N13750 X12.589 Y8.684
N13755 X12.608 Y8.743
N13760 X12.615 Y8.787
N13765 X12.645 Y8.934
N13770 X12.719 Y9.064
N13775 X12.808 Y9.185
N13780 X12.909 Y9.297
N13785 X13.031 Y9.412
N13790 X13.175 Y9.528
N13795 X13.365 Y9.656
N13800 X13.594 Y9.786
N13805 X13.88 Y9.919
N13810 X14.246 Y10.054
N13815 X14.736 Y10.192
N13820 X15.368 Y10.316
N13825 X16.008 Y10.393
N13830 X16.651 Y10.441
N13835 X17.295 Y10.47
N13840 X17.94 Y10.489
N13845 X18.585 Y10.5
N13850 X19.229 Y10.507
N13855 X19.874 Y10.511
N13860 X21.164 Y10.515
N13865 X23.743 Y10.517
N13870 X26.966 Y10.52
N13875 X28.256 Y10.523
N13880 X28.901 Y10.526
N13885 X29.545 Y10.531
N13890 X30.19 Y10.538
N13895 X30.835 Y10.552
N13900 X31.479 Y10.574
N13905 X32.123 Y10.611
N13910 X32.764 Y10.677
N13915 X33.081 Y10.737
N13920 X33.39 Y10.829
N13925 X33.666 Y10.995
N13930 X34.133 Y11.44
N13935 X34.434 Y12.01
N13940 X34.619 Y12.628
N13945 X34.729 Y13.263
N13950 X34.795 Y13.904
N13955 X34.833 Y14.548
N13960 X34.856 Y15.192
N13965 X34.869 Y15.837
N13970 X34.876 Y16.482
N13975 X34.88 Y17.126
N13980 X34.883 Y17.771
N13985 X34.885 Y19.061
N13990 X34.886 Y24.219
N13995 X34.884 Y31.311
N14000 X34.882 Y32.6
N14005 X34.881 Y33.245
N14010 X34.878 Y33.89
N14015 X34.873 Y34.535
N14020 X34.865 Y35.179
N14025 X34.852 Y35.824
N14030 X34.83 Y36.468
N14035 X34.792 Y37.112
N14040 X34.727 Y37.753
N14045 X34.603 Y38.386
N14050 X34.437 Y38.662
N14055 X33.993 Y39.13
N14060 X33.423 Y39.431
N14065 X32.805 Y39.616
N14070 X32.17 Y39.727
N14075 X31.529 Y39.793
N14080 X30.885 Y39.831
N14085 X30.241 Y39.854
N14090 X29.596 Y39.866
N14095 X28.952 Y39.874
N14100 X28.307 Y39.878
N14105 X27.662 Y39.88
N14110 X26.373 Y39.882
N14115 X21.215 Y39.884
N14120 X19.925 Y39.886
N14125 X19.28 Y39.889
N14130 X18.636 Y39.894
N14135 X17.991 Y39.902
N14140 X17.346 Y39.916
N14145 X16.702 Y39.94
N14150 X16.059 Y39.979
N14155 X15.417 Y40.045
N14160 X14.78 Y40.144
N14165 X14.242 Y40.266
N14170 X13.792 Y40.407
N14175 X13.438 Y40.55
N14180 X13.144 Y40.697
N14185 X13.017 Y40.774
N14190 X12.877 Y40.886
N14195 X12.769 Y41.03
N14200 X12.702 Y41.196
N14205 X12.679 Y41.374
N14210 X12.681 Y42.637
N14215 G2 X12.839 Y42.891 I0.3 J-0.01 F600
N14220 X13.364 Y42.612 I0.169 J-0.316
N14225 X12.839 Y41.628 I-0.995 J-0.101
N14230 G3 X12.679 Y41.374 I0.141 J-0.265
N14235 G1 Y40.845
N14240 X12.686 Y40.696
N14245 X12.726 Y40.551
N14250 X12.787 Y40.414
N14255 X12.864 Y40.285
N14260 X12.953 Y40.165
N14265 X13.064 Y40.039
N14270 X13.191 Y39.916
N14275 X13.36 Y39.778
N14280 X13.558 Y39.64
N14285 X13.805 Y39.497
N14290 X14.118 Y39.347
N14295 X14.511 Y39.196
N14300 X15.011 Y39.05
N14305 X15.642 Y38.918
N14310 X16.281 Y38.832
N14315 X16.924 Y38.777
N14320 X17.567 Y38.742
N14325 X18.212 Y38.719
N14330 X18.856 Y38.705
N14335 X19.501 Y38.696
N14340 X20.146 Y38.691
N14345 X20.79 Y38.688
N14350 X22.08 Y38.685
N14355 X26.593 Y38.682
N14360 X27.238 Y38.681
N14365 X27.883 Y38.678
N14370 X28.527 Y38.674
N14375 X29.172 Y38.667
N14380 X29.817 Y38.655
N14385 X30.461 Y38.633
N14390 X31.105 Y38.595
N14395 X31.745 Y38.522
N14400 X32.059 Y38.447
N14405 X32.348 Y38.304
N14410 X32.842 Y37.89
N14415 X33.169 Y37.334
N14420 X33.373 Y36.723
N14425 X33.498 Y36.09
N14430 X33.574 Y35.45
N14435 X33.619 Y34.807
N14440 X33.646 Y34.163
N14445 X33.662 Y33.518
N14450 X33.671 Y32.873
N14455 X33.677 Y32.229
N14460 X33.68 Y31.584
N14465 X33.683 Y30.294
N14470 X33.685 Y27.071
N14475 Y19.978
N14480 X33.684 Y18.689
N14485 X33.683 Y18.044
N14490 X33.68 Y17.399
N14495 X33.675 Y16.755
N14500 X33.667 Y16.11
N14505 X33.654 Y15.465
N14510 X33.629 Y14.821
N14515 X33.584 Y14.178
N14520 X33.499 Y13.539
N14525 X33.404 Y13.231
N14530 X33.233 Y12.958
N14535 X32.786 Y12.493
N14540 X32.216 Y12.191
N14545 X31.599 Y12.003
N14550 X30.965 Y11.889
N14555 X30.324 Y11.82
N14560 X29.68 Y11.779
N14565 X29.036 Y11.754
N14570 X28.391 Y11.74
N14575 X27.747 Y11.731
N14580 X27.102 Y11.726
N14585 X26.457 Y11.723
N14590 X25.168 Y11.719
N14595 X21.299 Y11.715
N14600 X20.654 Y11.713
N14605 X20.01 Y11.71
N14610 X19.365 Y11.705
N14615 X18.72 Y11.698
N14620 X18.076 Y11.685
N14625 X17.431 Y11.666
N14630 X16.787 Y11.634
N14635 X16.144 Y11.584
N14640 X15.504 Y11.505
N14645 X14.87 Y11.393
N14650 X14.305 Y11.253
N14655 X13.839 Y11.096
N14660 X13.45 Y10.93
N14665 X13.131 Y10.762
N14670 X12.999 Y10.679
N14675 X12.864 Y10.567
N14680 X12.761 Y10.425
N14685 X12.696 Y10.261
N14690 X12.674 Y10.087
N14695 Y9.182
N14700 X12.615 Y8.787
N14705 G3 X12.734 Y8.512 I0.298 J-0.034
N14710 X13.341 Y8.741 I0.23 J0.309
N14715 X12.833 Y9.833 I-0.978 J0.209
N14720 G2 X12.674 Y10.087 I0.141 J0.265
N14725 G1 Y10.615 F540
N14730 X12.681 Y10.765
N14735 X12.719 Y10.91
N14740 X12.778 Y11.048
N14745 X12.852 Y11.178
N14750 X12.939 Y11.3
N14755 X13.052 Y11.434
N14760 X13.178 Y11.562
N14765 X13.343 Y11.703
N14770 X13.55 Y11.854
N14775 X13.793 Y12.002
N14780 X14.113 Y12.165
N14785 X14.498 Y12.322
N14790 X14.998 Y12.481
N14795 X15.626 Y12.627
N14800 X16.263 Y12.725
N14805 X16.904 Y12.791
N14810 X17.548 Y12.835
N14815 X18.192 Y12.864
N14820 X18.836 Y12.883
N14825 X19.481 Y12.896
N14830 X20.126 Y12.903
N14835 X20.77 Y12.909
N14840 X21.415 Y12.912
N14845 X22.704 Y12.916
N14850 X25.283 Y12.92
N14855 X25.928 Y12.922
N14860 X26.573 Y12.925
N14865 X27.218 Y12.929
N14870 X27.862 Y12.937
N14875 X28.507 Y12.95
N14880 X29.151 Y12.972
N14885 X29.795 Y13.01
N14890 X30.436 Y13.077
N14895 X30.752 Y13.143
N14900 X31.055 Y13.251
N14905 X31.32 Y13.435
N14910 X31.765 Y13.902
N14915 X32.051 Y14.48
N14920 X32.227 Y15.1
N14925 X32.333 Y15.736
N14930 X32.397 Y16.378
N14935 X32.434 Y17.021
N14940 X32.456 Y17.666
N14945 X32.468 Y18.31
N14950 X32.476 Y18.955
N14955 X32.48 Y19.6
N14960 X32.482 Y20.244
N14965 X32.485 Y21.534
N14970 Y26.047
N14975 X32.484 Y29.271
N14980 X32.482 Y30.56
N14985 X32.48 Y31.205
N14990 X32.477 Y31.85
N14995 X32.471 Y32.495
N15000 X32.462 Y33.139
N15005 X32.446 Y33.784
N15010 X32.419 Y34.428
N15015 X32.372 Y35.071
N15020 X32.282 Y35.71
N15025 X32.184 Y36.017
N15030 X32.008 Y36.286
N15035 X31.551 Y36.742
N15040 X30.977 Y37.036
N15045 X30.359 Y37.217
N15050 X29.723 Y37.326
N15055 X29.082 Y37.391
N15060 X28.438 Y37.43
N15065 X27.794 Y37.452
N15070 X27.149 Y37.465
N15075 X26.504 Y37.473
N15080 X25.86 Y37.477
N15085 X25.215 Y37.48
N15090 X24.57 Y37.481
N15095 X21.991 Y37.485
N15100 X21.347 Y37.487
N15105 X20.702 Y37.49
N15110 X20.057 Y37.494
N15115 X19.412 Y37.501
N15120 X18.768 Y37.513
N15125 X18.123 Y37.531
N15130 X17.479 Y37.56
N15135 X16.836 Y37.602
N15140 X16.194 Y37.666
N15145 X15.556 Y37.76
N15150 X14.925 Y37.892
N15155 X14.37 Y38.053
N15160 X13.9 Y38.231
N15165 X13.522 Y38.411
N15170 X13.197 Y38.599
N15175 X12.979 Y38.749
N15180 X12.817 Y38.904
N15185 X12.713 Y39.104
N15190 X12.677 Y39.326
N15195 X12.679 Y40.845
N15200 G2 X12.838 Y41.099 I0.3 J-0.011 F600
N15205 X13.209 Y41.002 I0.133 J-0.25
N15210 X12.836 Y39.58 I-0.842 J-0.539
N15215 G3 X12.677 Y39.326 I0.141 J-0.265
N15220 G1 X12.676 Y38.797
N15225 X12.683 Y38.648
N15230 X12.716 Y38.501
N15235 X12.769 Y38.361
N15240 X12.837 Y38.227
N15245 X12.918 Y38.101
N15250 X13.023 Y37.964
N15255 X13.15 Y37.822
N15260 X13.304 Y37.677
N15265 X13.51 Y37.511
N15270 X13.736 Y37.358
N15275 X14.043 Y37.184
N15280 X14.396 Y37.019
N15285 X14.862 Y36.846
N15290 X15.461 Y36.677
N15295 X16.094 Y36.552
N15300 X16.733 Y36.465
N15305 X17.375 Y36.405
N15310 X18.018 Y36.364
N15315 X18.662 Y36.336
N15320 X19.307 Y36.317
N15325 X19.951 Y36.305
N15330 X20.596 Y36.297
N15335 X21.241 Y36.292
N15340 X21.886 Y36.288
N15345 X23.175 Y36.284
N15350 X25.109 Y36.279
N15355 X25.754 Y36.276
N15360 X26.399 Y36.271
N15365 X27.043 Y36.261
N15370 X27.688 Y36.244
N15375 X28.332 Y36.215
N15380 X28.975 Y36.162
N15385 X29.612 Y36.066
N15390 X29.908 Y35.937
N15395 X30.163 Y35.74
N15400 X30.591 Y35.258
N15405 X30.865 Y34.674
N15410 X31.034 Y34.052
N15415 X31.136 Y33.416
N15420 X31.197 Y32.774
N15425 X31.233 Y32.13
N15430 X31.255 Y31.486
N15435 X31.267 Y30.841
N15440 X31.275 Y30.196
N15445 X31.279 Y29.551
N15450 X31.282 Y28.907
N15455 X31.284 Y27.617
N15460 X31.285 Y23.749
N15465 X31.284 Y21.17
N15470 X31.282 Y20.525
N15475 X31.28 Y19.88
N15480 X31.275 Y19.235
N15485 X31.267 Y18.591
N15490 X31.254 Y17.946
N15495 X31.23 Y17.302
N15500 X31.187 Y16.659
N15505 X31.107 Y16.019
N15510 X31.023 Y15.708
N15515 X30.873 Y15.422
N15520 X30.451 Y14.935
N15525 X29.891 Y14.616
N15530 X29.277 Y14.417
N15535 X28.644 Y14.296
N15540 X28.003 Y14.223
N15545 X27.36 Y14.18
N15550 X26.716 Y14.155
N15555 X26.071 Y14.139
N15560 X25.427 Y14.13
N15565 X24.782 Y14.125
N15570 X24.137 Y14.121
N15575 X21.558 Y14.112
N15580 X20.913 Y14.108
N15585 X20.269 Y14.102
N15590 X19.624 Y14.094
N15595 X18.979 Y14.081
N15600 X18.335 Y14.06
N15605 X17.691 Y14.03
N15610 X17.048 Y13.985
N15615 X16.406 Y13.919
N15620 X15.769 Y13.825
N15625 X15.137 Y13.695
N15630 X14.531 Y13.527
N15635 X14.051 Y13.352
N15640 X13.632 Y13.159
N15645 X13.288 Y12.966
N15650 X12.998 Y12.772
N15655 X12.937 Y12.723
N15660 X12.795 Y12.57
N15665 X12.704 Y12.382
N15670 X12.673 Y12.175
N15675 X12.674 Y10.615
N15680 G3 X12.833 Y10.361 I0.3 J0.011
N15685 X13.157 Y10.432 I0.12 J0.226
N15690 X12.832 Y11.921 I-0.795 J0.606
N15695 G2 X12.673 Y12.175 I0.141 J0.265
N15700 G1 Y12.693 F540
N15705 X12.68 Y12.842
N15710 X12.71 Y12.989
N15715 X12.759 Y13.131
N15720 X12.825 Y13.266
N15725 X12.904 Y13.394
N15730 X12.998 Y13.522
N15735 X13.124 Y13.669
N15740 X13.276 Y13.819
N15745 X13.461 Y13.974
N15750 X13.706 Y14.149
N15755 X13.983 Y14.314
N15760 X14.353 Y14.497
N15765 X14.807 Y14.677
N15770 X15.386 Y14.854
N15775 X16.016 Y14.993
N15780 X16.653 Y15.092
N15785 X17.294 Y15.162
N15790 X17.937 Y15.211
N15795 X18.581 Y15.246
N15800 X19.225 Y15.269
N15805 X19.87 Y15.285
N15810 X20.514 Y15.296
N15815 X21.159 Y15.304
N15820 X21.804 Y15.309
N15825 X24.383 Y15.323
N15830 X25.027 Y15.329
N15835 X25.672 Y15.338
N15840 X26.317 Y15.353
N15845 X26.961 Y15.379
N15850 X27.604 Y15.423
N15855 X28.243 Y15.507
N15860 X28.553 Y15.597
N15865 X28.831 Y15.761
N15870 X29.304 Y16.199
N15875 X29.611 Y16.765
N15880 X29.802 Y17.381
N15885 X29.918 Y18.015
N15890 X29.987 Y18.656
N15895 X30.028 Y19.3
N15900 X30.052 Y19.944
N15905 X30.066 Y20.589
N15910 X30.074 Y21.234
N15915 X30.079 Y21.878
N15920 X30.082 Y22.523
N15925 X30.084 Y23.812
N15930 X30.085 Y26.391
N15935 X30.082 Y28.326
N15940 X30.08 Y28.97
N15945 X30.076 Y29.615
N15950 X30.07 Y30.26
N15955 X30.059 Y30.905
N15960 X30.041 Y31.549
N15965 X30.009 Y32.193
N15970 X29.953 Y32.835
N15975 X29.846 Y33.471
N15980 X29.703 Y33.76
N15985 X29.289 Y34.254
N15990 X28.731 Y34.579
N15995 X28.119 Y34.781
N16000 X27.486 Y34.904
N16005 X26.846 Y34.978
N16010 X26.203 Y35.021
N16015 X25.558 Y35.047
N16020 X24.914 Y35.063
N16025 X24.269 Y35.072
N16030 X23.624 Y35.078
N16035 X21.69 Y35.09
N16040 X21.045 Y35.095
N16045 X20.401 Y35.102
N16050 X19.756 Y35.114
N16055 X19.112 Y35.13
N16060 X18.467 Y35.154
N16065 X17.823 Y35.19
N16070 X17.181 Y35.24
N16075 X16.54 Y35.311
N16080 X15.903 Y35.409
N16085 X15.272 Y35.542
N16090 X14.672 Y35.712
N16095 X14.146 Y35.907
N16100 X13.711 Y36.11
N16105 X13.353 Y36.314
N16110 X13.042 Y36.526
N16115 X12.935 Y36.611
N16120 X12.794 Y36.764
N16125 X12.704 Y36.952
N16130 X12.674 Y37.158
N16135 X12.676 Y38.797
N16140 G2 X12.835 Y39.051 I0.3 J-0.011 F600
N16145 G1 X12.878 Y39.068
N16150 X12.924 Y39.073
N16155 X12.97 Y39.067
N16160 X13.012 Y39.05
N16165 X13.05 Y39.023
N16170 G2 X12.833 Y37.412 I-0.686 J-0.728
N16175 G3 X12.674 Y37.158 I0.141 J-0.265
N16180 G1 X12.673 Y36.603
N16185 X12.68 Y36.453
N16190 X12.713 Y36.307
N16195 X12.765 Y36.166
N16200 X12.832 Y36.032
N16205 X12.916 Y35.895
N16210 X13.015 Y35.761
N16215 X13.145 Y35.611
N16220 X13.314 Y35.445
N16225 X13.504 Y35.286
N16230 X13.763 Y35.103
N16235 X14.055 Y34.93
N16240 X14.446 Y34.739
N16245 X14.917 Y34.553
N16250 X15.534 Y34.367
N16255 X16.164 Y34.23
N16260 X16.801 Y34.13
N16265 X17.441 Y34.057
N16270 X18.084 Y34.004
N16275 X18.728 Y33.966
N16280 X19.372 Y33.94
N16285 X20.016 Y33.921
N16290 X20.661 Y33.908
N16295 X21.305 Y33.899
N16300 X21.95 Y33.892
N16305 X23.24 Y33.881
N16310 X23.884 Y33.874
N16315 X24.529 Y33.864
N16320 X25.174 Y33.849
N16325 X25.818 Y33.822
N16330 X26.461 Y33.777
N16335 X27.1 Y33.69
N16340 X27.407 Y33.593
N16345 X27.677 Y33.416
N16350 X28.134 Y32.961
N16355 X28.429 Y32.388
N16360 X28.612 Y31.77
N16365 X28.723 Y31.135
N16370 X28.79 Y30.493
N16375 X28.829 Y29.85
N16380 X28.852 Y29.206
N16385 X28.866 Y28.561
N16390 X28.874 Y27.916
N16395 X28.879 Y27.272
N16400 X28.881 Y26.627
N16405 X28.884 Y25.337
N16410 Y24.048
N16415 X28.881 Y22.758
N16420 X28.878 Y22.114
N16425 X28.873 Y21.469
N16430 X28.864 Y20.824
N16435 X28.849 Y20.18
N16440 X28.821 Y19.535
N16445 X28.771 Y18.893
N16450 X28.678 Y18.255
N16455 X28.569 Y17.951
N16460 X28.384 Y17.687
N16465 X27.916 Y17.243
N16470 X27.338 Y16.957
N16475 X26.718 Y16.78
N16480 X26.083 Y16.673
N16485 X25.441 Y16.609
N16490 X24.797 Y16.571
N16495 X24.153 Y16.547
N16500 X23.509 Y16.533
N16505 X22.864 Y16.523
N16510 X21.574 Y16.508
N16515 X20.93 Y16.5
N16520 X20.285 Y16.489
N16525 X19.641 Y16.474
N16530 X18.996 Y16.453
N16535 X18.352 Y16.423
N16540 X17.709 Y16.38
N16545 X17.067 Y16.32
N16550 X16.427 Y16.238
N16555 X15.792 Y16.128
N16560 X15.164 Y15.981
N16565 X14.567 Y15.796
N16570 X14.054 Y15.591
N16575 X13.63 Y15.38
N16580 X13.279 Y15.169
N16585 X12.976 Y14.952
N16590 X12.92 Y14.905
N16595 X12.786 Y14.753
N16600 X12.701 Y14.57
N16605 X12.672 Y14.37
N16610 X12.673 Y12.693
N16615 G3 X12.983 Y12.403 I0.3 J0.011
N16620 X13.396 Y12.87 I-0.015 J0.43
N16625 X12.767 Y14.161 I-1.993 J-0.173
N16630 G1 X12.728 Y14.205
N16635 X12.699 Y14.256
N16640 X12.68 Y14.311
N16645 X12.672 Y14.37
N16650 Y14.931 F540
N16655 X12.679 Y15.081
N16660 X12.712 Y15.227
N16665 X12.764 Y15.368
N16670 X12.831 Y15.502
N16675 X12.912 Y15.634
N16680 X13.012 Y15.772
N16685 X13.148 Y15.93
N16690 X13.308 Y16.088
N16695 X13.508 Y16.257
N16700 X13.766 Y16.441
N16705 X14.068 Y16.622
N16710 X14.457 Y16.814
N16715 X14.952 Y17.011
N16720 X15.568 Y17.201
N16725 X16.197 Y17.341
N16730 X16.833 Y17.446
N16735 X17.473 Y17.523
N16740 X18.116 Y17.58
N16745 X18.759 Y17.621
N16750 X19.403 Y17.65
N16755 X20.048 Y17.672
N16760 X20.692 Y17.688
N16765 X21.337 Y17.7
N16770 X22.626 Y17.72
N16775 X23.271 Y17.731
N16780 X23.915 Y17.748
N16785 X24.56 Y17.775
N16790 X25.203 Y17.822
N16795 X25.842 Y17.907
N16800 X26.151 Y17.996
N16805 X26.43 Y18.159
N16810 X26.903 Y18.597
N16815 X27.211 Y19.163
N16820 X27.402 Y19.779
N16825 X27.517 Y20.413
N16830 X27.587 Y21.054
N16835 X27.627 Y21.698
N16840 X27.651 Y22.342
N16845 X27.665 Y22.987
N16850 X27.674 Y23.632
N16855 X27.678 Y24.276
N16860 X27.68 Y24.921
N16865 X27.681 Y25.566
N16870 X27.68 Y26.21
N16875 X27.678 Y26.855
N16880 X27.674 Y27.5
N16885 X27.667 Y28.145
N16890 X27.653 Y28.789
N16895 X27.631 Y29.434
N16900 X27.591 Y30.077
N16905 X27.518 Y30.718
N16910 X27.445 Y31.032
N16915 X27.313 Y31.326
N16920 X27.113 Y31.579
N16925 X26.627 Y32.003
N16930 X26.042 Y32.274
N16935 X25.419 Y32.44
N16940 X24.782 Y32.541
N16945 X24.141 Y32.601
N16950 X23.497 Y32.638
N16955 X22.853 Y32.661
N16960 X22.208 Y32.677
N16965 X20.919 Y32.703
N16970 X20.274 Y32.718
N16975 X19.63 Y32.737
N16980 X18.985 Y32.764
N16985 X18.342 Y32.8
N16990 X17.699 Y32.849
N16995 X17.058 Y32.917
N17000 X16.419 Y33.007
N17005 X15.786 Y33.127
N17010 X15.16 Y33.282
N17015 X14.552 Y33.479
N17020 X14.037 Y33.692
N17025 X13.622 Y33.904
N17030 X13.263 Y34.127
N17035 X12.96 Y34.349
N17040 X12.912 Y34.391
N17045 X12.782 Y34.542
N17050 X12.699 Y34.723
N17055 X12.671 Y34.921
N17060 X12.673 Y36.603
N17065 G2 X13.193 Y36.796 I0.3 J-0.011 F600
N17070 X13.363 Y36.188 I-0.504 J-0.469
N17075 X12.766 Y35.13 I-1.958 J0.406
N17080 G1 X12.727 Y35.085
N17085 X12.698 Y35.035
N17090 X12.679 Y34.979
N17095 X12.671 Y34.921
N17100 X12.67 Y34.343
N17105 X12.677 Y34.193
N17110 X12.712 Y34.047
N17115 X12.765 Y33.907
N17120 X12.832 Y33.773
N17125 X12.912 Y33.641
N17130 X13.016 Y33.5
N17135 X13.156 Y33.336
N17140 X13.316 Y33.178
N17145 X13.523 Y33.003
N17150 X13.785 Y32.816
N17155 X14.102 Y32.626
N17160 X14.5 Y32.429
N17165 X15.014 Y32.224
N17170 X15.63 Y32.034
N17175 X16.259 Y31.891
N17180 X16.894 Y31.783
N17185 X17.534 Y31.701
N17190 X18.176 Y31.64
N17195 X18.819 Y31.594
N17200 X19.463 Y31.561
N17205 X20.107 Y31.535
N17210 X20.751 Y31.515
N17215 X22.04 Y31.482
N17220 X22.685 Y31.461
N17225 X23.329 Y31.432
N17230 X23.972 Y31.384
N17235 X24.611 Y31.3
N17240 X24.921 Y31.212
N17245 X25.203 Y31.056
N17250 X25.685 Y30.628
N17255 X25.999 Y30.064
N17260 X26.194 Y29.45
N17265 X26.312 Y28.816
N17270 X26.383 Y28.175
N17275 X26.425 Y27.532
N17280 X26.449 Y26.887
N17285 X26.463 Y26.243
N17290 X26.47 Y25.598
N17295 X26.473 Y24.953
N17300 X26.472 Y24.309
N17305 X26.468 Y23.664
N17310 X26.458 Y23.019
N17315 X26.439 Y22.375
N17320 X26.406 Y21.731
N17325 X26.346 Y21.089
N17330 X26.289 Y20.772
N17335 X26.202 Y20.461
N17340 X26.042 Y20.182
N17345 X25.607 Y19.706
N17350 X25.042 Y19.395
N17355 X24.427 Y19.201
N17360 X23.793 Y19.082
N17365 X23.153 Y19.01
N17370 X22.51 Y18.964
N17375 X21.866 Y18.934
N17380 X21.221 Y18.91
N17385 X20.577 Y18.89
N17390 X19.932 Y18.867
N17395 X19.288 Y18.839
N17400 X18.645 Y18.804
N17405 X18.002 Y18.757
N17410 X17.36 Y18.694
N17415 X16.72 Y18.612
N17420 X16.085 Y18.503
N17425 X15.456 Y18.359
N17430 X14.838 Y18.177
N17435 X14.295 Y17.974
N17440 X13.824 Y17.753
N17445 X13.424 Y17.524
N17450 X13.1 Y17.303
N17455 X12.931 Y17.166
N17460 X12.79 Y17.013
N17465 X12.701 Y16.826
N17470 X12.671 Y16.621
N17475 X12.672 Y14.931
N17480 G3 X12.982 Y14.642 I0.3 J0.011
N17485 X13.396 Y15.107 I-0.015 J0.431
N17490 X12.766 Y16.412 I-1.994 J-0.158
N17495 G1 X12.727 Y16.456
N17500 X12.698 Y16.507
N17505 X12.678 Y16.563
N17510 X12.671 Y16.621
N17515 X12.67 Y17.162 F540
N17520 X12.678 Y17.311
N17525 X12.705 Y17.459
N17530 X12.753 Y17.601
N17535 X12.816 Y17.737
N17540 X12.892 Y17.869
N17545 X12.996 Y18.02
N17550 X13.116 Y18.166
N17555 X13.274 Y18.331
N17560 X13.475 Y18.509
N17565 X13.713 Y18.688
N17570 X14.027 Y18.887
N17575 X14.407 Y19.087
N17580 X14.881 Y19.289
N17585 X15.492 Y19.494
N17590 X16.118 Y19.65
N17595 X16.752 Y19.769
N17600 X17.39 Y19.86
N17605 X18.031 Y19.929
N17610 X18.674 Y19.982
N17615 X19.317 Y20.023
N17620 X19.961 Y20.055
N17625 X21.249 Y20.11
N17630 X21.893 Y20.142
N17635 X22.537 Y20.185
N17640 X23.178 Y20.254
N17645 X23.494 Y20.318
N17650 X23.801 Y20.416
N17655 X24.072 Y20.59
N17660 X24.531 Y21.043
N17665 X24.828 Y21.615
N17670 X25.012 Y22.233
N17675 X25.122 Y22.868
N17680 X25.188 Y23.51
N17685 X25.225 Y24.153
N17690 X25.245 Y24.798
N17695 X25.252 Y25.442
N17700 X25.25 Y26.087
N17705 X25.237 Y26.732
N17710 X25.209 Y27.376
N17715 X25.155 Y28.018
N17720 X25.054 Y28.655
N17725 X24.914 Y28.946
N17730 X24.71 Y29.196
N17735 X24.22 Y29.615
N17740 X23.634 Y29.884
N17745 X23.012 Y30.052
N17750 X22.376 Y30.157
N17755 X21.734 Y30.224
N17760 X21.091 Y30.27
N17765 X20.448 Y30.307
N17770 X19.804 Y30.341
N17775 X19.16 Y30.378
N17780 X18.517 Y30.423
N17785 X17.875 Y30.48
N17790 X17.234 Y30.553
N17795 X16.596 Y30.647
N17800 X15.963 Y30.769
N17805 X15.337 Y30.923
N17810 X14.722 Y31.117
N17815 X14.176 Y31.338
N17820 X13.71 Y31.571
N17825 X13.339 Y31.796
N17830 X13.018 Y32.028
N17835 X12.914 Y32.116
N17840 X12.781 Y32.268
N17845 X12.697 Y32.451
N17850 X12.668 Y32.65
N17855 X12.67 Y34.343
N17860 G2 X12.981 Y34.632 I0.3 J-0.011 F600
N17865 X13.395 Y34.167 I-0.016 J-0.431
N17870 X12.763 Y32.859 I-1.994 J0.156
N17875 G1 X12.724 Y32.815
N17880 X12.695 Y32.764
N17885 X12.676 Y32.708
N17890 X12.668 Y32.65
N17895 X12.667 Y32.068
N17900 X12.674 Y31.918
N17905 X12.708 Y31.772
N17910 X12.76 Y31.631
N17915 X12.826 Y31.497
N17920 X12.913 Y31.352
N17925 X13.016 Y31.211
N17930 X13.15 Y31.052
N17935 X13.328 Y30.874
N17940 X13.528 Y30.703
N17945 X13.804 Y30.504
N17950 X14.118 Y30.314
N17955 X14.538 Y30.104
N17960 X15.07 Y29.889
N17965 X15.685 Y29.696
N17970 X16.313 Y29.547
N17975 X16.947 Y29.432
N17980 X17.586 Y29.342
N17985 X18.227 Y29.272
N17990 X18.869 Y29.216
N17995 X19.512 Y29.17
N18000 X20.155 Y29.128
N18005 X20.799 Y29.085
N18010 X21.441 Y29.029
N18015 X22.08 Y28.945
N18020 X22.394 Y28.869
N18025 X22.691 Y28.745
N18030 X22.948 Y28.551
N18035 X23.381 Y28.073
N18040 X23.657 Y27.49
N18045 X23.825 Y26.868
N18050 X23.923 Y26.23
N18055 X23.975 Y25.588
N18060 X23.994 Y24.943
N18065 X23.987 Y24.299
N18070 X23.947 Y23.655
N18075 X23.859 Y23.016
N18080 X23.741 Y22.716
N18085 X23.552 Y22.456
N18090 X23.081 Y22.015
N18095 X22.503 Y21.729
N18100 X21.885 Y21.546
N18105 X21.251 Y21.43
N18110 X20.611 Y21.35
N18115 X19.969 Y21.291
N18120 X18.684 Y21.186
N18125 X18.042 Y21.125
N18130 X17.401 Y21.051
N18135 X16.763 Y20.958
N18140 X16.129 Y20.84
N18145 X15.503 Y20.689
N18150 X14.886 Y20.501
N18155 X14.304 Y20.278
N18160 X13.838 Y20.055
N18165 X13.434 Y19.82
N18170 X13.097 Y19.586
N18175 X12.925 Y19.445
N18180 X12.787 Y19.293
N18185 X12.699 Y19.107
N18190 X12.669 Y18.904
N18195 X12.67 Y17.162
N18200 G3 X13.19 Y16.968 I0.3 J0.011
N18205 X13.371 Y17.581 I-0.524 J0.488
N18210 X12.765 Y18.695 I-1.969 J-0.35
N18215 G1 X12.726 Y18.739
N18220 X12.696 Y18.79
N18225 X12.677 Y18.845
N18230 X12.669 Y18.904
N18235 Y19.466 F540
N18240 X12.676 Y19.616
N18245 X12.707 Y19.763
N18250 X12.756 Y19.904
N18255 X12.819 Y20.04
N18260 X12.898 Y20.175
N18265 X13.005 Y20.329
N18270 X13.128 Y20.478
N18275 X13.292 Y20.648
N18280 X13.502 Y20.833
N18285 X13.751 Y21.019
N18290 X14.079 Y21.224
N18295 X14.486 Y21.436
N18300 X14.99 Y21.649
N18305 X15.602 Y21.852
N18310 X16.227 Y22.01
N18315 X16.86 Y22.133
N18320 X17.497 Y22.231
N18325 X18.137 Y22.311
N18330 X18.778 Y22.378
N18335 X19.42 Y22.441
N18340 X20.061 Y22.508
N18345 X20.701 Y22.592
N18350 X21.331 Y22.726
N18355 X21.609 Y22.89
N18360 X22.078 Y23.332
N18365 X22.376 Y23.904
N18370 X22.549 Y24.525
N18375 X22.629 Y25.165
N18380 X22.631 Y25.81
N18385 X22.585 Y26.129
N18390 X22.493 Y26.438
N18395 X22.32 Y26.709
N18400 X21.87 Y27.172
N18405 X21.303 Y27.478
N18410 X20.69 Y27.677
N18415 X20.059 Y27.811
N18420 X19.422 Y27.909
N18425 X18.782 Y27.99
N18430 X18.142 Y28.068
N18435 X17.503 Y28.152
N18440 X16.866 Y28.25
N18445 X16.232 Y28.37
N18450 X15.605 Y28.521
N18455 X14.988 Y28.707
N18460 X14.386 Y28.933
N18465 X13.897 Y29.163
N18470 X13.479 Y29.402
N18475 X13.131 Y29.64
N18480 X12.924 Y29.808
N18485 X12.784 Y29.96
N18490 X12.695 Y30.148
N18495 X12.665 Y30.353
N18500 X12.667 Y32.068
N18505 G2 X13.187 Y32.262 I0.3 J-0.011 F600
N18510 X13.362 Y31.65 I-0.516 J-0.48
N18515 X12.76 Y30.561 I-1.964 J0.376
N18520 G1 X12.721 Y30.517
N18525 X12.692 Y30.467
N18530 X12.673 Y30.411
N18535 X12.665 Y30.353
N18540 X12.664 Y29.808
N18545 X12.671 Y29.658
N18550 X12.698 Y29.511
N18555 X12.745 Y29.368
N18560 X12.807 Y29.231
N18565 X12.88 Y29.101
N18570 X12.981 Y28.951
N18575 X13.108 Y28.792
N18580 X13.26 Y28.63
N18585 X13.468 Y28.442
N18590 X13.709 Y28.256
N18595 X14.036 Y28.044
N18600 X14.418 Y27.837
N18605 X14.926 Y27.613
N18610 X15.535 Y27.401
N18615 X16.158 Y27.234
N18620 X16.789 Y27.1
N18625 X17.424 Y26.989
N18630 X18.061 Y26.892
N18635 X18.699 Y26.799
N18640 X19.336 Y26.697
N18645 X19.966 Y26.561
N18650 X20.252 Y26.412
N18655 X20.487 Y26.192
N18660 X20.67 Y25.926
N18665 X20.797 Y25.629
N18670 X20.821 Y25.47
N18675 X20.809 Y25.309
N18680 X20.712 Y25.002
N18685 X20.527 Y24.738
N18690 X20.063 Y24.29
N18695 X19.493 Y23.989
N18700 X18.882 Y23.784
N18705 X18.255 Y23.632
N18710 X17.623 Y23.504
N18715 X16.99 Y23.381
N18720 X16.36 Y23.248
N18725 X15.734 Y23.093
N18730 X15.116 Y22.909
N18735 X14.511 Y22.686
N18740 X13.976 Y22.442
N18745 X13.553 Y22.206
N18750 X13.189 Y21.964
N18755 X12.934 Y21.761
N18760 X12.791 Y21.608
N18765 X12.699 Y21.419
N18770 X12.668 Y21.212
N18775 X12.669 Y19.466
N18780 G3 X12.98 Y19.177 I0.3 J0.011
N18785 X13.398 Y19.631 I-0.015 J0.434
N18790 X12.763 Y21.003 I-1.998 J-0.091
N18795 G1 X12.725 Y21.047
N18800 X12.695 Y21.098
N18805 X12.676 Y21.154
N18810 X12.668 Y21.212
N18815 Y21.762 F540
N18820 X12.675 Y21.912
N18825 X12.703 Y22.059
N18830 X12.751 Y22.202
N18835 X12.813 Y22.338
N18840 X12.886 Y22.469
N18845 X12.984 Y22.614
N18850 X13.118 Y22.782
N18855 X13.272 Y22.946
N18860 X13.476 Y23.131
N18865 X13.733 Y23.329
N18870 X14.056 Y23.539
N18875 X14.467 Y23.76
N18880 X15.019 Y24.004
N18885 X15.628 Y24.216
N18890 X15.783 Y24.259
N18895 X16.405 Y24.428
N18900 X17.268 Y24.635
N18905 X17.346 Y24.654
N18910 G2 X17.701 Y24.422 I0.062 J-0.294 F600
N18915 X15.904 Y23.252 I-1.125 J-0.237
N18920 X15.747 Y24.032 I0.341 J0.475
N18925 G1 X15.773 Y24.085
N18930 X15.788 Y24.142
N18935 X15.791 Y24.201
N18940 X15.783 Y24.259
N18945 X15.743 Y24.403
N18950 X15.626 Y24.497
N18955 X15.494 Y24.568
N18960 X15.353 Y24.621
N18965 X15.208 Y24.658
N18970 X15.06 Y24.682
N18975 X14.911 Y24.694
N18980 X14.761 Y24.696
N18985 X14.611 Y24.689
N18990 X14.462 Y24.672
N18995 X14.314 Y24.647
N19000 X14.167 Y24.615
N19005 X14.022 Y24.576
N19010 X13.88 Y24.531
N19015 X13.739 Y24.479
N19020 X13.6 Y24.421
N19025 X13.464 Y24.357
N19030 X13.331 Y24.288
N19035 X13.201 Y24.214
N19040 X13.074 Y24.134
N19045 X12.947 Y24.047
N19050 X12.797 Y23.892
N19055 X12.7 Y23.699
N19060 X12.667 Y23.486
N19065 X12.668 Y21.762
N19070 G3 X12.978 Y21.473 I0.3 J0.011
N19075 X13.396 Y21.932 I-0.015 J0.433
N19080 X12.762 Y23.277 I-1.997 J-0.118
N19085 G1 X12.723 Y23.321
N19090 X12.694 Y23.372
N19095 X12.675 Y23.428
N19100 X12.667 Y23.486
N19105 Y24.037 F540
N19110 X12.674 Y24.187
N19115 X12.713 Y24.332
N19120 X12.772 Y24.47
N19125 X12.846 Y24.6
N19130 X12.933 Y24.722
N19135 X13.032 Y24.836
N19140 X13.147 Y24.951
N19145 X13.215 Y25.008
N19150 X13.286 Y25.064
N19155 X13.417 Y25.158
N19160 X13.523 Y25.279
N19165 X13.599 Y25.421
N19170 X13.64 Y25.577
N19175 X13.644 Y25.738
N19180 X13.578 Y26.054
N19185 X13.272 Y26.621
N19190 X12.886 Y27.138
N19195 X12.815 Y27.228
N19200 X12.733 Y27.36
N19205 X12.682 Y27.507
N19210 X12.665 Y27.661
N19215 X12.671 Y27.713 F600
N19220 X12.686 Y27.763
N19225 X12.71 Y27.809
N19230 X12.745 Y27.866 Z8.028
N19235 X12.779 Y27.92 Z8.05
N19240 X12.809 Y27.968 Z8.085
N19245 X12.834 Y28.008 Z8.133
N19250 X12.853 Y28.039 Z8.19
N19255 X12.865 Y28.058 Z8.253
N19260 X12.869 Y28.064 Z8.32
N19265 G0 Z13
N19270 X13.042 Y23.026
N19275 Z8.62
N19280 G1 Z8.32 F600
N19285 X13.038 Y23.032 Z8.253
N19290 X13.027 Y23.051 Z8.19
N19295 X13.008 Y23.082 Z8.133
N19300 X12.984 Y23.123 Z8.085
N19305 X12.955 Y23.172 Z8.05
N19310 X12.922 Y23.226 Z8.028
N19315 X12.888 Y23.284 Z8.02
N19320 G2 X12.667 Y24.037 I1.36 J0.81
N19325 G1 X12.664 Y29.808 F540
N19330 X12.676 Y29.848 Z8.026 F600
N19335 X12.687 Y29.885 Z8.043
N19340 X12.697 Y29.916 Z8.07
N19345 X12.704 Y29.94 Z8.105
N19350 X12.708 Y29.954 Z8.144
N19355 X12.71 Y29.956 Z8.177
N19360 G0 Z13
N19365 X-0.297 Y-3.438
N19370 Z7.63
N19375 G1 Z7.33 F600
N19380 X-0.295 Y-3.431 Z7.263
N19385 X-0.29 Y-3.409 Z7.2
N19390 X-0.281 Y-3.375 Z7.143
N19395 X-0.269 Y-3.328 Z7.095
N19400 X-0.255 Y-3.273 Z7.06
N19405 X-0.239 Y-3.212 Z7.038
N19410 X-0.222 Y-3.147 Z7.03
N19415 G3 X0.012 Y-1.514 I-7.419 J1.9
N19420 G1 Y-1.364
N19425 X-0.115 Y-0.732
N19430 X-0.188 Y-0.091
N19435 X-0.23 Y0.552
N19440 X-0.253 Y1.196
N19445 X-0.267 Y1.841
N19450 X-0.274 Y2.486
N19455 X-0.278 Y3.13
N19460 X-0.281 Y3.775
N19465 X-0.283 Y5.709
N19470 X-0.287 Y48.908
N19475 Y49.069
N19480 X-0.251 Y49.226
N19485 X-0.107 Y49.514
N19490 X0.335 Y49.983
N19495 X0.911 Y50.274
N19500 X1.532 Y50.446
N19505 X2.169 Y50.547
N19510 X2.811 Y50.604
N19515 X3.455 Y50.636
N19520 X4.1 Y50.655
N19525 X4.744 Y50.665
N19530 X5.389 Y50.671
N19535 X6.034 Y50.675
N19540 X7.323 Y50.678
N19545 X11.192 Y50.68
N19550 X44.074 Y50.688
N19555 X44.381 Y50.59
N19560 X44.64 Y50.398
N19565 X45.065 Y49.913
N19570 X45.325 Y49.323
N19575 X45.479 Y48.697
N19580 X45.568 Y48.058
N19585 X45.618 Y47.416
N19590 X45.647 Y46.772
N19595 X45.663 Y46.127
N19600 X45.672 Y45.482
N19605 X45.677 Y44.838
N19610 X45.68 Y44.193
N19615 X45.683 Y42.903
N19620 X45.685 Y38.39
N19625 X45.687 Y1.317
N19630 X45.584 Y1.012
N19635 X45.389 Y0.755
N19640 X44.901 Y0.334
N19645 X44.31 Y0.076
N19650 X43.683 Y-0.075
N19655 X43.044 Y-0.163
N19660 X42.401 Y-0.213
N19665 X41.757 Y-0.242
N19670 X41.113 Y-0.258
N19675 X40.468 Y-0.267
N19680 X39.823 Y-0.272
N19685 X39.179 Y-0.275
N19690 X37.889 Y-0.278
N19695 X33.376 Y-0.28
N19700 X2.75 Y-0.287
N19705 X2.589 Y-0.277
N19710 X2.281 Y-0.184
N19715 X2.018 Y0.003
N19720 X1.582 Y0.478
N19725 X1.309 Y1.062
N19730 X1.145 Y1.686
N19735 X1.049 Y2.323
N19740 X0.992 Y2.966
N19745 X0.96 Y3.61
N19750 X0.941 Y4.254
N19755 X0.93 Y4.899
N19760 X0.924 Y5.543
N19765 X0.921 Y6.188
N19770 X0.917 Y7.478
N19775 X0.916 Y10.701
N19780 Y11.346
N19785 X0.913 Y47.452
N19790 X0.962 Y47.771
N19795 X1.098 Y48.063
N19800 X1.494 Y48.572
N19805 X2.038 Y48.917
N19810 X2.644 Y49.138
N19815 X3.274 Y49.274
N19820 X3.914 Y49.357
N19825 X4.556 Y49.407
N19830 X5.201 Y49.437
N19835 X5.845 Y49.454
N19840 X6.49 Y49.465
N19845 X7.134 Y49.471
N19850 X7.779 Y49.474
N19855 X9.069 Y49.478
N19860 X12.292 Y49.48
N19865 X14.227 Y49.481
N19870 X42.596 Y49.487
N19875 X42.904 Y49.394
N19880 X43.18 Y49.228
N19885 X43.655 Y48.791
N19890 X43.973 Y48.23
N19895 X44.174 Y47.618
N19900 X44.298 Y46.985
N19905 X44.374 Y46.345
N19910 X44.419 Y45.702
N19915 X44.446 Y45.057
N19920 X44.462 Y44.413
N19925 X44.471 Y43.768
N19930 X44.476 Y43.123
N19935 X44.48 Y42.479
N19940 X44.483 Y41.189
N19945 X44.484 Y37.965
N19950 X44.485 Y28.294
N19955 X44.487 Y3.149
N19960 X44.483 Y2.827
N19965 X44.395 Y2.516
N19970 X44.232 Y2.238
N19975 X43.8 Y1.76
N19980 X43.241 Y1.439
N19985 X42.629 Y1.235
N19990 X41.997 Y1.11
N19995 X41.357 Y1.033
N20000 X40.714 Y0.987
N20005 X40.069 Y0.96
N20010 X39.425 Y0.944
N20015 X38.78 Y0.934
N20020 X38.135 Y0.929
N20025 X37.491 Y0.925
N20030 X36.201 Y0.922
N20035 X32.978 Y0.92
N20040 X20.083 Y0.917
N20045 X4.286 Y0.913
N20050 X3.965 Y0.937
N20055 X3.662 Y1.048
N20060 X3.392 Y1.225
N20065 X2.929 Y1.673
N20070 X2.62 Y2.239
N20075 X2.423 Y2.853
N20080 X2.301 Y3.486
N20085 X2.227 Y4.126
N20090 X2.182 Y4.77
N20095 X2.155 Y5.414
N20100 X2.139 Y6.058
N20105 X2.129 Y6.703
N20110 X2.124 Y7.348
N20115 X2.12 Y7.993
N20120 X2.117 Y9.282
N20125 X2.116 Y12.506
N20130 X2.114 Y34.427
N20135 X2.113 Y46.033
N20140 X2.144 Y46.354
N20145 X2.251 Y46.658
N20150 X2.422 Y46.931
N20155 X2.859 Y47.405
N20160 X3.417 Y47.728
N20165 X4.027 Y47.937
N20170 X4.658 Y48.069
N20175 X5.298 Y48.151
N20180 X5.94 Y48.202
N20185 X6.584 Y48.233
N20190 X7.229 Y48.251
N20195 X7.873 Y48.263
N20200 X8.518 Y48.27
N20205 X9.163 Y48.274
N20210 X10.452 Y48.278
N20215 X13.031 Y48.28
N20220 X40.111 Y48.287
N20225 X41.078
N20230 X41.397 Y48.244
N20235 X41.698 Y48.127
N20240 X41.966 Y47.948
N20245 X42.432 Y47.502
N20250 X42.747 Y46.94
N20255 X42.951 Y46.328
N20260 X43.08 Y45.696
N20265 X43.16 Y45.057
N20270 X43.209 Y44.414
N20275 X43.239 Y43.77
N20280 X43.257 Y43.125
N20285 X43.268 Y42.481
N20290 X43.274 Y41.836
N20295 X43.278 Y41.191
N20300 X43.282 Y39.902
N20305 X43.284 Y37.323
N20310 X43.287 Y4.44
N20315 X43.266 Y4.119
N20320 X43.175 Y3.809
N20325 X43.017 Y3.529
N20330 X42.598 Y3.039
N20335 X42.048 Y2.701
N20340 X41.442 Y2.482
N20345 X40.813 Y2.342
N20350 X40.174 Y2.256
N20355 X39.531 Y2.203
N20360 X38.887 Y2.17
N20365 X38.243 Y2.15
N20370 X37.598 Y2.138
N20375 X36.953 Y2.131
N20380 X36.309 Y2.127
N20385 X35.664 Y2.124
N20390 X34.374 Y2.121
N20395 X29.861 Y2.119
N20400 X5.361 Y2.113
N20405 X5.05 Y2.2
N20410 X4.766 Y2.353
N20415 X4.269 Y2.762
N20420 X3.922 Y3.306
N20425 X3.695 Y3.91
N20430 X3.55 Y4.538
N20435 X3.459 Y5.176
N20440 X3.403 Y5.818
N20445 X3.369 Y6.462
N20450 X3.348 Y7.107
N20455 X3.335 Y7.751
N20460 X3.327 Y8.396
N20465 X3.323 Y9.041
N20470 X3.32 Y9.686
N20475 X3.317 Y10.975
N20480 X3.315 Y14.844
N20485 Y17.423
N20490 X3.313 Y44.824
N20495 X3.361 Y45.143
N20500 X3.479 Y45.443
N20505 X3.655 Y45.713
N20510 X4.095 Y46.185
N20515 X4.652 Y46.509
N20520 X5.261 Y46.721
N20525 X5.891 Y46.857
N20530 X6.53 Y46.942
N20535 X7.173 Y46.995
N20540 X7.817 Y47.028
N20545 X8.461 Y47.048
N20550 X9.106 Y47.061
N20555 X9.751 Y47.068
N20560 X10.395 Y47.073
N20565 X11.04 Y47.076
N20570 X12.33 Y47.079
N20575 X16.198 Y47.081
N20580 X25.224 Y47.083
N20585 X40.054 Y47.087
N20590 X40.36 Y46.987
N20595 X40.639 Y46.826
N20600 X41.129 Y46.406
N20605 X41.471 Y45.86
N20610 X41.698 Y45.256
N20615 X41.844 Y44.628
N20620 X41.936 Y43.99
N20625 X41.993 Y43.348
N20630 X42.028 Y42.704
N20635 X42.05 Y42.06
N20640 X42.064 Y41.415
N20645 X42.072 Y40.77
N20650 X42.077 Y40.126
N20655 X42.08 Y39.481
N20660 X42.083 Y38.191
N20665 X42.085 Y34.968
N20670 X42.087 Y12.401
N20675 Y5.309
N20680 X41.978 Y5.006
N20685 X41.809 Y4.731
N20690 X41.38 Y4.25
N20695 X40.829 Y3.915
N20700 X40.223 Y3.695
N20705 X39.594 Y3.554
N20710 X38.956 Y3.465
N20715 X38.313 Y3.409
N20720 X37.669 Y3.375
N20725 X37.025 Y3.354
N20730 X36.38 Y3.34
N20735 X35.736 Y3.332
N20740 X35.091 Y3.327
N20745 X34.446 Y3.324
N20750 X33.157 Y3.321
N20755 X29.933 Y3.319
N20760 X6.722 Y3.314
N20765 X6.405 Y3.374
N20770 X6.109 Y3.502
N20775 X5.581 Y3.872
N20780 X5.204 Y4.395
N20785 X4.952 Y4.988
N20790 X4.788 Y5.612
N20795 X4.685 Y6.248
N20800 X4.62 Y6.889
N20805 X4.58 Y7.533
N20810 X4.555 Y8.177
N20815 X4.54 Y8.822
N20820 X4.53 Y9.466
N20825 X4.524 Y10.111
N20830 X4.521 Y10.756
N20835 X4.517 Y12.045
N20840 X4.516 Y14.624
N20845 X4.513 Y43.638
N20850 X4.574 Y43.955
N20855 X4.7 Y44.251
N20860 X5.063 Y44.784
N20865 X5.582 Y45.167
N20870 X6.173 Y45.425
N20875 X6.795 Y45.593
N20880 X7.431 Y45.7
N20885 X8.072 Y45.768
N20890 X8.715 Y45.811
N20895 X9.36 Y45.837
N20900 X10.004 Y45.854
N20905 X10.649 Y45.864
N20910 X11.293 Y45.87
N20915 X11.938 Y45.874
N20920 X13.228 Y45.878
N20925 X15.807 Y45.881
N20930 X19.675 Y45.882
N20935 X38.373 Y45.886
N20940 X38.695 Y45.876
N20945 X39.01 Y45.808
N20950 X39.303 Y45.674
N20955 X39.825 Y45.296
N20960 X40.198 Y44.77
N20965 X40.448 Y44.175
N20970 X40.61 Y43.551
N20975 X40.714 Y42.915
N20980 X40.778 Y42.273
N20985 X40.819 Y41.63
N20990 X40.844 Y40.986
N20995 X40.86 Y40.341
N21000 X40.869 Y39.696
N21005 X40.875 Y39.052
N21010 X40.879 Y38.407
N21015 X40.883 Y37.117
N21020 X40.885 Y34.538
N21025 X40.886 Y15.196
N21030 X40.887 Y6.814
N21035 X40.842 Y6.495
N21040 X40.728 Y6.193
N21045 X40.556 Y5.921
N21050 X40.122 Y5.444
N21055 X39.569 Y5.114
N21060 X38.962 Y4.896
N21065 X38.332 Y4.755
N21070 X37.694 Y4.667
N21075 X37.052 Y4.611
N21080 X36.408 Y4.576
N21085 X35.763 Y4.554
N21090 X35.119 Y4.541
N21095 X34.474 Y4.533
N21100 X33.829 Y4.528
N21105 X33.185 Y4.524
N21110 X31.895 Y4.521
N21115 X28.671 Y4.519
N21120 X8.039 Y4.514
N21125 X7.72 Y4.555
N21130 X7.416 Y4.663
N21135 X7.141 Y4.831
N21140 X6.658 Y5.259
N21145 X6.323 Y5.809
N21150 X6.101 Y6.415
N21155 X5.957 Y7.043
N21160 X5.866 Y7.682
N21165 X5.809 Y8.324
N21170 X5.773 Y8.967
N21175 X5.751 Y9.612
N21180 X5.737 Y10.256
N21185 X5.729 Y10.901
N21190 X5.724 Y11.546
N21195 X5.72 Y12.191
N21200 X5.717 Y13.48
N21205 X5.715 Y16.704
N21210 X5.713 Y42.494
N21215 X5.785 Y42.808
N21220 X5.923 Y43.1
N21225 X6.306 Y43.618
N21230 X6.446 Y43.717
N21235 X6.488 Y43.749
N21240 X6.527 Y43.784
N21245 X6.563 Y43.821
N21250 X6.582 Y43.841
N21255 X6.592 Y43.852
N21260 X6.728 Y43.967
N21265 X6.769 Y43.998
N21270 X6.875 Y44.068
N21275 X7.021 Y44.145
N21280 X7.168 Y44.208
N21285 X7.314 Y44.249
N21290 X7.461 Y44.278
N21295 X8.093 Y44.403
N21300 X8.73 Y44.507
N21305 X9.371 Y44.572
N21310 X10.014 Y44.613
N21315 X10.659 Y44.639
N21320 X11.303 Y44.655
N21325 X11.948 Y44.664
N21330 X12.593 Y44.671
N21335 X13.237 Y44.675
N21340 X14.527 Y44.679
N21345 X17.106 Y44.681
N21350 X37.093 Y44.686
N21355 X37.415 Y44.681
N21360 X37.733 Y44.625
N21365 X38.032 Y44.504
N21370 X38.568 Y44.147
N21375 X38.957 Y43.632
