(2)
(T2 D=3 CR=1.5 - ZMIN=3.869 - Frza s kulovm koncem)
N10 G90
N15 G17
N20 G21
(-Attention- Property Safe Retracts is set to Clearance Height.)
(Ensure the clearance height will clear the part and or fixtures.)
(Raise the Z-axis to a safe height before starting the program.)
(Parallel2)
N25 T2 M6
N30 S10000 M3
N35 G17 G90
N40 M8
N45 G0 X11.981 Y6.691
N50 Z22
N55 G0 Z10.165
N60 G1 Z7.72 F20
N65 G18 G3 X11.469 Z7.507 I-0.3 K0 F500
N70 G1 X10.13 Z8.842
N75 X9.957 Z8.987
N80 X9.69 Z9.155
N85 X9.483 Z9.252
N90 X9.223 Z9.336
N95 X8.951 Z9.387
N100 X8.72 Z9.4
N105 X8.515 Z9.393
N110 X8.328 Z9.37
N115 X8.084 Z9.31
N120 X7.838 Z9.217
N125 X7.771 Z9.187
N130 G3 X7.349 Z9.461 I-0.122 K0.274
N135 G0 Z11.655
N140 X12.15 Y6.841
N145 Z10.055
N150 G1 Z7.72 F500
N155 G3 X11.639 Z7.507 I-0.3 K0
N160 G1 X10.2 Z8.94
N165 X10.064 Z9.057
N170 X9.84 Z9.208
N175 X9.682 Z9.292
N180 X9.514 Z9.368
N185 X9.252 Z9.453
N190 X8.981 Z9.504
N195 X8.798 Z9.518
N200 X8.608 Z9.52
N205 X8.346 Z9.494
N210 X8.07 Z9.43
N215 X7.861 Z9.356
N220 X7.639 Z9.252
N225 X7.414 Z9.114
N230 X7.171 Z8.915
N235 G3 X6.681 Z9.147 I-0.19 K0.232
N240 G0 Z11.697
N245 X12.281 Y6.991
N250 Z9.973
N255 G1 Z7.72 F500
N260 G3 X11.769 Z7.507 I-0.3 K0
N265 G1 X10.266 Z9.005
N270 X10.125 Z9.125
N275 X9.902 Z9.278
N280 X9.743 Z9.365
N285 X9.493 Z9.474
N290 X9.229 Z9.554
N295 X8.957 Z9.6
N300 X8.677 Z9.613
N305 X8.457 Z9.6
N310 X8.208 Z9.561
N315 X7.924 Z9.481
N320 X7.691 Z9.384
N325 X7.396 Z9.213
N330 X7.127 Z9.001
N335 X6.982 Z8.852
N340 G3 X6.467 Z9.062 I-0.215 K0.21
N345 G0 Z11.73
N350 X12.38 Y7.141
N355 Z9.913
N360 G1 Z7.72 F500
N365 G3 X11.868 Z7.507 I-0.3 K0
N370 G1 X10.308 Z9.061
N375 X10.151 Z9.194
N380 X9.926 Z9.346
N385 X9.766 Z9.432
N390 X9.516 Z9.541
N395 X9.252 Z9.62
N400 X8.98 Z9.668
N405 X8.796 Z9.681
N410 X8.606 Z9.683
N415 X8.257 Z9.643
N420 X7.932 Z9.558
N425 X7.62 Z9.427
N430 X7.327 Z9.252
N435 X7.126 Z9.093
N440 X6.92 Z8.889
N445 X6.86 Z8.821
N450 G3 X6.336 Z9.02 I-0.224 K0.199
N455 G0 Z11.754
N460 X12.452 Y7.291
N465 Z9.871
N470 G1 Z7.72 F500
N475 G3 X11.941 Z7.507 I-0.3 K0
N480 G1 X10.346 Z9.096
N485 X10.153 Z9.257
N490 X9.926 Z9.406
N495 X9.64 Z9.547
N500 X9.425 Z9.623
N505 X9.18 Z9.687
N510 X8.883 Z9.729
N515 X8.603 Z9.734
N520 X8.259 Z9.696
N525 X7.934 Z9.613
N530 X7.621 Z9.485
N535 X7.327 Z9.313
N540 X7.058 Z9.102
N545 X6.827 Z8.861
N550 X6.777 Z8.799
N555 G3 X6.243 Z8.986 I-0.235 K0.187
N560 G0 Z11.772
N565 X12.501 Y7.441
N570 Z9.842
N575 G1 Z7.72 F500
N580 G3 X11.989 Z7.507 I-0.3 K0
N585 G1 X10.37 Z9.121
N590 X10.206 Z9.26
N595 X9.904 Z9.458
N600 X9.658 Z9.577
N605 X9.488 Z9.64
N610 X9.221 Z9.715
N615 X8.948 Z9.758
N620 X8.668 Z9.769
N625 X8.448 Z9.755
N630 X8.24 Z9.727
N635 X7.914 Z9.642
N640 X7.602 Z9.514
N645 X7.308 Z9.343
N650 X7.039 Z9.131
N655 X6.8 Z8.882
N660 X6.725 Z8.786
N665 G3 X6.187 Z8.969 I-0.237 K0.183
N670 G0 Z11.783
N675 X12.527 Y7.591
N680 Z9.827
N685 G1 Z7.72 F500
N690 G3 X12.016 Z7.507 I-0.3 K0
N695 G1 X10.388 Z9.129
N700 X10.164 Z9.314
N705 X9.934 Z9.462
N710 X9.606 Z9.619
N715 X9.344 Z9.703
N720 X9.166 Z9.743
N725 X8.89 Z9.781
N730 X8.609 Z9.787
N735 X8.336 Z9.761
N740 X8.089 Z9.71
N745 X7.848 Z9.638
N750 X7.614 Z9.54
N755 X7.319 Z9.372
N760 X7.049 Z9.164
N765 X6.807 Z8.92
N770 X6.697 Z8.778
N775 G3 X6.16 Z8.963 I-0.236 K0.185
N780 G0 Z11.788
N785 X12.533 Y7.741
N790 Z9.824
N795 G1 Z7.72 F500
N800 G3 X12.021 Z7.507 I-0.3 K0
N805 G1 X10.411 Z9.115
N810 X10.17 Z9.315
N815 X9.94 Z9.463
N820 X9.696 Z9.584
N825 X9.484 Z9.665
N830 X9.262 Z9.729
N835 X8.99 Z9.776
N840 X8.73 Z9.79
N845 X8.502 Z9.784
N850 X8.216 Z9.745
N855 X7.892 Z9.659
N860 X7.58 Z9.528
N865 X7.288 Z9.356
N870 X7.02 Z9.144
N875 X6.781 Z8.895
N880 X6.692 Z8.778
N885 G3 X6.153 Z8.96 I-0.239 K0.182
N890 G0 Z11.792
N895 X12.533 Y7.891
N900 Z9.824
N905 G1 Z7.72 F500
N910 G3 X12.021 Z7.507 I-0.3 K0
N915 G1 X10.408 Z9.117
N920 X10.185 Z9.304
N925 X9.957 Z9.454
N930 X9.672 Z9.595
N935 X9.458 Z9.673
N940 X9.281 Z9.724
N945 X9.009 Z9.773
N950 X8.825 Z9.788
N955 X8.55
N960 X8.216 Z9.745
N965 X7.892 Z9.659
N970 X7.58 Z9.528
N975 X7.288 Z9.356
N980 X7.02 Z9.144
N985 X6.781 Z8.895
N990 X6.69 Z8.776
N995 G3 X6.151 Z8.957 I-0.239 K0.182
N1000 G0 Z11.792
N1005 X12.533 Y8.041
N1010 Z9.824
N1015 G1 Z7.72 F500
N1020 G3 X12.021 Z7.507 I-0.3 K0
N1025 G1 X10.408 Z9.117
N1030 X10.185 Z9.304
N1035 X9.957 Z9.454
N1040 X9.672 Z9.595
N1045 X9.458 Z9.673
N1050 X9.281 Z9.724
N1055 X9.009 Z9.773
N1060 X8.825 Z9.788
N1065 X8.55
N1070 X8.216 Z9.745
N1075 X7.892 Z9.659
N1080 X7.58 Z9.528
N1085 X7.288 Z9.356
N1090 X7.02 Z9.144
N1095 X6.781 Z8.895
N1100 X6.69 Z8.776
N1105 G3 X6.151 Z8.957 I-0.239 K0.182
N1110 G0 Z11.792
N1115 X12.533 Y8.191
N1120 Z9.824
N1125 G1 Z7.72 F500
N1130 G3 X12.021 Z7.507 I-0.3 K0
N1135 G1 X10.408 Z9.117
N1140 X10.185 Z9.304
N1145 X9.957 Z9.454
N1150 X9.672 Z9.595
N1155 X9.458 Z9.673
N1160 X9.281 Z9.724
N1165 X9.009 Z9.773
N1170 X8.825 Z9.788
N1175 X8.55
N1180 X8.216 Z9.745
N1185 X7.892 Z9.659
N1190 X7.58 Z9.528
N1195 X7.288 Z9.356
N1200 X7.02 Z9.144
N1205 X6.781 Z8.895
N1210 X6.69 Z8.776
N1215 G3 X6.151 Z8.957 I-0.239 K0.182
N1220 G0 Z11.792
N1225 X12.533 Y8.341
N1230 Z9.824
N1235 G1 Z7.72 F500
N1240 G3 X12.021 Z7.507 I-0.3 K0
N1245 G1 X10.408 Z9.117
N1250 X10.185 Z9.304
N1255 X9.957 Z9.454
N1260 X9.672 Z9.595
N1265 X9.458 Z9.673
N1270 X9.281 Z9.724
N1275 X9.009 Z9.773
N1280 X8.825 Z9.788
N1285 X8.55
N1290 X8.216 Z9.745
N1295 X7.892 Z9.659
N1300 X7.58 Z9.528
N1305 X7.288 Z9.356
N1310 X7.02 Z9.144
N1315 X6.781 Z8.895
N1320 X6.69 Z8.776
N1325 G3 X6.151 Z8.957 I-0.239 K0.182
N1330 G0 Z11.792
N1335 X12.533 Y8.491
N1340 Z9.824
N1345 G1 Z7.72 F500
N1350 G3 X12.021 Z7.507 I-0.3 K0
N1355 G1 X10.408 Z9.117
N1360 X10.185 Z9.304
N1365 X9.957 Z9.454
N1370 X9.672 Z9.595
N1375 X9.458 Z9.673
N1380 X9.281 Z9.724
N1385 X9.009 Z9.773
N1390 X8.825 Z9.788
N1395 X8.55
N1400 X8.216 Z9.745
N1405 X7.892 Z9.659
N1410 X7.58 Z9.528
N1415 X7.288 Z9.356
N1420 X7.02 Z9.144
N1425 X6.781 Z8.895
N1430 X6.69 Z8.776
N1435 G3 X6.151 Z8.957 I-0.239 K0.182
N1440 G0 Z11.792
N1445 X12.54 Y8.641
N1450 Z9.817
N1455 G1 Z7.73 F500
N1460 G3 X12.038 Z7.508 I-0.3 K0
N1465 G1 X11.849 Z7.68
N1470 X10.43 Z9.097
N1475 X10.224 Z9.275
N1480 X9.923 Z9.473
N1485 X9.593 Z9.628
N1490 X9.331 Z9.711
N1495 X9.06 Z9.765
N1500 X8.826 Z9.788
N1505 X8.529 Z9.787
N1510 X8.216 Z9.745
N1515 X7.892 Z9.659
N1520 X7.58 Z9.528
N1525 X7.288 Z9.356
N1530 X7.02 Z9.144
N1535 X6.781 Z8.895
N1540 X6.69 Z8.776
N1545 G3 X6.151 Z8.957 I-0.239 K0.182
N1550 G0 Z11.792
N1555 X12.578 Y8.791
N1560 Z9.779
N1565 G1 Z7.767 F500
N1570 G3 X12.129 Z7.507 I-0.3 K0
N1575 G1 X11.971 Z7.598
N1580 X11.874 Z7.669
N1585 X11.625 Z7.904
N1590 X10.469 Z9.059
N1595 X10.267 Z9.239
N1600 X10.085 Z9.371
N1605 X9.892 Z9.49
N1610 X9.644 Z9.607
N1615 X9.341 Z9.709
N1620 X9.116 Z9.756
N1625 X8.933 Z9.782
N1630 X8.652 Z9.792
N1635 X8.464 Z9.78
N1640 X8.216 Z9.745
N1645 X7.892 Z9.659
N1650 X7.58 Z9.528
N1655 X7.288 Z9.356
N1660 X7.02 Z9.144
N1665 X6.781 Z8.895
N1670 X6.69 Z8.776
N1675 G3 X6.151 Z8.957 I-0.239 K0.182
N1680 G0 Z11.792
N1685 X12.799 Y8.941
N1690 Z9.624
N1695 G1 Z7.805 F500
N1700 G3 X12.461 Z7.507 I-0.3 K0
N1705 G1 X12.27 Z7.531
N1710 X12.134 Z7.569
N1715 X11.961 Z7.648
N1720 X11.795 Z7.756
N1725 X11.683 Z7.849
N1730 X10.521 Z9.007
N1735 X10.39 Z9.133
N1740 X10.177 Z9.309
N1745 X9.95 Z9.458
N1750 X9.663 Z9.599
N1755 X9.449 Z9.676
N1760 X9.271 Z9.727
N1765 X8.999 Z9.774
N1770 X8.814 Z9.789
N1775 X8.653 Z9.792
N1780 X8.464 Z9.78
N1785 X8.216 Z9.745
N1790 X7.892 Z9.659
N1795 X7.58 Z9.528
N1800 X7.288 Z9.356
N1805 X7.02 Z9.144
N1810 X6.781 Z8.895
N1815 X6.69 Z8.776
N1820 G3 X6.151 Z8.957 I-0.239 K0.182
N1825 G0 Z11.792
N1830 X33.961 Y9.091
N1835 Z9.59
N1840 G1 Z7.804 F500
N1845 G3 X33.62 Z7.507 I-0.3 K0
N1850 G1 X33.269 Z7.556
N1855 X32.945 Z7.575
N1860 X12.489 Z7.581
N1865 X12.204 Z7.607
N1870 X12.073 Z7.638
N1875 X11.905 Z7.706
N1880 X11.749 Z7.795
N1885 X11.61 Z7.918
N1890 X10.427 Z9.1
N1895 X10.221 Z9.277
N1900 X9.919 Z9.475
N1905 X9.589 Z9.629
N1910 X9.327 Z9.713
N1915 X9.044 Z9.767
N1920 X8.826 Z9.788
N1925 X8.527 Z9.786
N1930 X8.216 Z9.745
N1935 X7.892 Z9.659
N1940 X7.58 Z9.528
N1945 X7.288 Z9.356
N1950 X7.02 Z9.144
N1955 X6.781 Z8.895
N1960 X6.69 Z8.776
N1965 G3 X6.151 Z8.957 I-0.239 K0.182
N1970 G0 Z11.792
N1975 X34.307 Y9.241
N1980 Z9.56
N1985 G1 Z7.799 F500
N1990 G3 X33.937 Z7.507 I-0.3 K0
N1995 G1 X33.701 Z7.563
N2000 X33.393 Z7.608
N2005 X32.927 Z7.633
N2010 X12.446 Z7.638
N2015 X12.115 Z7.663
N2020 X11.972 Z7.698
N2025 X11.837 Z7.747
N2030 X11.735 Z7.805
N2035 X11.452 Z8.077
N2040 X10.466 Z9.063
N2045 X10.261 Z9.245
N2050 X10.118 Z9.35
N2055 X9.883 Z9.495
N2060 X9.635 Z9.611
N2065 X9.33 Z9.712
N2070 X9.059 Z9.765
N2075 X8.828 Z9.788
N2080 X8.547
N2085 X8.216 Z9.745
N2090 X7.892 Z9.659
N2095 X7.58 Z9.528
N2100 X7.288 Z9.356
N2105 X7.02 Z9.144
N2110 X6.781 Z8.895
N2115 X6.69 Z8.776
N2120 G3 X6.151 Z8.957 I-0.239 K0.182
N2125 G0 Z11.792
N2130 X34.527 Y9.391
N2135 Z9.538
N2140 G1 Z7.796 F500
N2145 G3 X34.147 Z7.507 I-0.3 K0
N2150 G1 X33.846 Z7.591
N2155 X33.549 Z7.64
N2160 X33.132 Z7.669
N2165 X31.805 Z7.675
N2170 X12.461 Z7.676
N2175 X12.05 Z7.695
N2180 X11.927 Z7.719
N2185 X11.868 Z7.736
N2190 X11.792 Z7.768
N2195 X11.726 Z7.812
N2200 X11.343 Z8.186
N2205 X10.406 Z9.119
N2210 X10.216 Z9.281
N2215 X9.913 Z9.479
N2220 X9.667 Z9.597
N2225 X9.497 Z9.661
N2230 X9.23 Z9.736
N2235 X8.957 Z9.78
N2240 X8.654 Z9.792
N2245 X8.381 Z9.77
N2250 X8.138 Z9.728
N2255 X7.892 Z9.659
N2260 X7.58 Z9.528
N2265 X7.288 Z9.356
N2270 X7.02 Z9.144
N2275 X6.781 Z8.895
N2280 X6.69 Z8.776
N2285 G3 X6.151 Z8.957 I-0.239 K0.182
N2290 G0 Z11.792
N2295 X34.69 Y9.541
N2300 Z9.518
N2305 G1 Z7.793 F500
N2310 G3 X34.299 Z7.507 I-0.3 K0
N2315 G1 X34.039 Z7.59
N2320 X33.727 Z7.654
N2325 X33.451 Z7.683
N2330 X32.885 Z7.698
N2335 X12.309 Z7.701
N2340 X11.973 Z7.711
N2345 X11.842 Z7.745
N2350 X11.748 Z7.795
N2355 X11.614 Z7.914
N2360 X10.431 Z9.096
N2365 X10.225 Z9.273
N2370 X9.925 Z9.472
N2375 X9.595 Z9.627
N2380 X9.333 Z9.711
N2385 X9.154 Z9.749
N2390 X8.878 Z9.786
N2395 X8.596 Z9.791
N2400 X8.298 Z9.76
N2405 X8.002 Z9.692
N2410 X7.792 Z9.62
N2415 X7.58 Z9.528
N2420 X7.288 Z9.356
N2425 X7.02 Z9.144
N2430 X6.781 Z8.895
N2435 X6.69 Z8.776
N2440 G3 X6.151 Z8.957 I-0.239 K0.182
N2445 G0 Z11.792
N2450 X34.802 Y9.691
N2455 Z9.501
N2460 G1 Z7.792 F500
N2465 G3 X34.409 Z7.507 I-0.3 K0
N2470 G1 X34.118 Z7.602
N2475 X33.786 Z7.67
N2480 X33.44 Z7.702
N2485 X30.099 Z7.707
N2490 X11.977 Z7.71
N2495 X11.861 Z7.739
N2500 X11.792 Z7.769
N2505 X11.648 Z7.88
N2510 X10.479 Z9.049
N2515 X10.278 Z9.231
N2520 X10.096 Z9.364
N2525 X9.863 Z9.506
N2530 X9.572 Z9.636
N2535 X9.309 Z9.718
N2540 X8.992 Z9.775
N2545 X8.759 Z9.79
N2550 X8.519 Z9.786
N2555 X8.197 Z9.742
N2560 X7.873 Z9.652
N2565 X7.563 Z9.519
N2570 X7.272 Z9.345
N2575 X7.006 Z9.132
N2580 X6.77 Z8.882
N2585 X6.69 Z8.776
N2590 G3 X6.15 Z8.956 I-0.24 K0.181
N2595 G0 Z11.792
N2600 X34.878 Y9.841
N2605 Z9.49
N2610 G1 Z7.794 F500
N2615 G3 X34.489 Z7.507 I-0.3 K0
N2620 G1 X34.156 Z7.612
N2625 X33.862 Z7.671
N2630 X33.586 Z7.7
N2635 X32.992 Z7.707
N2640 X11.977 Z7.71
N2645 X11.811 Z7.759
N2650 X11.648 Z7.88
N2655 X10.479 Z9.049
N2660 X10.278 Z9.231
N2665 X10.096 Z9.364
N2670 X9.863 Z9.506
N2675 X9.572 Z9.636
N2680 X9.309 Z9.718
N2685 X8.992 Z9.775
N2690 X8.759 Z9.79
N2695 X8.519 Z9.786
N2700 X8.197 Z9.742
N2705 X7.873 Z9.652
N2710 X7.563 Z9.519
N2715 X7.272 Z9.345
N2720 X7.006 Z9.132
N2725 X6.77 Z8.882
N2730 X6.69 Z8.776
N2735 G3 X6.15 Z8.956 I-0.24 K0.181
N2740 G0 Z11.792
N2745 X34.918 Y9.991
N2750 Z9.485
N2755 G1 Z7.792 F500
N2760 G3 X34.525 Z7.507 I-0.3 K0
N2765 G1 X34.306 Z7.578
N2770 X34.126 Z7.624
N2775 X33.946 Z7.659
N2780 X33.763 Z7.685
N2785 X33.405 Z7.707
N2790 X11.977 Z7.71
N2795 X11.811 Z7.759
N2800 X11.648 Z7.88
N2805 X10.479 Z9.049
N2810 X10.278 Z9.231
N2815 X10.096 Z9.364
N2820 X9.863 Z9.506
N2825 X9.572 Z9.636
N2830 X9.309 Z9.718
N2835 X8.992 Z9.775
N2840 X8.759 Z9.79
N2845 X8.519 Z9.786
N2850 X8.197 Z9.742
N2855 X7.873 Z9.652
N2860 X7.563 Z9.519
N2865 X7.272 Z9.345
N2870 X7.006 Z9.132
N2875 X6.77 Z8.882
N2880 X6.69 Z8.776
N2885 G3 X6.15 Z8.956 I-0.24 K0.181
N2890 G0 Z11.792
N2895 X34.92 Y10.141
N2900 Z9.484
N2905 G1 Z7.793 F500
N2910 G3 X34.531 Z7.507 I-0.3 K0
N2915 G1 X34.284 Z7.584
N2920 X34.013 Z7.648
N2925 X33.67 Z7.694
N2930 X33.368 Z7.707
N2935 X11.977 Z7.71
N2940 X11.811 Z7.759
N2945 X11.648 Z7.88
N2950 X10.479 Z9.049
N2955 X10.278 Z9.231
N2960 X10.096 Z9.364
N2965 X9.863 Z9.506
N2970 X9.572 Z9.636
N2975 X9.309 Z9.718
N2980 X8.992 Z9.775
N2985 X8.759 Z9.79
N2990 X8.519 Z9.786
N2995 X8.197 Z9.742
N3000 X7.873 Z9.652
N3005 X7.563 Z9.519
N3010 X7.272 Z9.345
N3015 X7.006 Z9.132
N3020 X6.77 Z8.882
N3025 X6.69 Z8.776
N3030 G3 X6.15 Z8.956 I-0.24 K0.181
N3035 G0 Z11.792
N3040 X34.92 Y10.291
N3045 Z9.484
N3050 G1 Z7.793 F500
N3055 G3 X34.531 Z7.507 I-0.3 K0
N3060 G1 X34.284 Z7.584
N3065 X33.968 Z7.655
N3070 X33.647 Z7.696
N3075 X33.368 Z7.707
N3080 X11.977 Z7.71
N3085 X11.811 Z7.759
N3090 X11.648 Z7.88
N3095 X10.479 Z9.049
N3100 X10.278 Z9.231
N3105 X10.096 Z9.364
N3110 X9.863 Z9.506
N3115 X9.572 Z9.636
N3120 X9.309 Z9.718
N3125 X8.992 Z9.775
N3130 X8.759 Z9.79
N3135 X8.519 Z9.786
N3140 X8.197 Z9.742
N3145 X7.873 Z9.652
N3150 X7.563 Z9.519
N3155 X7.272 Z9.345
N3160 X7.006 Z9.132
N3165 X6.77 Z8.882
N3170 X6.69 Z8.776
N3175 G3 X6.15 Z8.956 I-0.24 K0.181
N3180 G0 Z11.792
N3185 X34.92 Y10.441
N3190 Z9.484
N3195 G1 Z7.793 F500
N3200 G3 X34.531 Z7.507 I-0.3 K0
N3205 G1 X34.284 Z7.584
N3210 X33.968 Z7.655
N3215 X33.647 Z7.696
N3220 X33.368 Z7.707
N3225 X11.977 Z7.71
N3230 X11.811 Z7.759
N3235 X11.648 Z7.88
N3240 X10.479 Z9.049
N3245 X10.278 Z9.231
N3250 X10.096 Z9.364
N3255 X9.863 Z9.506
N3260 X9.572 Z9.636
N3265 X9.309 Z9.718
N3270 X8.992 Z9.775
N3275 X8.759 Z9.79
N3280 X8.519 Z9.786
N3285 X8.197 Z9.742
N3290 X7.873 Z9.652
N3295 X7.563 Z9.519
N3300 X7.272 Z9.345
N3305 X7.006 Z9.132
N3310 X6.77 Z8.882
N3315 X6.69 Z8.776
N3320 G3 X6.15 Z8.956 I-0.24 K0.181
N3325 G0 Z11.792
N3330 X34.92 Y10.591
N3335 Z9.484
N3340 G1 Z7.793 F500
N3345 G3 X34.531 Z7.507 I-0.3 K0
N3350 G1 X34.284 Z7.584
N3355 X33.968 Z7.655
N3360 X33.647 Z7.696
N3365 X33.368 Z7.707
N3370 X11.977 Z7.71
N3375 X11.811 Z7.759
N3380 X11.648 Z7.88
N3385 X10.479 Z9.049
N3390 X10.278 Z9.231
N3395 X10.096 Z9.364
N3400 X9.863 Z9.506
N3405 X9.572 Z9.636
N3410 X9.309 Z9.718
N3415 X8.992 Z9.775
N3420 X8.759 Z9.79
N3425 X8.519 Z9.786
N3430 X8.197 Z9.742
N3435 X7.873 Z9.652
N3440 X7.563 Z9.519
N3445 X7.272 Z9.345
N3450 X7.006 Z9.132
N3455 X6.77 Z8.882
N3460 X6.69 Z8.776
N3465 G3 X6.15 Z8.956 I-0.24 K0.181
N3470 G0 Z11.792
N3475 X34.92 Y10.741
N3480 Z9.484
N3485 G1 Z7.793 F500
N3490 G3 X34.531 Z7.507 I-0.3 K0
N3495 G1 X34.284 Z7.584
N3500 X33.968 Z7.655
N3505 X33.647 Z7.696
N3510 X33.369 Z7.707
N3515 X11.977 Z7.71
N3520 X11.811 Z7.759
N3525 X11.648 Z7.88
N3530 X10.479 Z9.049
N3535 X10.278 Z9.231
N3540 X10.096 Z9.364
N3545 X9.863 Z9.506
N3550 X9.572 Z9.636
N3555 X9.309 Z9.718
N3560 X8.992 Z9.775
N3565 X8.759 Z9.79
N3570 X8.519 Z9.786
N3575 X8.197 Z9.742
N3580 X7.873 Z9.652
N3585 X7.563 Z9.519
N3590 X7.272 Z9.345
N3595 X7.006 Z9.132
N3600 X6.77 Z8.882
N3605 X6.69 Z8.776
N3610 G3 X6.15 Z8.956 I-0.24 K0.181
N3615 G0 Z11.792
N3620 X34.92 Y10.891
N3625 Z9.484
N3630 G1 Z7.793 F500
N3635 G3 X34.531 Z7.507 I-0.3 K0
N3640 G1 X34.284 Z7.584
N3645 X33.968 Z7.655
N3650 X33.647 Z7.696
N3655 X33.369 Z7.707
N3660 X11.977 Z7.71
N3665 X11.811 Z7.759
N3670 X11.648 Z7.88
N3675 X10.479 Z9.049
N3680 X10.278 Z9.231
N3685 X10.096 Z9.364
N3690 X9.863 Z9.506
N3695 X9.572 Z9.636
N3700 X9.309 Z9.718
N3705 X8.992 Z9.775
N3710 X8.759 Z9.79
N3715 X8.519 Z9.786
N3720 X8.197 Z9.742
N3725 X7.873 Z9.652
N3730 X7.563 Z9.519
N3735 X7.272 Z9.345
N3740 X7.006 Z9.132
N3745 X6.77 Z8.882
N3750 X6.69 Z8.776
N3755 G3 X6.15 Z8.956 I-0.24 K0.181
N3760 G0 Z11.792
N3765 X34.92 Y11.041
N3770 Z9.484
N3775 G1 Z7.793 F500
N3780 G3 X34.531 Z7.507 I-0.3 K0
N3785 G1 X34.284 Z7.584
N3790 X33.968 Z7.655
N3795 X33.647 Z7.696
N3800 X33.369 Z7.707
N3805 X11.977 Z7.71
N3810 X11.811 Z7.759
N3815 X11.648 Z7.88
N3820 X10.479 Z9.049
N3825 X10.278 Z9.231
N3830 X10.096 Z9.364
N3835 X9.863 Z9.506
N3840 X9.572 Z9.636
N3845 X9.309 Z9.718
N3850 X8.992 Z9.775
N3855 X8.759 Z9.79
N3860 X8.519 Z9.786
N3865 X8.197 Z9.742
N3870 X7.873 Z9.652
N3875 X7.563 Z9.519
N3880 X7.272 Z9.345
N3885 X7.006 Z9.132
N3890 X6.77 Z8.882
N3895 X6.69 Z8.776
N3900 G3 X6.15 Z8.956 I-0.24 K0.181
N3905 G0 Z11.792
N3910 X34.92 Y11.191
N3915 Z9.484
N3920 G1 Z7.793 F500
N3925 G3 X34.531 Z7.507 I-0.3 K0
N3930 G1 X34.284 Z7.584
N3935 X33.968 Z7.655
N3940 X33.647 Z7.696
N3945 X33.369 Z7.707
N3950 X11.977 Z7.71
N3955 X11.811 Z7.759
N3960 X11.648 Z7.88
N3965 X10.479 Z9.049
N3970 X10.278 Z9.231
N3975 X10.096 Z9.364
N3980 X9.863 Z9.506
N3985 X9.572 Z9.636
N3990 X9.309 Z9.718
N3995 X8.992 Z9.775
N4000 X8.759 Z9.79
N4005 X8.519 Z9.786
N4010 X8.197 Z9.742
N4015 X7.873 Z9.652
N4020 X7.563 Z9.519
N4025 X7.272 Z9.345
N4030 X7.006 Z9.132
N4035 X6.77 Z8.882
N4040 X6.69 Z8.776
N4045 G3 X6.15 Z8.956 I-0.24 K0.181
N4050 G0 Z11.792
N4055 X34.92 Y11.341
N4060 Z9.484
N4065 G1 Z7.793 F500
N4070 G3 X34.531 Z7.507 I-0.3 K0
N4075 G1 X34.284 Z7.584
N4080 X33.968 Z7.655
N4085 X33.647 Z7.696
N4090 X33.369 Z7.707
N4095 X11.977 Z7.71
N4100 X11.811 Z7.759
N4105 X11.648 Z7.88
N4110 X10.479 Z9.049
N4115 X10.278 Z9.231
N4120 X10.096 Z9.364
N4125 X9.863 Z9.506
N4130 X9.572 Z9.636
N4135 X9.309 Z9.718
N4140 X8.992 Z9.775
N4145 X8.759 Z9.79
N4150 X8.519 Z9.786
N4155 X8.197 Z9.742
N4160 X7.873 Z9.652
N4165 X7.563 Z9.519
N4170 X7.272 Z9.345
N4175 X7.006 Z9.132
N4180 X6.77 Z8.882
N4185 X6.69 Z8.776
N4190 G3 X6.15 Z8.956 I-0.24 K0.181
N4195 G0 Z11.792
N4200 X34.92 Y11.491
N4205 Z9.484
N4210 G1 Z7.793 F500
N4215 G3 X34.531 Z7.507 I-0.3 K0
N4220 G1 X34.284 Z7.584
N4225 X33.968 Z7.655
N4230 X33.647 Z7.696
N4235 X33.369 Z7.707
N4240 X11.977 Z7.71
N4245 X11.811 Z7.759
N4250 X11.648 Z7.88
N4255 X10.479 Z9.049
N4260 X10.278 Z9.231
N4265 X10.096 Z9.364
N4270 X9.863 Z9.506
N4275 X9.572 Z9.636
N4280 X9.309 Z9.718
N4285 X8.992 Z9.775
N4290 X8.759 Z9.79
N4295 X8.519 Z9.786
N4300 X8.197 Z9.742
N4305 X7.873 Z9.652
N4310 X7.563 Z9.519
N4315 X7.272 Z9.345
N4320 X7.006 Z9.132
N4325 X6.77 Z8.882
N4330 X6.69 Z8.776
N4335 G3 X6.15 Z8.956 I-0.24 K0.181
N4340 G0 Z11.792
N4345 X34.92 Y11.641
N4350 Z9.484
N4355 G1 Z7.793 F500
N4360 G3 X34.531 Z7.507 I-0.3 K0
N4365 G1 X34.284 Z7.584
N4370 X33.968 Z7.655
N4375 X33.647 Z7.696
N4380 X33.369 Z7.707
N4385 X11.977 Z7.71
N4390 X11.811 Z7.759
N4395 X11.648 Z7.88
N4400 X10.479 Z9.049
N4405 X10.278 Z9.231
N4410 X10.096 Z9.364
N4415 X9.863 Z9.506
N4420 X9.572 Z9.636
N4425 X9.309 Z9.718
N4430 X8.992 Z9.775
N4435 X8.759 Z9.79
N4440 X8.519 Z9.786
N4445 X8.197 Z9.742
N4450 X7.873 Z9.652
N4455 X7.563 Z9.519
N4460 X7.272 Z9.345
N4465 X7.006 Z9.132
N4470 X6.77 Z8.882
N4475 X6.69 Z8.776
N4480 G3 X6.15 Z8.956 I-0.24 K0.181
N4485 G0 Z11.792
N4490 X34.92 Y11.791
N4495 Z9.484
N4500 G1 Z7.793 F500
N4505 G3 X34.531 Z7.507 I-0.3 K0
N4510 G1 X34.284 Z7.584
N4515 X33.968 Z7.655
N4520 X33.647 Z7.696
N4525 X33.369 Z7.707
N4530 X11.977 Z7.71
N4535 X11.811 Z7.759
N4540 X11.648 Z7.88
N4545 X10.479 Z9.049
N4550 X10.278 Z9.231
N4555 X10.096 Z9.364
N4560 X9.863 Z9.506
N4565 X9.572 Z9.636
N4570 X9.309 Z9.718
N4575 X8.992 Z9.775
N4580 X8.759 Z9.79
N4585 X8.519 Z9.786
N4590 X8.197 Z9.742
N4595 X7.873 Z9.652
N4600 X7.563 Z9.519
N4605 X7.272 Z9.345
N4610 X7.006 Z9.132
N4615 X6.77 Z8.882
N4620 X6.69 Z8.776
N4625 G3 X6.15 Z8.956 I-0.24 K0.181
N4630 G0 Z11.792
N4635 X34.92 Y11.941
N4640 Z9.484
N4645 G1 Z7.793 F500
N4650 G3 X34.531 Z7.507 I-0.3 K0
N4655 G1 X34.284 Z7.584
N4660 X33.968 Z7.655
N4665 X33.647 Z7.696
N4670 X33.369 Z7.707
N4675 X11.963 Z7.712
N4680 X11.797 Z7.766
N4685 X11.748 Z7.796
N4690 X11.614 Z7.914
N4695 X10.431 Z9.096
N4700 X10.225 Z9.274
N4705 X9.924 Z9.473
N4710 X9.595 Z9.627
N4715 X9.333 Z9.711
N4720 X9.154 Z9.749
N4725 X8.878 Z9.786
N4730 X8.596 Z9.791
N4735 X8.298 Z9.76
N4740 X8.002 Z9.692
N4745 X7.792 Z9.62
N4750 X7.58 Z9.528
N4755 X7.288 Z9.356
N4760 X7.02 Z9.144
N4765 X6.781 Z8.895
N4770 X6.69 Z8.776
N4775 G3 X6.151 Z8.957 I-0.239 K0.182
N4780 G0 Z11.792
N4785 X34.92 Y12.091
N4790 Z9.484
N4795 G1 Z7.793 F500
N4800 G3 X34.531 Z7.507 I-0.3 K0
N4805 G1 X34.284 Z7.584
N4810 X33.968 Z7.655
N4815 X33.647 Z7.696
N4820 X33.369 Z7.707
N4825 X31.908 Z7.702
N4830 X29.119 Z7.707
N4835 X16.001 Z7.703
N4840 X15.174 Z7.706
N4845 X11.979 Z7.71
N4850 X11.924 Z7.72
N4855 X11.813 Z7.759
N4860 X11.75 Z7.794
N4865 X11.616 Z7.913
N4870 X10.433 Z9.094
N4875 X10.227 Z9.272
N4880 X9.926 Z9.471
N4885 X9.597 Z9.626
N4890 X9.335 Z9.71
N4895 X9.156 Z9.749
N4900 X8.881 Z9.786
N4905 X8.599 Z9.791
N4910 X8.298 Z9.76
N4915 X8.002 Z9.692
N4920 X7.792 Z9.62
N4925 X7.58 Z9.528
N4930 X7.288 Z9.356
N4935 X7.02 Z9.144
N4940 X6.781 Z8.895
N4945 X6.69 Z8.776
N4950 G3 X6.151 Z8.957 I-0.239 K0.182
N4955 G0 Z11.792
N4960 X34.92 Y12.241
N4965 Z9.484
N4970 G1 Z7.793 F500
N4975 G3 X34.531 Z7.507 I-0.3 K0
N4980 G1 X34.284 Z7.584
N4985 X33.968 Z7.655
N4990 X33.647 Z7.696
N4995 X33.369 Z7.707
N5000 X32.377 Z7.701
N5005 X31.711 Z7.679
N5010 X31.157 Z7.695
N5015 X30.607 Z7.707
N5020 X16.473 Z7.704
N5025 X15.734 Z7.679
N5030 X15.184 Z7.694
N5035 X14.633 Z7.707
N5040 X11.977 Z7.71
N5045 X11.893 Z7.728
N5050 X11.792 Z7.769
N5055 X11.648 Z7.88
N5060 X10.479 Z9.049
N5065 X10.278 Z9.231
N5070 X10.096 Z9.364
N5075 X9.863 Z9.506
N5080 X9.572 Z9.636
N5085 X9.309 Z9.718
N5090 X8.992 Z9.775
N5095 X8.759 Z9.79
N5100 X8.519 Z9.786
N5105 X8.197 Z9.742
N5110 X7.873 Z9.652
N5115 X7.563 Z9.519
N5120 X7.272 Z9.345
N5125 X7.006 Z9.132
N5130 X6.77 Z8.882
N5135 X6.69 Z8.776
N5140 G3 X6.15 Z8.956 I-0.24 K0.181
N5145 G0 Z11.792
N5150 X34.92 Y12.391
N5155 Z9.484
N5160 G1 Z7.793 F500
N5165 G3 X34.531 Z7.507 I-0.3 K0
N5170 G1 X34.284 Z7.584
N5175 X33.968 Z7.655
N5180 X33.647 Z7.696
N5185 X33.369 Z7.707
N5190 X32.669 Z7.702
N5195 X31.843 Z7.644
N5200 X31.52 Z7.645
N5205 X30.664 Z7.705
N5210 X16.696 Z7.704
N5215 X15.861 Z7.644
N5220 X15.545
N5225 X15.119 Z7.673
N5230 X14.685 Z7.704
N5235 X11.977 Z7.71
N5240 X11.885 Z7.73
N5245 X11.792 Z7.769
N5250 X11.648 Z7.88
N5255 X10.479 Z9.049
N5260 X10.278 Z9.231
N5265 X10.096 Z9.364
N5270 X9.863 Z9.506
N5275 X9.572 Z9.636
N5280 X9.309 Z9.718
N5285 X8.992 Z9.775
N5290 X8.759 Z9.79
N5295 X8.519 Z9.786
N5300 X8.197 Z9.742
N5305 X7.873 Z9.652
N5310 X7.563 Z9.519
N5315 X7.272 Z9.345
N5320 X7.006 Z9.132
N5325 X6.77 Z8.882
N5330 X6.69 Z8.776
N5335 G3 X6.15 Z8.956 I-0.24 K0.181
N5340 G0 Z11.792
N5345 X34.92 Y12.541
N5350 Z9.484
N5355 G1 Z7.793 F500
N5360 G3 X34.531 Z7.507 I-0.3 K0
N5365 G1 X34.284 Z7.584
N5370 X33.968 Z7.655
N5375 X33.647 Z7.696
N5380 X33.369 Z7.707
N5385 X32.821 Z7.701
N5390 X32.395 Z7.654
N5395 X31.95 Z7.598
N5400 X31.681 Z7.587
N5405 X31.436 Z7.599
N5410 X30.626 Z7.698
N5415 X30.297 Z7.707
N5420 X16.872 Z7.704
N5425 X16.486 Z7.666
N5430 X15.971 Z7.6
N5435 X15.731 Z7.587
N5440 X15.454 Z7.597
N5445 X15.03 Z7.65
N5450 X14.681 Z7.693
N5455 X14.386 Z7.707
N5460 X11.977 Z7.71
N5465 X11.926 Z7.72
N5470 X11.792 Z7.769
N5475 X11.648 Z7.88
N5480 X10.479 Z9.049
N5485 X10.278 Z9.231
N5490 X10.096 Z9.364
N5495 X9.863 Z9.506
N5500 X9.572 Z9.636
N5505 X9.309 Z9.718
N5510 X8.992 Z9.775
N5515 X8.759 Z9.79
N5520 X8.519 Z9.786
N5525 X8.197 Z9.742
N5530 X7.873 Z9.652
N5535 X7.563 Z9.519
N5540 X7.272 Z9.345
N5545 X7.006 Z9.132
N5550 X6.77 Z8.882
N5555 X6.69 Z8.776
N5560 G3 X6.15 Z8.956 I-0.24 K0.181
N5565 G0 Z11.792
N5570 X34.92 Y12.691
N5575 Z9.484
N5580 G1 Z7.793 F500
N5585 G3 X34.531 Z7.507 I-0.3 K0
N5590 G1 X34.284 Z7.584
N5595 X33.968 Z7.655
N5600 X33.647 Z7.696
N5605 X33.369 Z7.707
N5610 X32.94 Z7.7
N5615 X32.608 Z7.655
N5620 X32.006 Z7.537
N5625 X31.775 Z7.514
N5630 X31.598 Z7.515
N5635 X31.356 Z7.543
N5640 X30.658 Z7.677
N5645 X30.382 Z7.705
N5650 X17.127 Z7.707
N5655 X16.896 Z7.696
N5660 X16.606 Z7.655
N5665 X16.05 Z7.544
N5670 X15.821 Z7.517
N5675 X15.607 Z7.515
N5680 X15.375 Z7.54
N5685 X14.677 Z7.675
N5690 X14.401 Z7.704
N5695 X11.997 Z7.709
N5700 X11.929 Z7.719
N5705 X11.83 Z7.75
N5710 X11.743 Z7.799
N5715 X11.609 Z7.92
N5720 X10.426 Z9.101
N5725 X10.219 Z9.278
N5730 X9.918 Z9.476
N5735 X9.587 Z9.63
N5740 X9.325 Z9.713
N5745 X9.037 Z9.769
N5750 X8.824 Z9.788
N5755 X8.526 Z9.786
N5760 X8.216 Z9.745
N5765 X7.892 Z9.659
N5770 X7.58 Z9.528
N5775 X7.288 Z9.356
N5780 X7.02 Z9.144
N5785 X6.781 Z8.895
N5790 X6.69 Z8.776
N5795 G3 X6.151 Z8.957 I-0.239 K0.182
N5800 G0 Z11.792
N5805 X15.572 Y12.841
N5810 Z9.595
N5815 G1 Z7.796 F500
N5820 G3 X15.19 Z7.507 I-0.3 K0
N5825 G1 X14.741 Z7.635
N5830 X14.469 Z7.687
N5835 X14.192 Z7.707
N5840 X11.977 Z7.71
N5845 X11.902 Z7.726
N5850 X11.792 Z7.769
N5855 X11.648 Z7.88
N5860 X10.479 Z9.049
N5865 X10.278 Z9.231
N5870 X10.096 Z9.364
N5875 X9.863 Z9.506
N5880 X9.572 Z9.636
N5885 X9.309 Z9.718
N5890 X8.992 Z9.775
N5895 X8.759 Z9.79
N5900 X8.519 Z9.786
N5905 X8.197 Z9.742
N5910 X7.873 Z9.652
N5915 X7.563 Z9.519
N5920 X7.272 Z9.345
N5925 X7.006 Z9.132
N5930 X6.77 Z8.882
N5935 X6.69 Z8.776
N5940 G3 X6.15 Z8.956 I-0.24 K0.181
N5945 G0 Z11.792
N5950 X31.571
N5955 Z9.595
N5960 G1 Z7.796 F500
N5965 G3 X31.189 Z7.507 I-0.3 K0
N5970 G1 X30.717 Z7.64
N5975 X30.491 Z7.683
N5980 X30.216 Z7.707
N5985 X17.221
N5990 X16.991 Z7.694
N5995 X16.701 Z7.645
N6000 X16.259 Z7.521
N6005 X16.21 Z7.507
N6010 X16.204 Y12.842 Z7.504
N6015 X16.198 Y12.844 Z7.502
N6020 X16.191 Y12.846 Z7.499
N6025 X16.185 Y12.848 Z7.496
N6030 X16.178 Y12.849 Z7.493
N6035 X16.172 Y12.851 Z7.491
N6040 X16.166 Y12.853 Z7.488
N6045 X16.159 Y12.855 Z7.485
N6050 X16.152 Y12.858 Z7.481
N6055 X16.145 Y12.862 Z7.477
N6060 X16.138 Y12.865 Z7.473
N6065 X16.131 Y12.868 Z7.469
N6070 X16.124 Y12.872 Z7.465
N6075 X16.122 Y12.873 Z7.463
N6080 X16.118 Y12.877 Z7.46
N6085 X16.115 Y12.88 Z7.457
N6090 X16.111 Y12.884 Z7.454
N6095 X16.108 Y12.888 Z7.45
N6100 X16.104 Y12.892 Z7.447
N6105 X16.103 Y12.893 Z7.446
N6110 X16.105 Y12.9 Z7.442
N6115 X16.106 Y12.906 Z7.439
N6120 X16.107 Y12.911 Z7.436
N6125 X16.108 Y12.917 Z7.433
N6130 X16.109 Y12.924 Z7.429
N6135 X16.11 Y12.93 Z7.425
N6140 Y12.931
N6145 X16.106 Y12.935 Z7.42
N6150 X16.101 Y12.94 Z7.416
N6155 X16.097 Y12.944 Z7.412
N6160 X16.092 Y12.948 Z7.408
N6165 X16.088 Y12.952 Z7.403
N6170 X16.086 Y12.953 Z7.402
N6175 X16.08 Y12.956 Z7.398
N6180 X16.075 Y12.958 Z7.394
N6185 X16.069 Y12.96 Z7.39
N6190 X16.063 Y12.963 Z7.386
N6195 X16.057 Y12.965 Z7.383
N6200 X16.051 Y12.968 Z7.379
N6205 X16.045 Y12.97 Z7.375
N6210 X16.04 Y12.973 Z7.372
N6215 X16.024 Y12.976 Z7.364
N6220 X16.009 Y12.979 Z7.357
N6225 X15.994 Y12.982 Z7.349
N6230 X15.979 Y12.986 Z7.342
N6235 X15.959 Y12.987 Z7.334
N6240 X15.957 Z7.333
N6245 X15.947 Y12.988 Z7.33
N6250 X15.931 Y12.989 Z7.325
N6255 X15.915 Y12.99 Z7.32
N6260 X15.902 Z7.316
N6265 X15.889 Z7.313
N6270 X15.873 Z7.309
N6275 X15.872 Z7.308
N6280 X15.848 Z7.304
N6285 X15.828 Z7.301
N6290 X15.808 Z7.297
N6295 X15.796 Z7.295
N6300 X15.795
N6305 X15.741 Z7.291
N6310 X15.719 Z7.289
N6315 X15.645 Z7.291
N6320 X15.643
N6325 X15.615 Z7.295
N6330 X15.582 Z7.299
N6335 X15.567 Z7.301
N6340 X15.565
N6345 X15.562 Z7.302
N6350 X15.56
N6355 X14.995 Z7.508
N6360 X14.734 Z7.603
N6365 X14.467 Z7.671
N6370 X14.285 Z7.698
N6375 X14.1 Z7.707
N6380 X11.977 Z7.71
N6385 X11.825 Z7.753
N6390 X11.752 Z7.793
N6395 X11.618 Z7.911
N6400 X10.435 Z9.093
N6405 X10.229 Z9.27
N6410 X9.968 Z9.447
N6415 X9.726 Z9.57
N6420 X9.51 Z9.657
N6425 X9.249 Z9.732
N6430 X8.976 Z9.777
N6435 X8.675 Z9.792
N6440 X8.464 Z9.78
N6445 X8.216 Z9.745
N6450 X7.892 Z9.659
N6455 X7.58 Z9.528
N6460 X7.288 Z9.356
N6465 X7.02 Z9.144
N6470 X6.781 Z8.895
N6475 X6.69 Z8.776
N6480 G3 X6.151 Z8.957 I-0.239 K0.182
N6485 G0 Z11.792
N6490 X34.92 Y12.841
N6495 Z9.484
N6500 G1 Z7.793 F500
N6505 G3 X34.531 Z7.507 I-0.3 K0
N6510 G1 X34.284 Z7.584
N6515 X33.968 Z7.655
N6520 X33.647 Z7.696
N6525 X33.26 Z7.707
N6530 X33.034 Z7.699
N6535 X32.786 Z7.663
N6540 X32.461 Z7.582
N6545 X32.212 Z7.507
N6550 X32.208 Y12.842 Z7.505
N6555 X32.206 Z7.504
N6560 X32.204 Y12.843 Z7.503
N6565 X32.196 Y12.845 Z7.5
N6570 X32.188 Y12.848 Z7.496
N6575 X32.18 Y12.85 Z7.493
N6580 X32.172 Y12.853 Z7.489
N6585 X32.163 Y12.855 Z7.486
N6590 X32.155 Y12.858 Z7.482
N6595 X32.147 Y12.86 Z7.478
N6600 X32.142 Y12.864 Z7.475
N6605 X32.138 Y12.867 Z7.472
N6610 X32.133 Y12.87 Z7.469
N6615 X32.128 Y12.873 Z7.465
N6620 X32.124 Y12.876 Z7.462
N6625 X32.119 Y12.88 Z7.459
N6630 X32.114 Y12.883 Z7.456
N6635 X32.11 Y12.886 Z7.452
N6640 X32.109 Y12.892 Z7.448
N6645 Y12.898 Z7.445
N6650 Y12.905 Z7.441
N6655 Y12.911 Z7.437
N6660 X32.11 Y12.917 Z7.433
N6665 Y12.924 Z7.429
N6670 X32.111 Y12.93 Z7.425
N6675 Y12.932
N6680 X32.106 Y12.936 Z7.42
N6685 X32.102 Y12.94 Z7.416
N6690 X32.097 Y12.944 Z7.412
N6695 X32.093 Y12.948 Z7.408
N6700 X32.088 Y12.952 Z7.403
N6705 X32.087 Y12.953 Z7.402
N6710 X32.081 Y12.956 Z7.398
N6715 X32.075 Y12.958 Z7.395
N6720 X32.069 Y12.961 Z7.391
N6725 X32.063 Y12.963 Z7.387
N6730 X32.057 Y12.965 Z7.383
N6735 X32.052 Y12.968 Z7.379
N6740 X32.046 Y12.97 Z7.376
N6745 X32.04 Y12.973 Z7.372
N6750 X32.033 Y12.974 Z7.368
N6755 X32.031 Y12.975 Z7.367
N6760 X32.025 Y12.976 Z7.364
N6765 X32.01 Y12.979 Z7.357
N6770 X31.995 Y12.983 Z7.35
N6775 X31.98 Y12.986 Z7.342
N6780 X31.964 Y12.987 Z7.336
N6785 X31.949 Y12.988 Z7.33
N6790 X31.939 Y12.989 Z7.326
N6795 X31.937
N6800 X31.933 Z7.325
N6805 X31.917 Y12.99 Z7.32
N6810 X31.904 Z7.317
N6815 X31.89 Z7.313
N6820 X31.877 Z7.31
N6825 X31.858 Z7.305
N6830 X31.856
N6835 X31.829 Z7.301
N6840 X31.802 Z7.297
N6845 X31.78 Z7.293
N6850 X31.715 Z7.289
N6855 X31.705
N6860 X31.63 Z7.292
N6865 X31.602 Z7.296
N6870 X31.579 Z7.299
N6875 X31.577 Z7.3
N6880 X30.996 Z7.507
N6885 X30.693 Z7.615
N6890 X30.47 Z7.671
N6895 X30.288 Z7.698
N6900 X30.007 Z7.707
N6905 X17.205 Z7.705
N6910 X16.941 Z7.673
N6915 X16.697 Z7.613
N6920 X16.405 Z7.507
N6925 X16.358 Z7.498
N6930 X16.311 Z7.505
N6935 X16.268 Z7.525
N6940 X16.234 Z7.559
N6945 X16.212 Z7.601
N6950 X16.204 Z7.648
N6955 X16.197 Y12.991 Z7.695
N6960 X16.176 Y12.994 Z7.736
N6965 X16.143 Y12.999 Z7.77
N6970 X16.101 Y13.004 Z7.791
N6975 X16.055 Y13.01 Z7.798
N6980 X15.227 Y13.121
N6985 X15.181 Y13.127 Z7.791
N6990 X15.14 Y13.132 Z7.77
N6995 X15.107 Y13.137 Z7.736
N7000 X15.086 Y13.14 Z7.695
N7005 X15.079 Z7.648
N7010 Z7.646
N7015 X15.071 Z7.598
N7020 X15.048 Z7.555
N7025 X15.012 Z7.522
N7030 X14.968 Z7.501
N7035 X14.92 Z7.496
N7040 X14.872 Z7.507
N7045 X14.618 Z7.611
N7050 X14.353 Z7.679
N7055 X14.17 Z7.702
N7060 X13.663 Z7.707
N7065 X12.051
N7070 X11.956 Z7.713
N7075 X11.872 Z7.735
N7080 X11.791 Z7.769
N7085 X11.715 Z7.82
N7090 X10.412 Z9.114
N7095 X10.203 Z9.291
N7100 X9.977 Z9.441
N7105 X9.819 Z9.527
N7110 X9.565 Z9.638
N7115 X9.303 Z9.719
N7120 X9.031 Z9.77
N7125 X8.8 Z9.789
N7130 X8.564
N7135 X8.216 Z9.745
N7140 X7.892 Z9.659
N7145 X7.58 Z9.528
N7150 X7.288 Z9.356
N7155 X7.02 Z9.144
N7160 X6.781 Z8.895
N7165 X6.69 Z8.776
N7170 G3 X6.151 Z8.957 I-0.239 K0.182
N7175 G0 Z11.792
N7180 X34.92 Y12.99
N7185 Z9.484
N7190 G1 Z7.793 F500
N7195 G3 X34.531 Z7.507 I-0.3 K0
N7200 G1 X34.284 Z7.584
N7205 X33.968 Z7.655
N7210 X33.647 Z7.696
N7215 X33.298 Z7.707
N7220 X33.109 Z7.697
N7225 X32.861 Z7.656
N7230 X32.618 Z7.587
N7235 X32.404 Z7.507
N7240 X32.357 Z7.498
N7245 X32.309 Z7.504
N7250 X32.266 Z7.524
N7255 X32.231 Z7.558
N7260 X32.209 Z7.6
N7265 X32.201 Z7.648
N7270 X32.194 Y12.991 Z7.694
N7275 X32.173 Y12.994 Z7.736
N7280 X32.14 Y12.999 Z7.769
N7285 X32.098 Y13.004 Z7.79
N7290 X32.053 Y13.01 Z7.798
N7295 X31.227 Y13.121
N7300 X31.181 Y13.127 Z7.79
N7305 X31.14 Y13.132 Z7.769
N7310 X31.107 Y13.137 Z7.736
N7315 X31.086 Y13.14 Z7.694
N7320 X31.079 Z7.648
N7325 Z7.646
N7330 X31.071 Z7.598
N7335 X31.048 Z7.555
N7340 X31.012 Z7.522
N7345 X30.968 Z7.501
N7350 X30.919 Z7.496
N7355 X30.872 Z7.507
N7360 X30.618 Z7.611
N7365 X30.353 Z7.679
N7370 X30.17 Z7.702
N7375 X29.663 Z7.707
N7380 X17.251 Z7.704
N7385 X17 Z7.67
N7390 X16.757 Z7.602
N7395 X16.529 Z7.507
N7400 X16.489 Z7.497
N7405 X16.447 Z7.498
N7410 X16.407 Z7.511
N7415 X16.372 Z7.534
N7420 X16.345 Z7.566
N7425 X16.328 Z7.604
N7430 X16.322 Z7.646
N7435 X16.315 Y13.141 Z7.692
N7440 X16.293 Y13.144 Z7.734
N7445 X16.26 Y13.147 Z7.767
N7450 X16.219 Y13.152 Z7.788
N7455 X16.173 Y13.157 Z7.796
N7460 X15.148 Y13.274
N7465 X15.102 Y13.279 Z7.788
N7470 X15.061 Y13.284 Z7.767
N7475 X15.028 Y13.287 Z7.734
N7480 X15.006 Y13.29 Z7.692
N7485 X14.999 Z7.646
N7490 Z7.644
N7495 G3 X14.786 Z7.508 I-0.15 K0
N7500 G1 X14.62 Z7.585
N7505 X14.448 Z7.644
N7510 X14.269 Z7.684
N7515 X14.086 Z7.705
N7520 X11.977 Z7.71
N7525 X11.914 Z7.723
N7530 X11.792 Z7.769
N7535 X11.648 Z7.88
N7540 X10.479 Z9.049
N7545 X10.278 Z9.231
N7550 X10.096 Z9.364
N7555 X9.863 Z9.506
N7560 X9.572 Z9.636
N7565 X9.309 Z9.718
N7570 X8.992 Z9.775
N7575 X8.759 Z9.79
N7580 X8.519 Z9.786
N7585 X8.197 Z9.742
N7590 X7.873 Z9.652
N7595 X7.563 Z9.519
N7600 X7.272 Z9.345
N7605 X7.006 Z9.132
N7610 X6.77 Z8.882
N7615 X6.69 Z8.776
N7620 G3 X6.15 Z8.956 I-0.24 K0.181
N7625 G0 Z11.792
N7630 X34.92 Y13.14
N7635 Z9.484
N7640 G1 Z7.793 F500
N7645 G3 X34.531 Z7.507 I-0.3 K0
N7650 G1 X34.284 Z7.584
N7655 X33.968 Z7.655
N7660 X33.647 Z7.696
N7665 X33.356 Z7.707
N7670 X33.167 Z7.697
N7675 X32.919 Z7.651
N7680 X32.678 Z7.572
N7685 X32.529 Z7.508
N7690 G3 X32.32 Z7.645 I-0.06 K0.138
N7695 G1 X32.312 Y13.141 Z7.692
N7700 X32.291 Y13.144 Z7.733
N7705 X32.258 Y13.147 Z7.767
N7710 X32.217 Y13.152 Z7.788
N7715 X32.171 Y13.157 Z7.795
N7720 X31.15 Y13.274
N7725 X31.103 Y13.279 Z7.788
N7730 X31.062 Y13.283 Z7.767
N7735 X31.029 Y13.287 Z7.733
N7740 X31.008 Y13.29 Z7.692
N7745 X31.001 Z7.645
N7750 Z7.643
N7755 G3 X30.787 Z7.507 I-0.15 K0
N7760 G1 X30.62 Z7.585
N7765 X30.403 Z7.656
N7770 X30.177 Z7.697
N7775 X29.898 Z7.707
N7780 X17.294 Z7.704
N7785 X17.044 Z7.667
N7790 X16.802 Z7.593
N7795 X16.613 Z7.508
N7800 G3 X16.401 Z7.645 I-0.062 K0.137
N7805 G1 X16.394 Y13.291 Z7.691
N7810 X16.373 Y13.293 Z7.733
N7815 X16.34 Y13.297 Z7.766
N7820 X16.298 Y13.301 Z7.787
N7825 X16.252 Y13.306 Z7.795
N7830 X15.097 Y13.425
N7835 X15.05 Y13.43 Z7.787
N7840 X15.009 Y13.434 Z7.766
N7845 X14.976 Y13.438 Z7.733
N7850 X14.955 Y13.44 Z7.691
N7855 X14.947 Z7.645
N7860 Z7.644
N7865 G3 X14.734 Z7.508 I-0.15 K0
N7870 G1 X14.528 Z7.603
N7875 X14.31 Z7.67
N7880 X14.129 Z7.699
N7885 X13.848 Z7.707
N7890 X11.977 Z7.71
N7895 X11.886 Z7.73
N7900 X11.792 Z7.769
N7905 X11.648 Z7.88
N7910 X10.479 Z9.049
N7915 X10.278 Z9.231
N7920 X10.096 Z9.364
N7925 X9.863 Z9.506
N7930 X9.572 Z9.636
N7935 X9.309 Z9.718
N7940 X8.992 Z9.775
N7945 X8.759 Z9.79
N7950 X8.519 Z9.786
N7955 X8.197 Z9.742
N7960 X7.873 Z9.652
N7965 X7.563 Z9.519
N7970 X7.272 Z9.345
N7975 X7.006 Z9.132
N7980 X6.77 Z8.882
N7985 X6.69 Z8.776
N7990 G3 X6.15 Z8.956 I-0.24 K0.181
N7995 G0 Z11.79
N8000 X34.92 Y13.29
N8005 Z9.484
N8010 G1 Z7.793 F500
N8015 G3 X34.531 Z7.507 I-0.3 K0
N8020 G1 X34.284 Z7.584
N8025 X33.968 Z7.655
N8030 X33.647 Z7.696
N8035 X33.369 Z7.707
N8040 X33.128 Z7.684
N8045 X32.883 Z7.623
N8050 X32.651 Z7.526
N8055 X32.612 Z7.507
N8060 G3 X32.395 Z7.641 I-0.067 K0.134
N8065 G1 Z7.642
N8070 X32.388 Y13.291 Z7.689
N8075 X32.367 Y13.293 Z7.73
N8080 X32.334 Y13.297 Z7.764
N8085 X32.292 Y13.301 Z7.785
N8090 X32.246 Y13.306 Z7.792
N8095 X31.099 Y13.425
N8100 X31.053 Y13.43 Z7.785
N8105 X31.012 Y13.434 Z7.764
N8110 X30.979 Y13.438 Z7.73
N8115 X30.958 Y13.44 Z7.689
N8120 X30.95 Z7.642
N8125 G3 X30.735 Z7.507 I-0.15 K0
N8130 G1 X30.573 Z7.586
N8135 X30.401 Z7.646
N8140 X30.222 Z7.687
N8145 X30.039 Z7.706
N8150 X17.317 Z7.703
N8155 X17.074 Z7.666
N8160 X16.912 Z7.618
N8165 X16.707 Z7.529
N8170 X16.667 Z7.508
N8175 G3 X16.446 Z7.64 I-0.072 K0.132
N8180 G1 Z7.643
N8185 X16.439 Y13.441 Z7.689
N8190 X16.417 Y13.443 Z7.731
N8195 X16.384 Y13.447 Z7.764
N8200 X16.343 Y13.451 Z7.785
N8205 X16.297 Y13.455 Z7.793
N8210 X15.069 Y13.576
N8215 X15.023 Y13.58 Z7.785
N8220 X14.981 Y13.584 Z7.764
N8225 X14.948 Y13.588 Z7.731
N8230 X14.927 Y13.59 Z7.689
N8235 X14.92 Z7.643
N8240 G3 X14.705 Z7.508 I-0.15 K0
N8245 G1 X14.513 Z7.6
N8250 X14.34 Z7.657
N8255 X14.16 Z7.693
N8260 X13.935 Z7.707
N8265 X11.977 Z7.71
N8270 X11.87 Z7.735
N8275 X11.792 Z7.769
N8280 X11.648 Z7.88
N8285 X10.479 Z9.049
N8290 X10.278 Z9.231
N8295 X10.096 Z9.364
N8300 X9.863 Z9.506
N8305 X9.572 Z9.636
N8310 X9.309 Z9.718
N8315 X8.992 Z9.775
N8320 X8.759 Z9.79
N8325 X8.519 Z9.786
N8330 X8.197 Z9.742
N8335 X7.873 Z9.652
N8340 X7.563 Z9.519
N8345 X7.272 Z9.345
N8350 X7.006 Z9.132
N8355 X6.77 Z8.882
N8360 X6.69 Z8.776
N8365 G3 X6.15 Z8.956 I-0.24 K0.181
N8370 G0 Z11.79
N8375 X34.92 Y13.44
N8380 Z9.484
N8385 G1 Z7.793 F500
N8390 G3 X34.531 Z7.507 I-0.3 K0
N8395 G1 X34.284 Z7.584
N8400 X33.968 Z7.655
N8405 X33.647 Z7.696
N8410 X33.369 Z7.705
N8415 X33.158 Z7.682
N8420 X32.994 Z7.644
N8425 X32.834 Z7.588
N8430 X32.666 Z7.507
N8435 G3 X32.452 Z7.642 I-0.065 K0.135
N8440 G1 Z7.643
N8445 X32.444 Y13.441 Z7.69
N8450 X32.423 Y13.443 Z7.731
N8455 X32.39 Y13.446 Z7.765
N8460 X32.348 Y13.451 Z7.786
N8465 X32.302 Y13.455 Z7.793
N8470 X31.068 Y13.576
N8475 X31.022 Y13.58 Z7.786
N8480 X30.981 Y13.584 Z7.765
N8485 X30.948 Y13.588 Z7.731
N8490 X30.926 Y13.59 Z7.69
N8495 X30.919 Z7.643
N8500 G3 X30.705 Z7.508 I-0.15 K0
N8505 G1 X30.498 Z7.606
N8510 X30.324 Z7.661
N8515 X30.144 Z7.695
N8520 X29.909 Z7.707
N8525 X17.348 Z7.704
N8530 X17.173 Z7.682
N8535 X17.009 Z7.643
N8540 X16.85 Z7.585
N8545 X16.694 Z7.508
N8550 G3 X16.477 Z7.642 I-0.067 K0.134
N8555 G1 X16.47 Y13.591 Z7.688
N8560 X16.449 Y13.593 Z7.73
N8565 X16.416 Y13.596 Z7.763
N8570 X16.374 Y13.6 Z7.785
N8575 X16.328 Y13.605 Z7.792
N8580 X15.067 Y13.726
N8585 X15.02 Y13.731 Z7.785
N8590 X14.979 Y13.735 Z7.763
N8595 X14.946 Y13.738 Z7.73
N8600 X14.925 Y13.74 Z7.688
N8605 X14.917 Z7.642
N8610 G3 X14.701 Z7.508 I-0.15 K0
N8615 G1 X14.538 Z7.588
N8620 X14.367 Z7.649
N8625 X14.189 Z7.688
N8630 X14.005 Z7.706
N8635 X11.977 Z7.71
N8640 X11.866 Z7.737
N8645 X11.792 Z7.769
N8650 X11.648 Z7.88
N8655 X10.479 Z9.049
N8660 X10.278 Z9.231
N8665 X10.096 Z9.364
N8670 X9.863 Z9.506
N8675 X9.572 Z9.636
N8680 X9.309 Z9.718
N8685 X8.992 Z9.775
N8690 X8.759 Z9.79
N8695 X8.519 Z9.786
N8700 X8.197 Z9.742
N8705 X7.873 Z9.652
N8710 X7.563 Z9.519
N8715 X7.272 Z9.345
N8720 X7.006 Z9.132
N8725 X6.77 Z8.882
N8730 X6.69 Z8.776
N8735 G3 X6.15 Z8.956 I-0.24 K0.181
N8740 G0 Z11.79
N8745 X34.92 Y13.59
N8750 Z9.484
N8755 G1 Z7.793 F500
N8760 G3 X34.531 Z7.507 I-0.3 K0
N8765 G1 X34.284 Z7.584
N8770 X33.968 Z7.655
N8775 X33.647 Z7.696
N8780 X33.369 Z7.704
N8785 X33.174 Z7.681
N8790 X33.01 Z7.641
N8795 X32.85 Z7.583
N8800 X32.697 Z7.508
N8805 G3 X32.481 Z7.642 I-0.067 K0.134
N8810 G1 X32.473 Y13.591 Z7.688
N8815 X32.452 Y13.593 Z7.73
N8820 X32.419 Y13.596 Z7.763
N8825 X32.378 Y13.6 Z7.785
N8830 X32.331 Y13.605 Z7.792
N8835 X31.067 Y13.726
N8840 X31.02 Y13.731 Z7.785
N8845 X30.979 Y13.735 Z7.763
N8850 X30.946 Y13.738 Z7.73
N8855 X30.925 Y13.74 Z7.688
N8860 X30.917 Z7.642
N8865 G3 X30.701 Z7.508 I-0.15 K0
N8870 G1 X30.538 Z7.588
N8875 X30.367 Z7.649
N8880 X30.189 Z7.688
N8885 X30.005 Z7.706
N8890 X17.347 Z7.704
N8895 X17.175 Z7.682
N8900 X17.011 Z7.642
N8905 X16.852 Z7.584
N8910 X16.7 Z7.508
N8915 G3 X16.483 Z7.642 I-0.067 K0.134
N8920 G1 X16.476 Y13.741 Z7.689
N8925 X16.454 Y13.743 Z7.731
N8930 X16.421 Y13.746 Z7.764
N8935 X16.38 Y13.75 Z7.785
N8940 X16.334 Y13.755 Z7.792
N8945 X15.083 Y13.876
N8950 X15.037 Y13.88 Z7.785
N8955 X14.995 Y13.884 Z7.764
N8960 X14.962 Y13.888 Z7.731
N8965 X14.941 Y13.89 Z7.689
N8970 X14.934 Z7.642
N8975 G3 X14.717 Z7.508 I-0.15 K0
N8980 G1 X14.555 Z7.588
N8985 X14.383 Z7.648
N8990 X14.204 Z7.688
N8995 X14.021 Z7.706
N9000 X11.977 Z7.71
N9005 X11.875 Z7.734
N9010 X11.792 Z7.769
N9015 X11.648 Z7.88
N9020 X10.479 Z9.049
N9025 X10.278 Z9.231
N9030 X10.096 Z9.364
N9035 X9.863 Z9.506
N9040 X9.572 Z9.636
N9045 X9.309 Z9.718
N9050 X8.992 Z9.775
N9055 X8.759 Z9.79
N9060 X8.519 Z9.786
N9065 X8.197 Z9.742
N9070 X7.873 Z9.652
N9075 X7.563 Z9.519
N9080 X7.272 Z9.345
N9085 X7.006 Z9.132
N9090 X6.77 Z8.882
N9095 X6.69 Z8.776
N9100 G3 X6.15 Z8.956 I-0.24 K0.181
N9105 G0 Z11.79
N9110 X34.92 Y13.74
N9115 Z9.484
N9120 G1 Z7.793 F500
N9125 G3 X34.531 Z7.507 I-0.3 K0
N9130 G1 X34.284 Z7.584
N9135 X33.968 Z7.655
N9140 X33.647 Z7.696
N9145 X33.369 Z7.704
N9150 X33.176 Z7.681
N9155 X33.012 Z7.641
N9160 X32.853 Z7.582
N9165 X32.702 Z7.507
N9170 G3 X32.485 Z7.641 I-0.067 K0.134
N9175 G1 Z7.643
N9180 X32.478 Y13.741 Z7.689
N9185 X32.457 Y13.743 Z7.731
N9190 X32.424 Y13.746 Z7.764
N9195 X32.382 Y13.75 Z7.786
N9200 X32.336 Y13.755 Z7.793
N9205 X31.082 Y13.876
N9210 X31.035 Y13.88 Z7.786
N9215 X30.994 Y13.885 Z7.764
N9220 X30.961 Y13.888 Z7.731
N9225 X30.94 Y13.89 Z7.689
N9230 X30.932 Z7.643
N9235 G3 X30.717 Z7.508 I-0.15 K0
N9240 G1 X30.529 Z7.598
N9245 X30.356 Z7.655
N9250 X30.177 Z7.692
N9255 X29.941 Z7.707
N9260 X17.346 Z7.704
N9265 X17.165 Z7.682
N9270 X17.001 Z7.643
N9275 X16.841 Z7.585
N9280 X16.682 Z7.508
N9285 G3 X16.466 Z7.643 I-0.066 K0.135
N9290 G1 X16.459 Y13.891 Z7.689
N9295 X16.438 Y13.893 Z7.731
N9300 X16.405 Y13.897 Z7.764
N9305 X16.363 Y13.901 Z7.785
N9310 X16.317 Y13.905 Z7.793
N9315 X15.124 Y14.025
N9320 X15.078 Y14.03 Z7.785
N9325 X15.036 Y14.034 Z7.764
N9330 X15.003 Y14.038 Z7.731
N9335 X14.982 Y14.04 Z7.689
N9340 X14.975 Z7.643
N9345 G3 X14.76 Z7.507 I-0.15 K0
N9350 G1 X14.596 Z7.585
N9355 X14.425 Z7.645
N9360 X14.246 Z7.685
N9365 X14.063 Z7.705
N9370 X11.977 Z7.71
N9375 X11.899 Z7.727
N9380 X11.792 Z7.769
N9385 X11.648 Z7.88
N9390 X10.479 Z9.049
N9395 X10.278 Z9.231
N9400 X10.096 Z9.364
N9405 X9.863 Z9.506
N9410 X9.572 Z9.636
N9415 X9.309 Z9.718
N9420 X8.992 Z9.775
N9425 X8.759 Z9.79
N9430 X8.519 Z9.786
N9435 X8.197 Z9.742
N9440 X7.873 Z9.652
N9445 X7.563 Z9.519
N9450 X7.272 Z9.345
N9455 X7.006 Z9.132
N9460 X6.77 Z8.882
N9465 X6.69 Z8.776
N9470 G3 X6.15 Z8.956 I-0.24 K0.181
N9475 G0 Z11.79
N9480 X34.92 Y13.89
N9485 Z9.484
N9490 G1 Z7.793 F500
N9495 G3 X34.531 Z7.507 I-0.3 K0
N9500 G1 X34.284 Z7.584
N9505 X33.968 Z7.655
N9510 X33.647 Z7.696
N9515 X33.369 Z7.704
N9520 X33.166 Z7.681
N9525 X33.002 Z7.642
N9530 X32.842 Z7.585
N9535 X32.684 Z7.508
N9540 G3 X32.468 Z7.642 I-0.066 K0.135
N9545 G1 Z7.643
N9550 X32.461 Y13.891 Z7.689
N9555 X32.44 Y13.893 Z7.731
N9560 X32.407 Y13.897 Z7.764
N9565 X32.365 Y13.901 Z7.785
N9570 X32.319 Y13.905 Z7.793
N9575 X31.124 Y14.025
N9580 X31.078 Y14.03 Z7.785
N9585 X31.036 Y14.034 Z7.764
N9590 X31.003 Y14.038 Z7.731
N9595 X30.982 Y14.04 Z7.689
N9600 X30.975 Z7.643
N9605 G3 X30.76 Z7.507 I-0.15 K0
N9610 G1 X30.597 Z7.585
N9615 X30.425 Z7.645
N9620 X30.246 Z7.685
N9625 X30.063 Z7.705
N9630 X17.346 Z7.706
N9635 X17.142 Z7.683
N9640 X16.937 Z7.633
N9645 X16.738 Z7.557
N9650 X16.641 Z7.508
N9655 G3 X16.424 Z7.642 I-0.067 K0.134
N9660 G1 Z7.645
N9665 X16.417 Y14.041 Z7.692
N9670 X16.395 Y14.044 Z7.734
N9675 X16.362 Y14.047 Z7.767
N9680 X16.321 Y14.052 Z7.788
N9685 X16.275 Y14.057 Z7.795
N9690 X15.186 Y14.174
N9695 X15.14 Y14.179 Z7.788
N9700 X15.099 Y14.184 Z7.767
N9705 X15.066 Y14.187 Z7.734
N9710 X15.044 Y14.19 Z7.692
N9715 X15.037 Z7.645
N9720 G3 X14.828 Z7.508 I-0.15 K0
N9725 G1 X14.618 Z7.598
N9730 X14.398 Z7.664
N9735 X14.217 Z7.695
N9740 X13.981 Z7.707
N9745 X11.977 Z7.71
N9750 X11.811 Z7.759
N9755 X11.648 Z7.88
N9760 X10.479 Z9.049
N9765 X10.278 Z9.231
N9770 X10.096 Z9.364
N9775 X9.863 Z9.506
N9780 X9.572 Z9.636
N9785 X9.309 Z9.718
N9790 X8.992 Z9.775
N9795 X8.759 Z9.79
N9800 X8.519 Z9.786
N9805 X8.197 Z9.742
N9810 X7.873 Z9.652
N9815 X7.563 Z9.519
N9820 X7.272 Z9.345
N9825 X7.006 Z9.132
N9830 X6.77 Z8.882
N9835 X6.69 Z8.776
N9840 G3 X6.15 Z8.956 I-0.24 K0.181
N9845 G0 Z11.79
N9850 X34.92 Y14.04
N9855 Z9.484
N9860 G1 Z7.793 F500
N9865 G3 X34.531 Z7.507 I-0.3 K0
N9870 G1 X34.284 Z7.584
N9875 X33.968 Z7.655
N9880 X33.647 Z7.696
N9885 X33.369 Z7.706
N9890 X33.143 Z7.683
N9895 X32.979 Z7.645
N9900 X32.74 Z7.557
N9905 X32.639 Z7.507
N9910 G3 X32.423 Z7.641 I-0.067 K0.134
N9915 G1 Z7.645
N9920 X32.415 Y14.041 Z7.691
N9925 X32.394 Y14.044 Z7.733
N9930 X32.361 Y14.047 Z7.766
N9935 X32.32 Y14.052 Z7.788
N9940 X32.274 Y14.057 Z7.795
N9945 X31.186 Y14.174
N9950 X31.14 Y14.179 Z7.788
N9955 X31.099 Y14.184 Z7.766
N9960 X31.066 Y14.187 Z7.733
N9965 X31.045 Y14.19 Z7.691
N9970 X31.037 Z7.645
N9975 G3 X30.829 Z7.507 I-0.15 K0
N9980 G1 X30.598 Z7.605
N9985 X30.401 Z7.664
N9990 X30.174 Z7.7
N9995 X29.833 Z7.707
N10000 X17.316 Z7.706
N10005 X17.106 Z7.685
N10010 X16.86 Z7.625
N10015 X16.631 Z7.535
N10020 X16.572 Z7.508
N10025 G3 X16.357 Z7.643 I-0.064 K0.136
N10030 G1 Z7.647
N10035 X16.35 Y14.191 Z7.693
N10040 X16.329 Y14.194 Z7.735
N10045 X16.296 Y14.198 Z7.768
N10050 X16.255 Y14.203 Z7.79
N10055 X16.209 Y14.209 Z7.797
N10060 X15.286 Y14.322
N10065 X15.24 Y14.328 Z7.79
N10070 X15.199 Y14.333 Z7.768
N10075 X15.166 Y14.337 Z7.735
N10080 X15.145 Y14.34 Z7.693
N10085 X15.137 Z7.647
N10090 X15.13 Z7.599
N10095 X15.107 Z7.557
N10100 X15.072 Z7.523
N10105 X15.028 Z7.503
N10110 X14.98 Z7.497
N10115 X14.933 Z7.507
N10120 X14.683 Z7.604
N10125 X14.416 Z7.674
N10130 X14.234 Z7.7
N10135 X13.884 Z7.707
N10140 X11.988 Z7.709
N10145 X11.927 Z7.72
N10150 X11.822 Z7.755
N10155 X11.751 Z7.793
N10160 X11.617 Z7.911
N10165 X10.435 Z9.093
N10170 X10.229 Z9.271
N10175 X9.968 Z9.447
N10180 X9.726 Z9.57
N10185 X9.51 Z9.657
N10190 X9.248 Z9.732
N10195 X8.976 Z9.777
N10200 X8.68 Z9.792
N10205 X8.464 Z9.78
N10210 X8.216 Z9.745
N10215 X7.892 Z9.659
N10220 X7.58 Z9.528
N10225 X7.288 Z9.356
N10230 X7.02 Z9.144
N10235 X6.781 Z8.895
N10240 X6.69 Z8.776
N10245 G3 X6.151 Z8.957 I-0.239 K0.182
N10250 G0 Z11.79
N10255 X34.92 Y14.19
N10260 Z9.484
N10265 G1 Z7.793 F500
N10270 G3 X34.531 Z7.507 I-0.3 K0
N10275 G1 X34.284 Z7.584
N10280 X33.968 Z7.655
N10285 X33.647 Z7.696
N10290 X33.324 Z7.706
N10295 X33.106 Z7.685
N10300 X32.86 Z7.625
N10305 X32.629 Z7.535
N10310 X32.572 Z7.507
N10315 G3 X32.356 Z7.642 I-0.066 K0.135
N10320 G1 Z7.647
N10325 X32.349 Y14.191 Z7.693
N10330 X32.327 Y14.194 Z7.735
N10335 X32.295 Y14.198 Z7.768
N10340 X32.253 Y14.203 Z7.79
N10345 X32.207 Y14.209 Z7.797
N10350 X31.286 Y14.322
N10355 X31.24 Y14.328 Z7.79
N10360 X31.198 Y14.333 Z7.768
N10365 X31.165 Y14.337 Z7.735
N10370 X31.144 Y14.34 Z7.693
N10375 X31.137 Z7.647
N10380 X31.129 Z7.599
N10385 X31.107 Z7.557
N10390 X31.072 Z7.523
N10395 X31.028 Z7.503
N10400 X30.98 Z7.497
N10405 X30.933 Z7.507
N10410 X30.669 Z7.609
N10415 X30.401 Z7.677
N10420 X30.218 Z7.701
N10425 X29.695 Z7.707
N10430 X17.253 Z7.706
N10435 X17.056 Z7.686
N10440 X16.809 Z7.633
N10445 X16.57 Z7.551
N10450 X16.469 Z7.507
N10455 X16.461 Y14.343 Z7.505
N10460 X16.45 Y14.347 Z7.502
N10465 X16.439 Y14.351 Z7.498
N10470 X16.427 Y14.355 Z7.495
N10475 X16.416 Y14.359 Z7.491
N10480 X16.408 Y14.361 Z7.489
N10485 X16.378 Y14.386 Z7.486
N10490 X16.38 Y14.392 Z7.49
N10495 X16.383 Y14.398 Z7.493
N10500 X16.385 Y14.404 Z7.496
N10505 X16.387 Y14.41 Z7.5
N10510 X16.389 Y14.415 Z7.503
N10515 X16.392 Y14.42 Z7.506
N10520 X16.394 Y14.425 Z7.509
N10525 X16.396 Y14.43 Z7.512
N10530 X16.377 Y14.452 Z7.514
N10535 X16.36 Y14.459 Z7.511
N10540 X16.343 Y14.467 Z7.508
N10545 X16.332 Y14.472 Z7.506
N10550 X16.316 Y14.475 Z7.501
N10555 X16.311 Y14.476 Z7.5
N10560 X16.309 Y14.477 Z7.499
N10565 X16.293 Y14.48 Z7.496
N10570 X16.278 Y14.484 Z7.492
N10575 X16.27 Y14.486 Z7.49
N10580 X16.237 Y14.488 Z7.48
N10585 X16.204 Y14.49 Z7.469
N10590 X16.195 Z7.466
N10595 X16.193 Z7.465
N10600 X16.192
N10605 X16.18 Z7.461
N10610 X16.168 Z7.457
N10615 X16.155 Z7.453
N10620 X16.143 Z7.449
N10625 X16.131 Z7.445
N10630 X16.119 Z7.441
N10635 X16.107 Z7.437
N10640 X16.095 Z7.433
N10645 X16.086 Z7.43
N10650 X16.084 Z7.429
N10655 X16.082
N10660 X16.07 Z7.425
N10665 X16.058 Z7.422
N10670 X16.046 Z7.418
N10675 X16.034 Z7.415
N10680 X16.022 Z7.411
N10685 X16.01 Z7.408
N10690 X15.989 Z7.402
N10695 X15.986 Z7.401
N10700 X15.984 Z7.4
N10705 X15.968 Z7.397
N10710 X15.955 Z7.394
N10715 X15.941 Z7.391
N10720 X15.927 Z7.388
N10725 X15.914 Z7.385
N10730 X15.893 Z7.38
N10735 X15.845 Z7.373
N10740 X15.818 Z7.369
N10745 X15.806 Z7.367
N10750 X15.754 Z7.364
N10755 X15.721 Z7.361
N10760 X15.637 Z7.363
N10765 X15.636
N10770 X15.603 Z7.367
N10775 X15.567 Z7.371
N10780 X15.551 Z7.373
N10785 X15.515 Z7.379
N10790 X15.497 Z7.383
N10795 X15.476 Z7.387
N10800 X15.461 Z7.389
N10805 X15.45 Z7.392
N10810 X15.438 Z7.396
N10815 X15.425 Z7.399
N10820 X15.413 Z7.402
N10825 X15.411 Z7.403
N10830 X15.089 Z7.507
N10835 X14.744 Z7.619
N10840 X14.475 Z7.679
N10845 X14.217 Z7.706
N10850 X11.977 Z7.71
N10855 X11.866 Z7.737
N10860 X11.792 Z7.769
N10865 X11.648 Z7.88
N10870 X10.479 Z9.049
N10875 X10.278 Z9.231
N10880 X10.096 Z9.364
N10885 X9.863 Z9.506
N10890 X9.572 Z9.636
N10895 X9.309 Z9.718
N10900 X8.992 Z9.775
N10905 X8.759 Z9.79
N10910 X8.519 Z9.786
N10915 X8.197 Z9.742
N10920 X7.873 Z9.652
N10925 X7.563 Z9.519
N10930 X7.272 Z9.345
N10935 X7.006 Z9.132
N10940 X6.77 Z8.882
N10945 X6.69 Z8.776
N10950 G3 X6.15 Z8.956 I-0.24 K0.181
N10955 G0 Z11.79
N10960 X34.92 Y14.34
N10965 Z9.484
N10970 G1 Z7.793 F500
N10975 G3 X34.531 Z7.507 I-0.3 K0
N10980 G1 X34.284 Z7.584
N10985 X33.968 Z7.655
N10990 X33.647 Z7.696
N10995 X33.326 Z7.707
N11000 X33.137 Z7.697
N11005 X32.889 Z7.653
N11010 X32.646 Z7.58
N11015 X32.469 Z7.508
N11020 X32.463 Y14.342 Z7.506
N11025 X32.451 Y14.346 Z7.501
N11030 X32.438 Y14.35 Z7.497
N11035 X32.426 Y14.353 Z7.493
N11040 X32.42 Y14.355 Z7.492
N11045 X32.403 Y14.364 Z7.488
N11050 X32.387 Y14.374 Z7.485
N11055 X32.374 Y14.393 Z7.488
N11060 X32.377 Y14.398 Z7.491
N11065 X32.38 Y14.404 Z7.495
N11070 X32.383 Y14.409 Z7.498
N11075 X32.384 Y14.41 Z7.499
N11080 X32.386 Y14.415 Z7.502
N11085 X32.389 Y14.42 Z7.505
N11090 X32.391 Y14.425 Z7.508
N11095 X32.393 Y14.43 Z7.511
N11100 X32.383 Y14.441
N11105 X32.382 Y14.442
N11110 X32.373 Y14.452 Z7.513
N11115 X32.357 Y14.459 Z7.51
N11120 X32.34 Y14.467 Z7.507
N11125 X32.328 Y14.472 Z7.505
N11130 X32.313 Y14.475 Z7.501
N11135 X32.298 Y14.479 Z7.496
N11140 X32.282 Y14.482 Z7.492
N11145 X32.28 Y14.483
N11150 X32.267 Y14.486 Z7.489
N11155 X32.234 Y14.488 Z7.479
N11160 X32.201 Y14.49 Z7.468
N11165 X32.189 Z7.464
N11170 X32.176 Z7.459
N11175 X32.167 Z7.456
N11180 X32.164 Z7.455
N11185 X32.152 Z7.451
N11190 X32.14 Z7.448
N11195 X32.128 Z7.444
N11200 X32.115 Z7.44
N11205 X32.103 Z7.436
N11210 X32.091 Z7.432
N11215 X32.079 Z7.428
N11220 X32.062 Z7.422
N11225 X32.06
N11230 X32.054 Z7.42
N11235 X32.042 Z7.417
N11240 X32.03 Z7.414
N11245 X32.018 Z7.41
N11250 X32.006 Z7.407
N11255 X31.992 Z7.403
N11260 X31.971 Z7.397
N11265 X31.966 Z7.396
N11270 X31.964
N11275 X31.951 Z7.393
N11280 X31.937 Z7.39
N11285 X31.923 Z7.387
N11290 X31.909 Z7.384
N11295 X31.896 Z7.381
N11300 X31.875 Z7.377
N11305 X31.854 Z7.374
N11310 X31.827 Z7.37
N11315 X31.792 Z7.366
N11320 X31.791 Z7.365
N11325 X31.789
N11330 X31.713 Z7.361
N11335 X31.706
N11340 X31.624 Z7.364
N11345 X31.622
N11350 X31.596 Z7.367
N11355 X31.567 Z7.371
N11360 X31.539 Z7.374
N11365 X31.537 Z7.375
N11370 X31.521 Z7.378
N11375 X31.505 Z7.381
N11380 X31.489 Z7.384
N11385 X31.464 Z7.389
N11390 X31.449 Z7.392
N11395 X31.448 Z7.393
N11400 X31.439 Z7.395
N11405 X31.426 Z7.399
N11410 X31.409 Z7.403
N11415 X31.407 Z7.404
N11420 X31.088 Z7.507
N11425 X30.747 Z7.618
N11430 X30.477 Z7.679
N11435 X30.218 Z7.706
N11440 X17.158 Z7.704
N11445 X16.889 Z7.672
N11450 X16.619 Z7.608
N11455 X16.314 Z7.507
N11460 X16.289 Y14.501 Z7.504
N11465 X16.265 Y14.512 Z7.501
N11470 X16.248 Y14.519 Z7.499
N11475 X16.232 Y14.538 Z7.502
N11480 X16.227 Y14.543 Z7.503
N11485 X16.215 Y14.556 Z7.507
N11490 X16.21 Y14.561 Z7.508
N11495 X16.199 Y14.574 Z7.511
N11500 X16.188 Y14.586 Z7.514
N11505 X16.177 Y14.599 Z7.517
N11510 X16.174 Y14.601 Z7.518
N11515 X16.145 Y14.615 Z7.517
N11520 X16.113 Y14.63
N11525 X16.04 Y14.64 Z7.507
N11530 X16.038 Z7.506
N11535 X16.027 Z7.505
N11540 X16.001 Z7.5
N11545 X15.975 Z7.496
N11550 X15.949 Z7.491
N11555 X15.93 Z7.488
N11560 X15.91 Z7.486
N11565 X15.884 Z7.483
N11570 X15.858 Z7.48
N11575 X15.827 Z7.476
N11580 X15.825
N11585 X15.76 Z7.473
N11590 X15.725 Z7.471
N11595 X15.625 Z7.473
N11600 X15.623
N11605 X15.588 Z7.476
N11610 X15.552 Z7.479
N11615 X15.523 Z7.481
N11620 X15.521
N11625 X15.503 Z7.484
N11630 X15.486 Z7.486
N11635 X15.468 Z7.489
N11640 X15.451 Z7.492
N11645 X15.42 Z7.496
N11650 X15.417
N11655 X15.415 Z7.497
N11660 X15.398 Z7.5
N11665 X15.371 Z7.505
N11670 X15.362 Z7.507
N11675 X14.666 Z7.665
N11680 X14.414 Z7.699
N11685 X14.037 Z7.707
N11690 X12.046
N11695 X11.951 Z7.714
N11700 X11.873 Z7.734
N11705 X11.787 Z7.772
N11710 X11.716 Z7.819
N11715 X10.413 Z9.113
N11720 X10.204 Z9.29
N11725 X9.899 Z9.486
N11730 X9.652 Z9.604
N11735 X9.37 Z9.7
N11740 X9.169 Z9.747
N11745 X8.941 Z9.781
N11750 X8.654 Z9.792
N11755 X8.381 Z9.77
N11760 X8.138 Z9.728
N11765 X7.892 Z9.659
N11770 X7.58 Z9.528
N11775 X7.288 Z9.356
N11780 X7.02 Z9.144
N11785 X6.781 Z8.895
N11790 X6.69 Z8.776
N11795 G3 X6.151 Z8.957 I-0.239 K0.182
N11800 G0 Z11.79
N11805 X34.92 Y14.49
N11810 Z9.484
N11815 G1 Z7.793 F500
N11820 G3 X34.531 Z7.507 I-0.3 K0
N11825 G1 X34.284 Z7.584
N11830 X33.968 Z7.655
N11835 X33.647 Z7.696
N11840 X33.266 Z7.707
N11845 X33.069 Z7.698
N11850 X32.8 Z7.654
N11855 X32.496 Z7.57
N11860 X32.312 Z7.507
N11865 X32.294 Y14.499 Z7.504
N11870 X32.292
N11875 X32.264 Y14.512 Z7.501
N11880 X32.248 Y14.519 Z7.499
N11885 X32.234 Y14.535 Z7.502
N11890 X32.22 Y14.55 Z7.505
N11895 X32.209 Y14.562 Z7.507
N11900 X32.199 Y14.573 Z7.511
N11905 X32.188 Y14.586 Z7.514
N11910 X32.177 Y14.599 Z7.517
N11915 X32.175 Y14.601 Z7.518
N11920 X32.123 Y14.625 Z7.517
N11925 X32.113 Y14.63
N11930 X32.04 Y14.64 Z7.507
N11935 X32.02 Z7.503
N11940 X32.016 Z7.502
N11945 X32.014
N11950 X31.988 Z7.498
N11955 X31.962 Z7.494
N11960 X31.936 Z7.489
N11965 X31.908 Z7.485
N11970 X31.884 Z7.482
N11975 X31.845 Z7.478
N11980 X31.806 Z7.474
N11985 X31.73 Z7.471
N11990 X31.707
N11995 X31.608 Z7.473
N12000 X31.606 Z7.474
N12005 X31.583 Z7.476
N12010 X31.55 Z7.479
N12015 X31.507 Z7.483
N12020 X31.505
N12025 X31.485 Z7.486
N12030 X31.455 Z7.491
N12035 X31.428 Z7.495
N12040 X31.402 Z7.499
N12045 X31.4
N12050 X31.389 Z7.502
N12055 X31.365 Z7.506
N12060 X31.362 Z7.507
N12065 X30.664 Z7.666
N12070 X30.393 Z7.701
N12075 X29.942 Z7.707
N12080 X17.063 Z7.704
N12085 X16.818 Z7.679
N12090 X16.49 Z7.614
N12095 X16.043 Z7.507
N12100 G3 X15.673 Z7.799 I-0.07 K0.292
N12105 G0 Z9.613
N12110 X25.273 Z10.293
N12115 X34.213 Z9.658
N12120 X34.692 Z9.54
N12125 G3 X34.92 Z9.249 I-0.071 K-0.291 F500
N12130 G1 Z7.793
N12135 G3 X34.531 Z7.507 I-0.3 K0
N12140 G1 X34.284 Z7.584
N12145 X33.968 Z7.655
N12150 X33.647 Z7.696
N12155 X33.369 Z7.707
N12160 X33.087 Z7.705
N12165 X32.817 Z7.679
N12170 X32.489 Z7.614
N12175 X32.039 Z7.507
N12180 G3 X31.67 Z7.799 I-0.069 K0.292
N12185 G0 Z9.706
N12190 X34.62 Y14.777
N12195 G1 X34.687 Y14.78 Z9.698 F500
N12200 X34.75 Y14.783 Z9.676
N12205 X34.807 Y14.785 Z9.64
N12210 X34.855 Y14.787 Z9.593
N12215 X34.89 Y14.789 Z9.536
N12220 X34.913 Y14.79 Z9.473
N12225 X34.92 Z9.406
N12230 Z7.793
N12235 G3 X34.531 Z7.507 I-0.3 K0
N12240 G1 X34.284 Z7.584
N12245 X33.968 Z7.655
N12250 X33.647 Z7.696
N12255 X33.369 Z7.707
N12260 X32.934 Z7.704
N12265 X32.627 Z7.673
N12270 X31.986 Z7.573
N12275 X31.737 Z7.556
N12280 X31.519 Z7.563
N12285 X31.208 Z7.602
N12290 X30.675 Z7.686
N12295 X30.413 Z7.706
N12300 X16.968 Z7.705
N12305 X16.628 Z7.673
N12310 X15.965 Z7.57
N12315 X15.729 Z7.555
N12320 X15.477 Z7.566
N12325 X15.094 Z7.621
N12330 X14.695 Z7.684
N12335 X14.422 Z7.706
N12340 X11.977 Z7.71
N12345 X11.869 Z7.736
N12350 X11.792 Z7.769
N12355 X11.648 Z7.88
N12360 X10.479 Z9.049
N12365 X10.278 Z9.231
N12370 X10.096 Z9.364
N12375 X9.863 Z9.506
N12380 X9.572 Z9.636
N12385 X9.309 Z9.718
N12390 X8.992 Z9.775
N12395 X8.759 Z9.79
N12400 X8.519 Z9.786
N12405 X8.197 Z9.742
N12410 X7.873 Z9.652
N12415 X7.563 Z9.519
N12420 X7.272 Z9.345
N12425 X7.006 Z9.132
N12430 X6.77 Z8.882
N12435 X6.69 Z8.776
N12440 G3 X6.15 Z8.956 I-0.24 K0.181
N12445 G0 Z11.79
N12450 X34.92 Y14.94
N12455 Z9.484
N12460 G1 Z7.793 F500
N12465 G3 X34.531 Z7.507 I-0.3 K0
N12470 G1 X34.284 Z7.584
N12475 X33.968 Z7.655
N12480 X33.647 Z7.696
N12485 X33.369 Z7.707
N12490 X32.742 Z7.702
N12495 X31.964 Z7.628
N12500 X31.686 Z7.619
N12505 X31.352 Z7.635
N12510 X30.668 Z7.701
N12515 X30.09 Z7.707
N12520 X16.815 Z7.705
N12525 X16.41 Z7.673
N12530 X15.967 Z7.629
N12535 X15.689 Z7.619
N12540 X15.373 Z7.633
N12545 X14.643 Z7.702
N12550 X12.004 Z7.708
N12555 X11.931 Z7.719
N12560 X11.837 Z7.747
N12565 X11.744 Z7.799
N12570 X11.61 Z7.919
N12575 X10.427 Z9.1
N12580 X10.221 Z9.277
N12585 X9.919 Z9.476
N12590 X9.589 Z9.63
N12595 X9.326 Z9.713
N12600 X9.044 Z9.767
N12605 X8.825 Z9.788
N12610 X8.527 Z9.786
N12615 X8.216 Z9.745
N12620 X7.892 Z9.659
N12625 X7.58 Z9.528
N12630 X7.288 Z9.356
N12635 X7.02 Z9.144
N12640 X6.781 Z8.895
N12645 X6.69 Z8.776
N12650 G3 X6.151 Z8.957 I-0.239 K0.182
N12655 G0 Z11.79
N12660 X34.92 Y15.09
N12665 Z9.484
N12670 G1 Z7.793 F500
N12675 G3 X34.531 Z7.507 I-0.3 K0
N12680 G1 X34.284 Z7.584
N12685 X33.968 Z7.655
N12690 X33.647 Z7.696
N12695 X33.369 Z7.707
N12700 X32.516 Z7.701
N12705 X31.829 Z7.665
N12710 X31.408 Z7.671
N12715 X30.679 Z7.707
N12720 X16.566 Z7.703
N12725 X15.807 Z7.665
N12730 X15.407 Z7.671
N12735 X14.697 Z7.707
N12740 X11.986 Z7.709
N12745 X11.926 Z7.72
N12750 X11.82 Z7.755
N12755 X11.751 Z7.793
N12760 X11.617 Z7.911
N12765 X10.434 Z9.093
N12770 X10.229 Z9.271
N12775 X9.967 Z9.447
N12780 X9.725 Z9.571
N12785 X9.509 Z9.657
N12790 X9.248 Z9.732
N12795 X8.975 Z9.777
N12800 X8.683 Z9.792
N12805 X8.464 Z9.78
N12810 X8.216 Z9.745
N12815 X7.892 Z9.659
N12820 X7.58 Z9.528
N12825 X7.288 Z9.356
N12830 X7.02 Z9.144
N12835 X6.781 Z8.895
N12840 X6.69 Z8.776
N12845 G3 X6.151 Z8.957 I-0.239 K0.182
N12850 G0 Z11.79
N12855 X34.92 Y15.24
N12860 Z9.484
N12865 G1 Z7.793 F500
N12870 G3 X34.531 Z7.507 I-0.3 K0
N12875 G1 X34.284 Z7.584
N12880 X33.968 Z7.655
N12885 X33.647 Z7.696
N12890 X33.369 Z7.707
N12895 X32.194 Z7.701
N12900 X31.546 Z7.694
N12905 X30.684 Z7.707
N12910 X16.253 Z7.703
N12915 X15.571 Z7.693
N12920 X14.682 Z7.707
N12925 X11.979 Z7.71
N12930 X11.837 Z7.747
N12935 X11.742 Z7.8
N12940 X11.608 Z7.92
N12945 X10.408 Z9.117
N12950 X10.219 Z9.279
N12955 X9.917 Z9.477
N12960 X9.671 Z9.596
N12965 X9.501 Z9.659
N12970 X9.234 Z9.735
N12975 X8.961 Z9.779
N12980 X8.654 Z9.792
N12985 X8.381 Z9.77
N12990 X8.138 Z9.728
N12995 X7.892 Z9.659
N13000 X7.58 Z9.528
N13005 X7.288 Z9.356
N13010 X7.02 Z9.144
N13015 X6.781 Z8.895
N13020 X6.69 Z8.776
N13025 G3 X6.151 Z8.957 I-0.239 K0.182
N13030 G0 Z11.79
N13035 X34.92 Y15.39
N13040 Z9.484
N13045 G1 Z7.793 F500
N13050 G3 X34.531 Z7.507 I-0.3 K0
N13055 G1 X34.284 Z7.584
N13060 X33.968 Z7.655
N13065 X33.647 Z7.696
N13070 X33.369 Z7.707
N13075 X12.032
N13080 X11.953 Z7.713
N13085 X11.842 Z7.745
N13090 X11.744 Z7.799
N13095 X11.61 Z7.918
N13100 X10.427 Z9.1
N13105 X10.221 Z9.277
N13110 X9.919 Z9.475
N13115 X9.589 Z9.629
N13120 X9.327 Z9.713
N13125 X9.044 Z9.767
N13130 X8.826 Z9.788
N13135 X8.527 Z9.786
N13140 X8.216 Z9.745
N13145 X7.892 Z9.659
N13150 X7.58 Z9.528
N13155 X7.288 Z9.356
N13160 X7.02 Z9.144
N13165 X6.781 Z8.895
N13170 X6.69 Z8.776
N13175 G3 X6.151 Z8.957 I-0.239 K0.182
N13180 G0 Z11.79
N13185 X34.92 Y15.54
N13190 Z9.484
N13195 G1 Z7.793 F500
N13200 G3 X34.531 Z7.507 I-0.3 K0
N13205 G1 X34.284 Z7.584
N13210 X33.968 Z7.655
N13215 X33.647 Z7.696
N13220 X33.369 Z7.707
N13225 X11.977 Z7.71
N13230 X11.811 Z7.759
N13235 X11.648 Z7.88
N13240 X10.479 Z9.049
N13245 X10.278 Z9.231
N13250 X10.096 Z9.364
N13255 X9.863 Z9.506
N13260 X9.572 Z9.636
N13265 X9.309 Z9.718
N13270 X8.992 Z9.775
N13275 X8.759 Z9.79
N13280 X8.519 Z9.786
N13285 X8.197 Z9.742
N13290 X7.873 Z9.652
N13295 X7.563 Z9.519
N13300 X7.272 Z9.345
N13305 X7.006 Z9.132
N13310 X6.77 Z8.882
N13315 X6.69 Z8.776
N13320 G3 X6.15 Z8.956 I-0.24 K0.181
N13325 G0 Z11.79
N13330 X34.92 Y15.69
N13335 Z9.484
N13340 G1 Z7.793 F500
N13345 G3 X34.531 Z7.507 I-0.3 K0
N13350 G1 X34.284 Z7.584
N13355 X33.968 Z7.655
N13360 X33.647 Z7.696
N13365 X33.369 Z7.707
N13370 X11.977 Z7.71
N13375 X11.811 Z7.759
N13380 X11.648 Z7.88
N13385 X10.479 Z9.049
N13390 X10.278 Z9.231
N13395 X10.096 Z9.364
N13400 X9.863 Z9.506
N13405 X9.572 Z9.636
N13410 X9.309 Z9.718
N13415 X8.992 Z9.775
N13420 X8.759 Z9.79
N13425 X8.519 Z9.786
N13430 X8.197 Z9.742
N13435 X7.873 Z9.652
N13440 X7.563 Z9.519
N13445 X7.272 Z9.345
N13450 X7.006 Z9.132
N13455 X6.77 Z8.882
N13460 X6.69 Z8.776
N13465 G3 X6.15 Z8.956 I-0.24 K0.181
N13470 G0 Z11.79
N13475 X34.92 Y15.84
N13480 Z9.484
N13485 G1 Z7.793 F500
N13490 G3 X34.531 Z7.507 I-0.3 K0
N13495 G1 X34.284 Z7.584
N13500 X33.968 Z7.655
N13505 X33.647 Z7.696
N13510 X33.369 Z7.707
N13515 X11.977 Z7.71
N13520 X11.811 Z7.759
N13525 X11.648 Z7.88
N13530 X10.479 Z9.049
N13535 X10.278 Z9.231
N13540 X10.096 Z9.364
N13545 X9.863 Z9.506
N13550 X9.572 Z9.636
N13555 X9.309 Z9.718
N13560 X8.992 Z9.775
N13565 X8.759 Z9.79
N13570 X8.519 Z9.786
N13575 X8.197 Z9.742
N13580 X7.873 Z9.652
N13585 X7.563 Z9.519
N13590 X7.272 Z9.345
N13595 X7.006 Z9.132
N13600 X6.77 Z8.882
N13605 X6.69 Z8.776
N13610 G3 X6.15 Z8.956 I-0.24 K0.181
N13615 G0 Z11.79
N13620 X34.92 Y15.99
N13625 Z9.484
N13630 G1 Z7.793 F500
N13635 G3 X34.531 Z7.507 I-0.3 K0
N13640 G1 X34.284 Z7.584
N13645 X33.968 Z7.655
N13650 X33.647 Z7.696
N13655 X33.369 Z7.707
N13660 X11.977 Z7.71
N13665 X11.811 Z7.759
N13670 X11.648 Z7.88
N13675 X10.479 Z9.049
N13680 X10.278 Z9.231
N13685 X10.096 Z9.364
N13690 X9.863 Z9.506
N13695 X9.572 Z9.636
N13700 X9.309 Z9.718
N13705 X8.992 Z9.775
N13710 X8.759 Z9.79
N13715 X8.519 Z9.786
N13720 X8.197 Z9.742
N13725 X7.873 Z9.652
N13730 X7.563 Z9.519
N13735 X7.272 Z9.345
N13740 X7.006 Z9.132
N13745 X6.77 Z8.882
N13750 X6.69 Z8.776
N13755 G3 X6.15 Z8.956 I-0.24 K0.181
N13760 G0 Z11.79
N13765 X34.92 Y16.14
N13770 Z9.484
N13775 G1 Z7.793 F500
N13780 G3 X34.531 Z7.507 I-0.3 K0
N13785 G1 X34.284 Z7.584
N13790 X33.968 Z7.655
N13795 X33.647 Z7.696
N13800 X33.369 Z7.707
N13805 X11.977 Z7.71
N13810 X11.811 Z7.759
N13815 X11.648 Z7.88
N13820 X10.479 Z9.049
N13825 X10.278 Z9.231
N13830 X10.096 Z9.364
N13835 X9.863 Z9.506
N13840 X9.572 Z9.636
N13845 X9.309 Z9.718
N13850 X8.992 Z9.775
N13855 X8.759 Z9.79
N13860 X8.519 Z9.786
N13865 X8.197 Z9.742
N13870 X7.873 Z9.652
N13875 X7.563 Z9.519
N13880 X7.272 Z9.345
N13885 X7.006 Z9.132
N13890 X6.77 Z8.882
N13895 X6.69 Z8.776
N13900 G3 X6.15 Z8.956 I-0.24 K0.181
N13905 G0 Z11.79
N13910 X34.92 Y16.29
N13915 Z9.484
N13920 G1 Z7.793 F500
N13925 G3 X34.531 Z7.507 I-0.3 K0
N13930 G1 X34.284 Z7.584
N13935 X33.968 Z7.655
N13940 X33.646 Z7.696
N13945 X33.369 Z7.707
N13950 X11.977 Z7.71
N13955 X11.811 Z7.759
N13960 X11.648 Z7.88
N13965 X10.479 Z9.049
N13970 X10.278 Z9.231
N13975 X10.096 Z9.364
N13980 X9.863 Z9.506
N13985 X9.572 Z9.636
N13990 X9.309 Z9.718
N13995 X8.992 Z9.775
N14000 X8.759 Z9.79
N14005 X8.519 Z9.786
N14010 X8.197 Z9.742
N14015 X7.873 Z9.652
N14020 X7.563 Z9.519
N14025 X7.272 Z9.345
N14030 X7.006 Z9.132
N14035 X6.77 Z8.882
N14040 X6.69 Z8.776
N14045 G3 X6.15 Z8.956 I-0.24 K0.181
N14050 G0 Z11.79
N14055 X34.92 Y16.44
N14060 Z9.484
N14065 G1 Z7.793 F500
N14070 G3 X34.531 Z7.507 I-0.3 K0
N14075 G1 X34.284 Z7.584
N14080 X33.968 Z7.655
N14085 X33.646 Z7.696
N14090 X33.369 Z7.707
N14095 X11.977 Z7.71
N14100 X11.811 Z7.759
N14105 X11.648 Z7.88
N14110 X10.479 Z9.049
N14115 X10.278 Z9.231
N14120 X10.096 Z9.364
N14125 X9.863 Z9.506
N14130 X9.572 Z9.636
N14135 X9.309 Z9.718
N14140 X8.992 Z9.775
N14145 X8.759 Z9.79
N14150 X8.519 Z9.786
N14155 X8.197 Z9.742
N14160 X7.873 Z9.652
N14165 X7.563 Z9.519
N14170 X7.272 Z9.345
N14175 X7.006 Z9.132
N14180 X6.77 Z8.882
N14185 X6.69 Z8.776
N14190 G3 X6.15 Z8.956 I-0.24 K0.181
N14195 G0 Z11.79
N14200 X34.92 Y16.59
N14205 Z9.484
N14210 G1 Z7.793 F500
N14215 G3 X34.531 Z7.507 I-0.3 K0
N14220 G1 X34.284 Z7.584
N14225 X33.968 Z7.655
N14230 X33.646 Z7.696
N14235 X33.369 Z7.707
N14240 X11.977 Z7.71
N14245 X11.811 Z7.759
N14250 X11.648 Z7.88
N14255 X10.479 Z9.049
N14260 X10.278 Z9.231
N14265 X10.096 Z9.364
N14270 X9.863 Z9.506
N14275 X9.572 Z9.636
N14280 X9.309 Z9.718
N14285 X8.992 Z9.775
N14290 X8.759 Z9.79
N14295 X8.519 Z9.786
N14300 X8.197 Z9.742
N14305 X7.873 Z9.652
N14310 X7.563 Z9.519
N14315 X7.272 Z9.345
N14320 X7.006 Z9.132
N14325 X6.77 Z8.882
N14330 X6.69 Z8.776
N14335 G3 X6.15 Z8.956 I-0.24 K0.181
N14340 G0 Z11.79
N14345 X34.92 Y16.74
N14350 Z9.484
N14355 G1 Z7.793 F500
N14360 G3 X34.531 Z7.507 I-0.3 K0
N14365 G1 X34.284 Z7.584
N14370 X33.968 Z7.655
N14375 X33.612 Z7.698
N14380 X33.369 Z7.707
N14385 X11.977 Z7.71
N14390 X11.811 Z7.759
N14395 X11.648 Z7.88
N14400 X10.479 Z9.049
N14405 X10.278 Z9.231
N14410 X10.096 Z9.364
N14415 X9.863 Z9.506
N14420 X9.572 Z9.636
N14425 X9.309 Z9.718
N14430 X8.992 Z9.775
N14435 X8.759 Z9.79
N14440 X8.519 Z9.786
N14445 X8.197 Z9.742
N14450 X7.873 Z9.652
N14455 X7.563 Z9.519
N14460 X7.272 Z9.345
N14465 X7.006 Z9.132
N14470 X6.77 Z8.882
N14475 X6.69 Z8.776
N14480 G3 X6.15 Z8.956 I-0.24 K0.181
N14485 G0 Z11.79
N14490 X34.92 Y16.89
N14495 Z9.484
N14500 G1 Z7.793 F500
N14505 G3 X34.531 Z7.507 I-0.3 K0
N14510 G1 X34.284 Z7.584
N14515 X33.968 Z7.655
N14520 X33.612 Z7.698
N14525 X33.369 Z7.707
N14530 X11.977 Z7.71
N14535 X11.811 Z7.759
N14540 X11.648 Z7.88
N14545 X10.479 Z9.049
N14550 X10.278 Z9.231
N14555 X10.096 Z9.364
N14560 X9.863 Z9.506
N14565 X9.572 Z9.636
N14570 X9.309 Z9.718
N14575 X8.992 Z9.775
N14580 X8.759 Z9.79
N14585 X8.519 Z9.786
N14590 X8.197 Z9.742
N14595 X7.873 Z9.652
N14600 X7.563 Z9.519
N14605 X7.272 Z9.345
N14610 X7.006 Z9.132
N14615 X6.77 Z8.882
N14620 X6.69 Z8.776
N14625 G3 X6.15 Z8.956 I-0.24 K0.181
N14630 G0 Z11.79
N14635 X34.92 Y17.04
N14640 Z9.484
N14645 G1 Z7.793 F500
N14650 G3 X34.531 Z7.507 I-0.3 K0
N14655 G1 X34.284 Z7.584
N14660 X33.968 Z7.655
N14665 X33.612 Z7.698
N14670 X33.369 Z7.707
N14675 X11.977 Z7.71
N14680 X11.811 Z7.759
N14685 X11.648 Z7.88
N14690 X10.479 Z9.049
N14695 X10.278 Z9.231
N14700 X10.096 Z9.364
N14705 X9.863 Z9.506
N14710 X9.572 Z9.636
N14715 X9.309 Z9.718
N14720 X8.992 Z9.775
N14725 X8.759 Z9.79
N14730 X8.519 Z9.786
N14735 X8.197 Z9.742
N14740 X7.873 Z9.652
N14745 X7.563 Z9.519
N14750 X7.272 Z9.345
N14755 X7.006 Z9.132
N14760 X6.77 Z8.882
N14765 X6.69 Z8.776
N14770 G3 X6.15 Z8.956 I-0.24 K0.181
N14775 G0 Z11.79
N14780 X34.92 Y17.19
N14785 Z9.484
N14790 G1 Z7.793 F500
N14795 G3 X34.531 Z7.507 I-0.3 K0
N14800 G1 X34.284 Z7.584
N14805 X33.968 Z7.655
N14810 X33.612 Z7.698
N14815 X33.369 Z7.707
N14820 X11.977 Z7.71
N14825 X11.811 Z7.759
N14830 X11.648 Z7.88
N14835 X10.479 Z9.049
N14840 X10.278 Z9.231
N14845 X10.096 Z9.364
N14850 X9.863 Z9.506
N14855 X9.572 Z9.636
N14860 X9.309 Z9.718
N14865 X8.992 Z9.775
N14870 X8.759 Z9.79
N14875 X8.519 Z9.786
N14880 X8.197 Z9.742
N14885 X7.873 Z9.652
N14890 X7.563 Z9.519
N14895 X7.272 Z9.345
N14900 X7.006 Z9.132
N14905 X6.77 Z8.882
N14910 X6.69 Z8.776
N14915 G3 X6.15 Z8.956 I-0.24 K0.181
N14920 G0 Z11.79
N14925 X34.92 Y17.34
N14930 Z9.484
N14935 G1 Z7.793 F500
N14940 G3 X34.531 Z7.507 I-0.3 K0
N14945 G1 X34.284 Z7.584
N14950 X33.968 Z7.655
N14955 X33.612 Z7.698
N14960 X33.369 Z7.707
N14965 X11.977 Z7.71
N14970 X11.811 Z7.759
N14975 X11.648 Z7.88
N14980 X10.479 Z9.049
N14985 X10.278 Z9.231
N14990 X10.096 Z9.364
N14995 X9.863 Z9.506
N15000 X9.572 Z9.636
N15005 X9.309 Z9.718
N15010 X8.992 Z9.775
N15015 X8.759 Z9.79
N15020 X8.519 Z9.786
N15025 X8.197 Z9.742
N15030 X7.873 Z9.652
N15035 X7.563 Z9.519
N15040 X7.272 Z9.345
N15045 X7.006 Z9.132
N15050 X6.77 Z8.882
N15055 X6.69 Z8.776
N15060 G3 X6.15 Z8.956 I-0.24 K0.181
N15065 G0 Z11.79
N15070 X34.92 Y17.49
N15075 Z9.484
N15080 G1 Z7.793 F500
N15085 G3 X34.531 Z7.507 I-0.3 K0
N15090 G1 X34.284 Z7.584
N15095 X33.968 Z7.655
N15100 X33.612 Z7.698
N15105 X33.369 Z7.707
N15110 X11.977 Z7.71
N15115 X11.811 Z7.759
N15120 X11.648 Z7.88
N15125 X10.479 Z9.049
N15130 X10.278 Z9.231
N15135 X10.096 Z9.364
N15140 X9.863 Z9.506
N15145 X9.572 Z9.636
N15150 X9.309 Z9.718
N15155 X8.992 Z9.775
N15160 X8.759 Z9.79
N15165 X8.519 Z9.786
N15170 X8.197 Z9.742
N15175 X7.873 Z9.652
N15180 X7.563 Z9.519
N15185 X7.272 Z9.345
N15190 X7.006 Z9.132
N15195 X6.77 Z8.882
N15200 X6.69 Z8.776
N15205 G3 X6.15 Z8.956 I-0.24 K0.181
N15210 G0 Z11.79
N15215 X34.92 Y17.64
N15220 Z9.484
N15225 G1 Z7.793 F500
N15230 G3 X34.531 Z7.507 I-0.3 K0
N15235 G1 X34.284 Z7.584
N15240 X33.968 Z7.655
N15245 X33.612 Z7.698
N15250 X33.369 Z7.707
N15255 X11.977 Z7.71
N15260 X11.811 Z7.759
N15265 X11.648 Z7.88
N15270 X10.479 Z9.049
N15275 X10.278 Z9.231
N15280 X10.096 Z9.364
N15285 X9.863 Z9.506
N15290 X9.572 Z9.636
N15295 X9.309 Z9.718
N15300 X8.992 Z9.775
N15305 X8.759 Z9.79
N15310 X8.519 Z9.786
N15315 X8.197 Z9.742
N15320 X7.873 Z9.652
N15325 X7.563 Z9.519
N15330 X7.272 Z9.345
N15335 X7.006 Z9.132
N15340 X6.77 Z8.882
N15345 X6.69 Z8.776
N15350 G3 X6.15 Z8.956 I-0.24 K0.181
N15355 G0 Z11.79
N15360 X34.92 Y17.79
N15365 Z9.484
N15370 G1 Z7.793 F500
N15375 G3 X34.531 Z7.507 I-0.3 K0
N15380 G1 X34.284 Z7.584
N15385 X33.968 Z7.655
N15390 X33.612 Z7.698
N15395 X33.369 Z7.707
N15400 X11.977 Z7.71
N15405 X11.811 Z7.759
N15410 X11.648 Z7.88
N15415 X10.479 Z9.049
N15420 X10.278 Z9.231
N15425 X10.096 Z9.364
N15430 X9.863 Z9.506
N15435 X9.572 Z9.636
N15440 X9.309 Z9.718
N15445 X8.992 Z9.775
N15450 X8.759 Z9.79
N15455 X8.519 Z9.786
N15460 X8.197 Z9.742
N15465 X7.873 Z9.652
N15470 X7.563 Z9.519
N15475 X7.272 Z9.345
N15480 X7.006 Z9.132
N15485 X6.77 Z8.882
N15490 X6.69 Z8.776
N15495 G3 X6.15 Z8.956 I-0.24 K0.181
N15500 G0 Z11.79
N15505 X34.92 Y17.94
N15510 Z9.484
N15515 G1 Z7.793 F500
N15520 G3 X34.531 Z7.507 I-0.3 K0
N15525 G1 X34.284 Z7.584
N15530 X33.951 Z7.658
N15535 X33.594 Z7.7
N15540 X33.369 Z7.707
N15545 X11.977 Z7.71
N15550 X11.811 Z7.759
N15555 X11.648 Z7.88
N15560 X10.479 Z9.049
N15565 X10.278 Z9.231
N15570 X10.096 Z9.364
N15575 X9.863 Z9.506
N15580 X9.572 Z9.636
N15585 X9.309 Z9.718
N15590 X8.992 Z9.775
N15595 X8.759 Z9.79
N15600 X8.519 Z9.786
N15605 X8.197 Z9.742
N15610 X7.873 Z9.652
N15615 X7.563 Z9.519
N15620 X7.272 Z9.345
N15625 X7.006 Z9.132
N15630 X6.77 Z8.882
N15635 X6.69 Z8.776
N15640 G3 X6.15 Z8.956 I-0.24 K0.181
N15645 G0 Z11.79
N15650 X34.92 Y18.09
N15655 Z9.484
N15660 G1 Z7.793 F500
N15665 G3 X34.531 Z7.507 I-0.3 K0
N15670 G1 X34.284 Z7.584
N15675 X33.951 Z7.658
N15680 X33.594 Z7.7
N15685 X33.369 Z7.707
N15690 X11.977 Z7.71
N15695 X11.811 Z7.759
N15700 X11.648 Z7.88
N15705 X10.479 Z9.049
N15710 X10.278 Z9.231
N15715 X10.096 Z9.364
N15720 X9.863 Z9.506
N15725 X9.572 Z9.636
N15730 X9.309 Z9.718
N15735 X8.992 Z9.775
N15740 X8.759 Z9.79
N15745 X8.519 Z9.786
N15750 X8.197 Z9.742
N15755 X7.873 Z9.652
N15760 X7.563 Z9.519
N15765 X7.272 Z9.345
N15770 X7.006 Z9.132
N15775 X6.77 Z8.882
N15780 X6.69 Z8.776
N15785 G3 X6.15 Z8.956 I-0.24 K0.181
N15790 G0 Z11.79
N15795 X34.92 Y18.24
N15800 Z9.484
N15805 G1 Z7.793 F500
N15810 G3 X34.531 Z7.507 I-0.3 K0
N15815 G1 X34.284 Z7.584
N15820 X33.951 Z7.658
N15825 X33.594 Z7.7
N15830 X33.369 Z7.707
N15835 X11.977 Z7.71
N15840 X11.811 Z7.759
N15845 X11.648 Z7.88
N15850 X10.479 Z9.049
N15855 X10.278 Z9.231
N15860 X10.096 Z9.364
N15865 X9.863 Z9.506
N15870 X9.572 Z9.636
N15875 X9.309 Z9.718
N15880 X8.992 Z9.775
N15885 X8.759 Z9.79
N15890 X8.519 Z9.786
N15895 X8.197 Z9.742
N15900 X7.873 Z9.652
N15905 X7.563 Z9.519
N15910 X7.272 Z9.345
N15915 X7.006 Z9.132
N15920 X6.77 Z8.882
N15925 X6.69 Z8.776
N15930 G3 X6.15 Z8.956 I-0.24 K0.181
N15935 G0 Z11.791
N15940 X34.92 Y18.39
N15945 Z9.484
N15950 G1 Z7.793 F500
N15955 G3 X34.531 Z7.507 I-0.3 K0
N15960 G1 X34.284 Z7.584
N15965 X33.951 Z7.658
N15970 X33.594 Z7.7
N15975 X33.369 Z7.707
N15980 X11.977 Z7.71
N15985 X11.811 Z7.759
N15990 X11.648 Z7.88
N15995 X10.479 Z9.049
N16000 X10.278 Z9.231
N16005 X10.096 Z9.364
N16010 X9.863 Z9.506
N16015 X9.572 Z9.636
N16020 X9.309 Z9.718
N16025 X8.992 Z9.775
N16030 X8.759 Z9.79
N16035 X8.519 Z9.786
N16040 X8.197 Z9.742
N16045 X7.873 Z9.652
N16050 X7.563 Z9.519
N16055 X7.272 Z9.345
N16060 X7.006 Z9.132
N16065 X6.77 Z8.882
N16070 X6.69 Z8.776
N16075 G3 X6.15 Z8.956 I-0.24 K0.181
N16080 G0 Z11.791
N16085 X34.92 Y18.54
N16090 Z9.484
N16095 G1 Z7.793 F500
N16100 G3 X34.531 Z7.507 I-0.3 K0
N16105 G1 X34.284 Z7.584
N16110 X33.951 Z7.658
N16115 X33.594 Z7.7
N16120 X33.369 Z7.707
N16125 X11.977 Z7.71
N16130 X11.811 Z7.759
N16135 X11.648 Z7.88
N16140 X10.479 Z9.049
N16145 X10.278 Z9.231
N16150 X10.096 Z9.364
N16155 X9.863 Z9.506
N16160 X9.572 Z9.636
N16165 X9.309 Z9.718
N16170 X8.992 Z9.775
N16175 X8.759 Z9.79
N16180 X8.519 Z9.786
N16185 X8.197 Z9.742
N16190 X7.873 Z9.652
N16195 X7.563 Z9.519
N16200 X7.272 Z9.345
N16205 X7.006 Z9.132
N16210 X6.77 Z8.882
N16215 X6.69 Z8.776
N16220 G3 X6.15 Z8.956 I-0.24 K0.181
N16225 G0 Z11.791
N16230 X34.92 Y18.69
N16235 Z9.484
N16240 G1 Z7.793 F500
N16245 G3 X34.531 Z7.507 I-0.3 K0
N16250 G1 X34.284 Z7.584
N16255 X33.951 Z7.658
N16260 X33.594 Z7.7
N16265 X33.369 Z7.707
N16270 X11.977 Z7.71
N16275 X11.811 Z7.759
N16280 X11.648 Z7.88
N16285 X10.479 Z9.049
N16290 X10.278 Z9.231
N16295 X10.096 Z9.364
N16300 X9.863 Z9.506
N16305 X9.572 Z9.636
N16310 X9.309 Z9.718
N16315 X8.992 Z9.775
N16320 X8.759 Z9.79
N16325 X8.519 Z9.786
N16330 X8.197 Z9.742
N16335 X7.873 Z9.652
N16340 X7.563 Z9.519
N16345 X7.272 Z9.345
N16350 X7.006 Z9.132
N16355 X6.77 Z8.882
N16360 X6.69 Z8.776
N16365 G3 X6.15 Z8.956 I-0.24 K0.181
N16370 G0 Z11.791
N16375 X34.92 Y18.84
N16380 Z9.484
N16385 G1 Z7.793 F500
N16390 G3 X34.531 Z7.507 I-0.3 K0
N16395 G1 X34.284 Z7.584
N16400 X33.949 Z7.659
N16405 X33.594 Z7.7
N16410 X33.369 Z7.707
N16415 X11.977 Z7.71
N16420 X11.811 Z7.759
N16425 X11.648 Z7.88
N16430 X10.479 Z9.049
N16435 X10.278 Z9.231
N16440 X10.096 Z9.364
N16445 X9.863 Z9.506
N16450 X9.572 Z9.636
N16455 X9.309 Z9.718
N16460 X8.992 Z9.775
N16465 X8.759 Z9.79
N16470 X8.519 Z9.786
N16475 X8.197 Z9.742
N16480 X7.873 Z9.652
N16485 X7.563 Z9.519
N16490 X7.272 Z9.345
N16495 X7.006 Z9.132
N16500 X6.77 Z8.882
N16505 X6.69 Z8.776
N16510 G3 X6.15 Z8.956 I-0.24 K0.181
N16515 G0 Z11.791
N16520 X34.92 Y18.99
N16525 Z9.484
N16530 G1 Z7.793 F500
N16535 G3 X34.531 Z7.507 I-0.3 K0
N16540 G1 X34.284 Z7.584
N16545 X33.949 Z7.659
N16550 X33.594 Z7.7
N16555 X33.369 Z7.707
N16560 X11.977 Z7.71
N16565 X11.811 Z7.759
N16570 X11.648 Z7.88
N16575 X10.479 Z9.049
N16580 X10.278 Z9.231
N16585 X10.096 Z9.364
N16590 X9.863 Z9.506
N16595 X9.572 Z9.636
N16600 X9.309 Z9.718
N16605 X8.992 Z9.775
N16610 X8.759 Z9.79
N16615 X8.519 Z9.786
N16620 X8.197 Z9.742
N16625 X7.873 Z9.652
N16630 X7.563 Z9.519
N16635 X7.272 Z9.345
N16640 X7.006 Z9.132
N16645 X6.77 Z8.882
N16650 X6.69 Z8.776
N16655 G3 X6.15 Z8.956 I-0.24 K0.181
N16660 G0 Z11.791
N16665 X34.92 Y19.14
N16670 Z9.484
N16675 G1 Z7.793 F500
N16680 G3 X34.531 Z7.507 I-0.3 K0
N16685 G1 X34.284 Z7.584
N16690 X33.949 Z7.659
N16695 X33.594 Z7.7
N16700 X33.369 Z7.707
N16705 X11.977 Z7.71
N16710 X11.811 Z7.759
N16715 X11.648 Z7.88
N16720 X10.479 Z9.049
N16725 X10.278 Z9.231
N16730 X10.096 Z9.364
N16735 X9.863 Z9.506
N16740 X9.572 Z9.636
N16745 X9.309 Z9.718
N16750 X8.992 Z9.775
N16755 X8.759 Z9.79
N16760 X8.519 Z9.786
N16765 X8.197 Z9.742
N16770 X7.873 Z9.652
N16775 X7.563 Z9.519
N16780 X7.272 Z9.345
N16785 X7.006 Z9.132
N16790 X6.77 Z8.882
N16795 X6.69 Z8.776
N16800 G3 X6.15 Z8.956 I-0.24 K0.181
N16805 G0 Z11.791
N16810 X34.92 Y19.29
N16815 Z9.484
N16820 G1 Z7.793 F500
N16825 G3 X34.531 Z7.507 I-0.3 K0
N16830 G1 X34.284 Z7.584
N16835 X33.949 Z7.659
N16840 X33.594 Z7.7
N16845 X33.369 Z7.707
N16850 X11.977 Z7.71
N16855 X11.811 Z7.759
N16860 X11.648 Z7.88
N16865 X10.479 Z9.049
N16870 X10.278 Z9.231
N16875 X10.096 Z9.364
N16880 X9.863 Z9.506
N16885 X9.572 Z9.636
N16890 X9.309 Z9.718
N16895 X8.992 Z9.775
N16900 X8.759 Z9.79
N16905 X8.519 Z9.786
N16910 X8.197 Z9.742
N16915 X7.873 Z9.652
N16920 X7.563 Z9.519
N16925 X7.272 Z9.345
N16930 X7.006 Z9.132
N16935 X6.77 Z8.882
N16940 X6.69 Z8.776
N16945 G3 X6.15 Z8.956 I-0.24 K0.181
N16950 G0 Z11.791
N16955 X34.92 Y19.44
N16960 Z9.484
N16965 G1 Z7.793 F500
N16970 G3 X34.531 Z7.507 I-0.3 K0
N16975 G1 X34.284 Z7.584
N16980 X33.949 Z7.659
N16985 X33.594 Z7.7
N16990 X33.369 Z7.707
N16995 X12.002 Z7.709
N17000 X11.927 Z7.72
N17005 X11.832 Z7.75
N17010 X11.751 Z7.793
N17015 X11.617 Z7.911
N17020 X10.435 Z9.093
N17025 X10.229 Z9.271
N17030 X9.967 Z9.447
N17035 X9.726 Z9.571
N17040 X9.509 Z9.657
N17045 X9.248 Z9.732
N17050 X8.976 Z9.777
N17055 X8.677 Z9.792
N17060 X8.464 Z9.78
N17065 X8.216 Z9.745
N17070 X7.892 Z9.659
N17075 X7.58 Z9.528
N17080 X7.288 Z9.356
N17085 X7.02 Z9.144
N17090 X6.781 Z8.895
N17095 X6.69 Z8.776
N17100 G3 X6.151 Z8.957 I-0.239 K0.182
N17105 G0 Z11.791
N17110 X34.92 Y19.59
N17115 Z9.484
N17120 G1 Z7.793 F500
N17125 G3 X34.531 Z7.507 I-0.3 K0
N17130 G1 X34.284 Z7.584
N17135 X33.949 Z7.659
N17140 X33.594 Z7.7
N17145 X33.369 Z7.707
N17150 X25.128 Z7.702
N17155 X24.035 Z7.697
N17160 X22.411 Z7.707
N17165 X11.981 Z7.71
N17170 X11.925 Z7.72
N17175 X11.814 Z7.758
N17180 X11.75 Z7.794
N17185 X11.616 Z7.913
N17190 X10.433 Z9.094
N17195 X10.227 Z9.272
N17200 X9.927 Z9.471
N17205 X9.598 Z9.626
N17210 X9.336 Z9.71
N17215 X9.157 Z9.749
N17220 X8.881 Z9.786
N17225 X8.599 Z9.791
N17230 X8.298 Z9.76
N17235 X8.002 Z9.692
N17240 X7.792 Z9.62
N17245 X7.58 Z9.528
N17250 X7.288 Z9.356
N17255 X7.02 Z9.144
N17260 X6.781 Z8.895
N17265 X6.69 Z8.776
N17270 G3 X6.151 Z8.957 I-0.239 K0.182
N17275 G0 Z11.791
N17280 X34.92 Y19.74
N17285 Z9.484
N17290 G1 Z7.793 F500
N17295 G3 X34.531 Z7.507 I-0.3 K0
N17300 G1 X34.284 Z7.584
N17305 X33.949 Z7.659
N17310 X33.594 Z7.7
N17315 X33.368 Z7.707
N17320 X25.777 Z7.704
N17325 X24.514 Z7.67
N17330 X23.659 Z7.679
N17335 X22.533 Z7.707
N17340 X11.977 Z7.71
N17345 X11.913 Z7.723
N17350 X11.792 Z7.769
N17355 X11.648 Z7.88
N17360 X10.479 Z9.049
N17365 X10.278 Z9.231
N17370 X10.096 Z9.364
N17375 X9.863 Z9.506
N17380 X9.572 Z9.636
N17385 X9.309 Z9.718
N17390 X8.992 Z9.775
N17395 X8.759 Z9.79
N17400 X8.519 Z9.786
N17405 X8.197 Z9.742
N17410 X7.873 Z9.652
N17415 X7.563 Z9.519
N17420 X7.272 Z9.345
N17425 X7.006 Z9.132
N17430 X6.77 Z8.882
N17435 X6.69 Z8.776
N17440 G3 X6.15 Z8.956 I-0.24 K0.181
N17445 G0 Z11.791
N17450 X34.92 Y19.89
N17455 Z9.484
N17460 G1 Z7.793 F500
N17465 G3 X34.531 Z7.507 I-0.3 K0
N17470 G1 X34.284 Z7.584
N17475 X33.951 Z7.658
N17480 X33.597 Z7.699
N17485 X33.368 Z7.707
N17490 X26.201 Z7.705
N17495 X25.41 Z7.665
N17500 X24.677 Z7.632
N17505 X24.122 Z7.629
N17510 X23.374 Z7.657
N17515 X22.413 Z7.704
N17520 X11.977 Z7.71
N17525 X11.811 Z7.759
N17530 X11.648 Z7.88
N17535 X10.479 Z9.049
N17540 X10.278 Z9.231
N17545 X10.096 Z9.364
N17550 X9.863 Z9.506
N17555 X9.572 Z9.636
N17560 X9.309 Z9.718
N17565 X8.992 Z9.775
N17570 X8.759 Z9.79
N17575 X8.519 Z9.786
N17580 X8.197 Z9.742
N17585 X7.873 Z9.652
N17590 X7.563 Z9.519
N17595 X7.272 Z9.345
N17600 X7.006 Z9.132
N17605 X6.77 Z8.882
N17610 X6.69 Z8.776
N17615 G3 X6.15 Z8.956 I-0.24 K0.181
N17620 G0 Z11.791
N17625 X34.92 Y20.04
N17630 Z9.484
N17635 G1 Z7.793 F500
N17640 G3 X34.531 Z7.507 I-0.3 K0
N17645 G1 X34.284 Z7.584
N17650 X33.951 Z7.658
N17655 X33.597 Z7.699
N17660 X33.368 Z7.707
N17665 X26.48 Z7.704
N17670 X25.873 Z7.666
N17675 X25.046 Z7.593
N17680 X24.499 Z7.568
N17685 X23.997 Z7.573
N17690 X23.404 Z7.607
N17695 X22.372 Z7.692
N17700 X21.867 Z7.707
N17705 X11.979 Z7.71
N17710 X11.838 Z7.747
N17715 X11.742 Z7.8
N17720 X11.608 Z7.92
N17725 X10.408 Z9.117
N17730 X10.219 Z9.279
N17735 X9.917 Z9.477
N17740 X9.671 Z9.596
N17745 X9.502 Z9.659
N17750 X9.234 Z9.735
N17755 X8.961 Z9.779
N17760 X8.654 Z9.792
N17765 X8.381 Z9.77
N17770 X8.138 Z9.728
N17775 X7.892 Z9.659
N17780 X7.58 Z9.528
N17785 X7.288 Z9.356
N17790 X7.02 Z9.144
N17795 X6.781 Z8.895
N17800 X6.69 Z8.776
N17805 G3 X6.151 Z8.957 I-0.239 K0.182
N17810 G0 Z11.791
N17815 X24.117 Y20.19
N17820 Z9.62
N17825 G1 Z7.806 F500
N17830 G3 X23.788 Z7.507 I-0.3 K0
N17835 G1 X23.255 Z7.56
N17840 X22.241 Z7.677
N17845 X21.823 Z7.704
N17850 X11.966 Z7.712
N17855 X11.801 Z7.764
N17860 X11.75 Z7.794
N17865 X11.616 Z7.912
N17870 X10.434 Z9.094
N17875 X10.228 Z9.272
N17880 X9.927 Z9.471
N17885 X9.598 Z9.626
N17890 X9.336 Z9.71
N17895 X9.157 Z9.749
N17900 X8.882 Z9.786
N17905 X8.6 Z9.791
N17910 X8.298 Z9.76
N17915 X8.002 Z9.692
N17920 X7.792 Z9.62
N17925 X7.58 Z9.528
N17930 X7.288 Z9.356
N17935 X7.02 Z9.144
N17940 X6.781 Z8.895
N17945 X6.69 Z8.776
N17950 G3 X6.151 Z8.957 I-0.239 K0.182
N17955 G0 Z11.791
N17960 X34.92
N17965 Z9.484
N17970 G1 Z7.793 F500
N17975 G3 X34.531 Z7.507 I-0.3 K0
N17980 G1 X34.284 Z7.584
N17985 X33.951 Z7.658
N17990 X33.597 Z7.699
N17995 X33.368 Z7.707
N18000 X26.723 Z7.704
N18005 X26.208 Z7.666
N18010 X25.177 Z7.536
N18015 X24.858 Z7.507
N18020 X24.842 Y20.194 Z7.504
N18025 X24.825 Y20.198 Z7.5
N18030 X24.808 Y20.201 Z7.497
N18035 X24.791 Y20.205 Z7.493
N18040 X24.782 Y20.21 Z7.49
N18045 X24.773 Y20.215 Z7.486
N18050 X24.764 Y20.22 Z7.482
N18055 X24.761 Y20.222 Z7.481
N18060 X24.759 Z7.48
N18065 X24.751 Y20.227 Z7.477
N18070 X24.742 Y20.232 Z7.473
N18075 X24.738 Y20.238 Z7.469
N18080 X24.734 Y20.244 Z7.465
N18085 X24.73 Y20.25 Z7.461
N18090 X24.726 Y20.256 Z7.457
N18095 X24.722 Y20.262 Z7.453
N18100 X24.721 Y20.264 Z7.451
N18105 X24.718 Y20.27 Z7.447
N18110 X24.715 Y20.275 Z7.444
N18115 X24.712 Y20.28 Z7.44
N18120 X24.709 Y20.286 Z7.436
N18125 X24.706 Y20.291 Z7.432
N18130 X24.705 Y20.293 Z7.431
N18135 X24.697 Y20.298 Z7.427
N18140 X24.69 Y20.302 Z7.423
N18145 X24.683 Y20.307 Z7.419
N18150 X24.676 Y20.311 Z7.416
N18155 X24.668 Y20.316 Z7.412
N18160 X24.666 Y20.318 Z7.411
N18165 X24.652 Y20.322 Z7.407
N18170 X24.639 Y20.326 Z7.403
N18175 X24.625 Y20.33 Z7.399
N18180 X24.612 Y20.334 Z7.395
N18185 X24.551 Y20.34 Z7.387
N18190 X24.493 Z7.384
N18195 X24.24 Z7.382
N18200 X24.159 Z7.385
N18205 X24.073 Z7.388
N18210 X23.987 Z7.392
N18215 X23.985
N18220 X23.953 Z7.395
N18225 X23.908 Z7.399
N18230 X23.863 Z7.403
N18235 X23.817 Z7.407
N18240 X23.772 Z7.41
N18245 X23.731 Z7.414
N18250 X23.717 Z7.416
N18255 X23.704 Z7.417
N18260 X23.678 Z7.421
N18265 X23.651 Z7.424
N18270 X23.625 Z7.427
N18275 X23.598 Z7.431
N18280 X23.572 Z7.434
N18285 X23.545 Z7.437
N18290 X23.519 Z7.44
N18295 X23.479 Z7.445
N18300 X23.469 Z7.446
N18305 X23.466 Z7.447
N18310 X23.44 Z7.451
N18315 X23.413 Z7.455
N18320 X23.387 Z7.459
N18325 X23.36 Z7.463
N18330 X23.328 Z7.469
N18335 X23.088 Z7.507
N18340 X22.209 Z7.649
N18345 X21.747 Z7.696
N18350 X21.347 Z7.707
N18355 X11.977 Z7.71
N18360 X11.811 Z7.759
N18365 X11.648 Z7.88
N18370 X10.479 Z9.049
N18375 X10.278 Z9.231
N18380 X10.096 Z9.364
N18385 X9.863 Z9.506
N18390 X9.572 Z9.636
N18395 X9.309 Z9.718
N18400 X8.992 Z9.775
N18405 X8.759 Z9.79
N18410 X8.519 Z9.786
N18415 X8.197 Z9.742
N18420 X7.873 Z9.652
N18425 X7.563 Z9.519
N18430 X7.272 Z9.345
N18435 X7.006 Z9.132
N18440 X6.77 Z8.882
N18445 X6.69 Z8.776
N18450 G3 X6.15 Z8.956 I-0.24 K0.181
N18455 G0 Z11.791
N18460 X34.92
N18465 Z9.484
N18470 G1 Z7.793 F500
N18475 G3 X34.531 Z7.507 I-0.3 K0
N18480 G1 X34.284 Z7.584
N18485 X33.951 Z7.658
N18490 X33.597 Z7.699
N18495 X33.368 Z7.707
N18500 X26.94 Z7.703
N18505 X26.516 Z7.669
N18510 X25.938 Z7.582
N18515 X25.531 Z7.507
N18520 X25.523 Y20.341 Z7.505
N18525 X25.508 Y20.344 Z7.501
N18530 X25.505 Z7.5
N18535 X25.493 Y20.346 Z7.497
N18540 X25.478 Y20.348 Z7.493
N18545 X25.471 Y20.349 Z7.491
N18550 X25.463 Y20.352 Z7.488
N18555 X25.454 Y20.355 Z7.485
N18560 X25.446 Y20.357 Z7.482
N18565 X25.438 Y20.36 Z7.479
N18570 X25.43 Y20.363 Z7.476
N18575 X25.427 Y20.364 Z7.475
N18580 X25.422 Y20.368 Z7.472
N18585 X25.417 Y20.372 Z7.468
N18590 X25.413 Y20.376 Z7.465
N18595 X25.408 Y20.38 Z7.461
N18600 X25.412 Y20.387 Z7.458
N18605 X25.415 Y20.394 Z7.454
N18610 X25.416 Y20.396 Z7.453
N18615 X25.451 Y20.408 Z7.452
N18620 X25.482 Y20.411 Z7.456
N18625 X25.486 Y20.412
N18630 X25.506 Y20.414 Z7.459
N18635 X25.529 Y20.417 Z7.463
N18640 X25.552 Y20.419 Z7.466
N18645 X25.567 Y20.421 Z7.469
N18650 X25.601 Y20.436 Z7.467
N18655 X25.6 Y20.442 Z7.464
N18660 Y20.448 Z7.46
N18665 X25.599 Y20.454 Z7.456
N18670 Y20.455 Z7.455
N18675 X25.593 Y20.458 Z7.452
N18680 X25.586 Y20.461 Z7.448
N18685 X25.579 Y20.465 Z7.444
N18690 X25.572 Y20.468 Z7.44
N18695 X25.565 Y20.472 Z7.437
N18700 X25.563 Y20.473 Z7.435
N18705 X25.555 Y20.474 Z7.432
N18710 X25.547 Y20.476 Z7.429
N18715 X25.539 Y20.478 Z7.426
N18720 X25.531 Y20.479 Z7.423
N18725 X25.524 Y20.481 Z7.42
N18730 X25.516 Y20.482 Z7.417
N18735 X25.508 Y20.484 Z7.414
N18740 X25.5 Y20.486 Z7.411
N18745 X25.461 Y20.488 Z7.399
N18750 X25.459 Z7.398
N18755 X25.445 Y20.489 Z7.395
N18760 X25.426 Y20.49 Z7.39
N18765 X25.412 Z7.387
N18770 X25.398 Z7.383
N18775 X25.384 Z7.38
N18780 X25.37 Z7.377
N18785 X25.355 Z7.374
N18790 X25.341 Z7.37
N18795 X25.327 Z7.367
N18800 X25.313 Z7.364
N18805 X25.299 Z7.36
N18810 X25.284 Z7.357
N18815 X25.27 Z7.353
N18820 X25.256 Z7.35
N18825 X25.242 Z7.346
N18830 X25.217 Z7.34
N18835 X25.199 Z7.337
N18840 X25.17 Z7.332
N18845 X25.141 Z7.327
N18850 X25.112 Z7.322
N18855 X25.083 Z7.317
N18860 X25.055 Z7.312
N18865 X25.026 Z7.307
N18870 X24.997 Z7.301
N18875 X24.98 Z7.298
N18880 X24.978
N18885 X24.953 Z7.295
N18890 X24.924 Z7.291
N18895 X24.895 Z7.287
N18900 X24.866 Z7.284
N18905 X24.836 Z7.28
N18910 X24.807 Z7.276
N18915 X24.778 Z7.272
N18920 X24.749 Z7.268
N18925 X24.733 Z7.266
N18930 X24.731
N18935 X24.682 Z7.262
N18940 X24.63 Z7.258
N18945 X24.577 Z7.254
N18950 X24.525 Z7.251
N18955 X24.488 Z7.248
N18960 X24.487
N18965 X24.243 Z7.245
N18970 X24.17 Z7.249
N18975 X24.095 Z7.253
N18980 X24.015 Z7.257
N18985 X24 Z7.258
N18990 X23.998
N18995 X23.974 Z7.261
N19000 X23.944 Z7.264
N19005 X23.914 Z7.268
N19010 X23.884 Z7.271
N19015 X23.854 Z7.275
N19020 X23.824 Z7.278
N19025 X23.782 Z7.282
N19030 X23.78 Z7.283
N19035 X22.67 Z7.507
N19040 X22.092 Z7.624
N19045 X21.684 Z7.681
N19050 X21.312 Z7.706
N19055 X11.977 Z7.71
N19060 X11.926 Z7.72
N19065 X11.792 Z7.769
N19070 X11.648 Z7.88
N19075 X10.479 Z9.049
N19080 X10.278 Z9.231
N19085 X10.096 Z9.364
N19090 X9.863 Z9.506
N19095 X9.572 Z9.636
N19100 X9.309 Z9.718
N19105 X8.992 Z9.775
N19110 X8.759 Z9.79
N19115 X8.519 Z9.786
N19120 X8.197 Z9.742
N19125 X7.873 Z9.652
N19130 X7.563 Z9.519
N19135 X7.272 Z9.345
N19140 X7.006 Z9.132
N19145 X6.77 Z8.882
N19150 X6.69 Z8.776
N19155 G3 X6.15 Z8.956 I-0.24 K0.181
N19160 G0 Z11.791
N19165 X22.722 Y20.64
N19170 Z9.588
N19175 G1 Z7.799 F500
N19180 G3 X22.353 Z7.507 I-0.3 K0
N19185 G1 X21.906 Z7.613
N19190 X21.509 Z7.677
N19195 X21.171 Z7.705
N19200 X11.977 Z7.71
N19205 X11.811 Z7.759
N19210 X11.648 Z7.88
N19215 X10.479 Z9.049
N19220 X10.278 Z9.231
N19225 X10.096 Z9.364
N19230 X9.863 Z9.506
N19235 X9.572 Z9.636
N19240 X9.309 Z9.718
N19245 X8.992 Z9.775
N19250 X8.759 Z9.79
N19255 X8.519 Z9.786
N19260 X8.197 Z9.742
N19265 X7.873 Z9.652
N19270 X7.563 Z9.519
N19275 X7.272 Z9.345
N19280 X7.006 Z9.132
N19285 X6.77 Z8.882
N19290 X6.69 Z8.776
N19295 G3 X6.15 Z8.956 I-0.24 K0.181
N19300 G0 Z11.791
N19305 X22.469 Y20.79
N19310 Z9.58
N19315 G1 Z7.797 F500
N19320 G3 X22.091 Z7.507 I-0.3 K0
N19325 G1 X21.752 Z7.598
N19330 X21.389 Z7.668
N19335 X21.113 Z7.698
N19340 X20.831 Z7.707
N19345 X12.053
N19350 X11.958 Z7.713
N19355 X11.873 Z7.734
N19360 X11.793 Z7.768
N19365 X11.716 Z7.819
N19370 X10.413 Z9.113
N19375 X10.204 Z9.29
N19380 X9.9 Z9.486
N19385 X9.653 Z9.604
N19390 X9.371 Z9.7
N19395 X9.169 Z9.747
N19400 X8.941 Z9.781
N19405 X8.654 Z9.792
N19410 X8.381 Z9.77
N19415 X8.138 Z9.728
N19420 X7.892 Z9.659
N19425 X7.58 Z9.528
N19430 X7.288 Z9.356
N19435 X7.02 Z9.144
N19440 X6.781 Z8.895
N19445 X6.69 Z8.776
N19450 G3 X6.151 Z8.957 I-0.239 K0.182
N19455 G0 Z11.791
N19460 X22.248 Y20.94
N19465 Z9.573
N19470 G1 Z7.795 F500
N19475 G3 X21.864 Z7.507 I-0.3 K0
N19480 G1 X21.553 Z7.598
N19485 X21.191 Z7.671
N19490 X20.914 Z7.701
N19495 X20.344 Z7.707
N19500 X11.999 Z7.709
N19505 X11.926 Z7.72
N19510 X11.83 Z7.751
N19515 X11.751 Z7.793
N19520 X11.617 Z7.912
N19525 X10.434 Z9.093
N19530 X10.229 Z9.271
N19535 X9.967 Z9.448
N19540 X9.725 Z9.571
N19545 X9.509 Z9.657
N19550 X9.248 Z9.732
N19555 X8.975 Z9.777
N19560 X8.68 Z9.792
N19565 X8.464 Z9.78
N19570 X8.216 Z9.745
N19575 X7.892 Z9.659
N19580 X7.58 Z9.528
N19585 X7.288 Z9.356
N19590 X7.02 Z9.144
N19595 X6.781 Z8.895
N19600 X6.69 Z8.776
N19605 G3 X6.151 Z8.957 I-0.239 K0.182
N19610 G0 Z11.791
N19615 X22.052 Y21.09
N19620 Z9.568
N19625 G1 Z7.795 F500
N19630 G3 X21.665 Z7.508 I-0.3 K0
N19635 G1 X21.311 Z7.615
N19640 X21.04 Z7.67
N19645 X20.764 Z7.701
N19650 X20.578 Z7.707
N19655 X12.05
N19660 X11.949 Z7.714
N19665 X11.86 Z7.739
N19670 X11.742 Z7.8
N19675 X11.608 Z7.921
N19680 X10.408 Z9.117
N19685 X10.219 Z9.279
N19690 X9.917 Z9.477
N19695 X9.671 Z9.596
N19700 X9.501 Z9.659
N19705 X9.234 Z9.735
N19710 X8.961 Z9.779
N19715 X8.654 Z9.792
N19720 X8.381 Z9.77
N19725 X8.138 Z9.728
N19730 X7.892 Z9.659
N19735 X7.58 Z9.528
N19740 X7.288 Z9.356
N19745 X7.02 Z9.144
N19750 X6.781 Z8.895
N19755 X6.69 Z8.776
N19760 G3 X6.151 Z8.957 I-0.239 K0.182
N19765 G0 Z11.791
N19770 X21.884 Y21.24
N19775 Z9.561
N19780 G1 Z7.792 F500
N19785 G3 X21.489 Z7.507 I-0.3 K0
N19790 G1 X21.227 Z7.594
N19795 X20.958 Z7.659
N19800 X20.683 Z7.697
N19805 X20.404 Z7.707
N19810 X11.977 Z7.71
N19815 X11.921 Z7.721
N19820 X11.792 Z7.769
N19825 X11.648 Z7.88
N19830 X10.479 Z9.049
N19835 X10.278 Z9.231
N19840 X10.096 Z9.364
N19845 X9.863 Z9.506
N19850 X9.572 Z9.636
N19855 X9.309 Z9.718
N19860 X8.992 Z9.775
N19865 X8.759 Z9.79
N19870 X8.519 Z9.786
N19875 X8.197 Z9.742
N19880 X7.873 Z9.652
N19885 X7.563 Z9.519
N19890 X7.272 Z9.345
N19895 X7.006 Z9.132
N19900 X6.77 Z8.882
N19905 X6.69 Z8.776
N19910 G3 X6.15 Z8.956 I-0.24 K0.181
N19915 G0 Z11.791
N19920 X21.727 Y21.39
N19925 Z9.555
N19930 G1 Z7.791 F500
N19935 G3 X21.329 Z7.507 I-0.3 K0
N19940 G1 X21.047 Z7.604
N19945 X20.801 Z7.663
N19950 X20.526 Z7.7
N19955 X20.149 Z7.707
N19960 X11.994 Z7.709
N19965 X11.925 Z7.72
N19970 X11.825 Z7.753
N19975 X11.75 Z7.794
N19980 X11.616 Z7.912
N19985 X10.433 Z9.094
N19990 X10.228 Z9.272
N19995 X9.927 Z9.471
N20000 X9.598 Z9.626
N20005 X9.336 Z9.71
N20010 X9.157 Z9.749
N20015 X8.881 Z9.786
N20020 X8.6 Z9.791
N20025 X8.298 Z9.76
N20030 X8.002 Z9.692
N20035 X7.792 Z9.62
N20040 X7.58 Z9.528
N20045 X7.288 Z9.356
N20050 X7.02 Z9.144
N20055 X6.781 Z8.895
N20060 X6.69 Z8.776
N20065 G3 X6.151 Z8.957 I-0.239 K0.182
N20070 G0 Z11.791
N20075 X21.587 Y21.54
N20080 Z9.55
N20085 G1 Z7.789 F500
N20090 G3 X21.184 Z7.507 I-0.3 K0
N20095 G1 X20.925 Z7.602
N20100 X20.658 Z7.667
N20105 X20.383 Z7.702
N20110 X19.943 Z7.707
N20115 X12.073
N20120 X11.949 Z7.714
N20125 X11.883 Z7.731
N20130 X11.752 Z7.793
N20135 X11.608 Z7.921
N20140 X10.408 Z9.117
N20145 X10.219 Z9.279
N20150 X9.917 Z9.477
N20155 X9.671 Z9.596
N20160 X9.501 Z9.659
N20165 X9.234 Z9.735
N20170 X8.961 Z9.779
N20175 X8.654 Z9.792
N20180 X8.381 Z9.77
N20185 X8.138 Z9.728
N20190 X7.892 Z9.659
N20195 X7.58 Z9.528
N20200 X7.288 Z9.356
N20205 X7.02 Z9.144
N20210 X6.781 Z8.895
N20215 X6.69 Z8.776
N20220 G3 X6.151 Z8.957 I-0.239 K0.182
N20225 G0 Z11.791
N20230 X21.461 Y21.69
N20235 Z9.545
N20240 G1 Z7.788 F500
N20245 G3 X21.055 Z7.507 I-0.3 K0
N20250 G1 X20.808 Z7.601
N20255 X20.54 Z7.668
N20260 X20.266 Z7.703
N20265 X19.559 Z7.707
N20270 X11.974 Z7.711
N20275 X11.927 Z7.72
N20280 X11.808 Z7.761
N20285 X11.751 Z7.793
N20290 X11.617 Z7.911
N20295 X10.435 Z9.093
N20300 X10.229 Z9.271
N20305 X9.967 Z9.447
N20310 X9.726 Z9.571
N20315 X9.509 Z9.657
N20320 X9.248 Z9.732
N20325 X8.976 Z9.777
N20330 X8.682 Z9.792
N20335 X8.464 Z9.78
N20340 X8.216 Z9.745
N20345 X7.892 Z9.659
N20350 X7.58 Z9.528
N20355 X7.288 Z9.356
N20360 X7.02 Z9.144
N20365 X6.781 Z8.895
N20370 X6.69 Z8.776
N20375 G3 X6.151 Z8.957 I-0.239 K0.182
N20380 G0 Z11.791
N20385 X21.342 Y21.84
N20390 Z9.541
N20395 G1 Z7.788 F500
N20400 G3 X20.935 Z7.508 I-0.3 K0
N20405 G1 X20.677 Z7.606
N20410 X20.411 Z7.673
N20415 X20.135 Z7.705
N20420 X12.069 Z7.707
N20425 X11.949 Z7.714
N20430 X11.88 Z7.732
N20435 X11.752 Z7.793
N20440 X11.608 Z7.921
N20445 X10.408 Z9.117
N20450 X10.219 Z9.279
N20455 X9.917 Z9.477
N20460 X9.671 Z9.596
N20465 X9.501 Z9.659
N20470 X9.234 Z9.735
N20475 X8.961 Z9.779
N20480 X8.654 Z9.792
N20485 X8.381 Z9.77
N20490 X8.138 Z9.728
N20495 X7.892 Z9.659
N20500 X7.58 Z9.528
N20505 X7.288 Z9.356
N20510 X7.02 Z9.144
N20515 X6.781 Z8.895
N20520 X6.69 Z8.776
N20525 G3 X6.151 Z8.957 I-0.239 K0.182
N20530 G0 Z11.791
N20535 X21.237 Y21.99
N20540 Z9.537
N20545 G1 Z7.786 F500
N20550 G3 X20.827 Z7.507 I-0.3 K0
N20555 G1 X20.572 Z7.608
N20560 X20.306 Z7.675
N20565 X20.036 Z7.705
N20570 X11.983 Z7.71
N20575 X11.925 Z7.72
N20580 X11.816 Z7.757
N20585 X11.75 Z7.794
N20590 X11.616 Z7.912
N20595 X10.434 Z9.094
N20600 X10.228 Z9.272
N20605 X10.005 Z9.423
N20610 X9.808 Z9.532
N20615 X9.598 Z9.626
N20620 X9.336 Z9.71
N20625 X9.157 Z9.749
N20630 X8.882 Z9.786
N20635 X8.6 Z9.791
N20640 X8.298 Z9.76
N20645 X8.002 Z9.692
N20650 X7.792 Z9.62
N20655 X7.58 Z9.528
N20660 X7.288 Z9.356
N20665 X7.02 Z9.144
N20670 X6.781 Z8.895
N20675 X6.69 Z8.776
N20680 G3 X6.151 Z8.957 I-0.239 K0.182
N20685 G0 Z11.791
N20690 X21.141 Y22.14
N20695 Z9.532
N20700 G1 Z7.785 F500
N20705 G3 X20.726 Z7.508 I-0.3 K0
N20710 G1 X20.502 Z7.601
N20715 X20.327 Z7.652
N20720 X20.054 Z7.698
N20725 X19.774 Z7.707
N20730 X11.977 Z7.71
N20735 X11.904 Z7.725
N20740 X11.792 Z7.769
N20745 X11.648 Z7.88
N20750 X10.479 Z9.049
N20755 X10.278 Z9.231
N20760 X10.096 Z9.364
N20765 X9.863 Z9.506
N20770 X9.572 Z9.636
N20775 X9.309 Z9.718
N20780 X8.992 Z9.775
N20785 X8.759 Z9.79
N20790 X8.519 Z9.786
N20795 X8.197 Z9.742
N20800 X7.873 Z9.652
N20805 X7.563 Z9.519
N20810 X7.272 Z9.345
N20815 X7.006 Z9.132
N20820 X6.77 Z8.882
N20825 X6.69 Z8.776
N20830 G3 X6.15 Z8.956 I-0.24 K0.181
N20835 G0 Z11.791
N20840 X21.053 Y22.29
N20845 Z9.529
N20850 G1 Z7.785 F500
N20855 G3 X20.638 Z7.507 I-0.3 K0
N20860 G1 X20.405 Z7.604
N20865 X20.207 Z7.661
N20870 X20.026 Z7.693
N20875 X19.772 Z7.707
N20880 X12.019 Z7.708
N20885 X11.955 Z7.713
N20890 X11.85 Z7.743
N20895 X11.745 Z7.798
N20900 X11.611 Z7.918
N20905 X10.428 Z9.099
N20910 X10.222 Z9.276
N20915 X9.92 Z9.475
N20920 X9.59 Z9.629
N20925 X9.328 Z9.712
N20930 X9.057 Z9.765
N20935 X8.827 Z9.788
N20940 X8.528 Z9.786
N20945 X8.216 Z9.745
N20950 X7.892 Z9.659
N20955 X7.58 Z9.528
N20960 X7.288 Z9.356
N20965 X7.02 Z9.144
N20970 X6.781 Z8.895
N20975 X6.69 Z8.776
N20980 G3 X6.151 Z8.957 I-0.239 K0.182
N20985 G0 Z11.791
N20990 X20.978 Y22.44
N20995 Z9.524
N21000 G1 Z7.781 F500
N21005 G3 X20.554 Z7.508 I-0.3 K0
N21010 G1 X20.388 Z7.583
N21015 X20.215 Z7.64
N21020 X20.036 Z7.68
N21025 X19.853 Z7.703
N21030 X19.065 Z7.707
N21035 X12.048
N21040 X11.954 Z7.714
N21045 X11.872 Z7.734
N21050 X11.788 Z7.771
N21055 X11.715 Z7.82
N21060 X10.412 Z9.114
N21065 X10.203 Z9.291
N21070 X9.977 Z9.441
N21075 X9.819 Z9.527
N21080 X9.566 Z9.638
N21085 X9.303 Z9.719
N21090 X9.031 Z9.77
N21095 X8.801 Z9.789
N21100 X8.565
N21105 X8.216 Z9.745
N21110 X7.892 Z9.659
N21115 X7.58 Z9.528
N21120 X7.288 Z9.356
N21125 X7.02 Z9.144
N21130 X6.781 Z8.895
N21135 X6.69 Z8.776
N21140 G3 X6.151 Z8.957 I-0.239 K0.182
N21145 G0 Z11.791
N21150 X20.904 Y22.59
N21155 Z9.521
N21160 G1 Z7.781 F500
N21165 G3 X20.48 Z7.508 I-0.3 K0
N21170 G1 X20.314 Z7.583
N21175 X20.141 Z7.642
N21180 X19.962 Z7.682
N21185 X19.779 Z7.703
N21190 X11.977 Z7.71
N21195 X11.89 Z7.729
N21200 X11.792 Z7.769
N21205 X11.648 Z7.88
N21210 X10.479 Z9.049
N21215 X10.278 Z9.231
N21220 X10.096 Z9.364
N21225 X9.863 Z9.506
N21230 X9.572 Z9.636
N21235 X9.309 Z9.718
N21240 X8.992 Z9.775
N21245 X8.759 Z9.79
N21250 X8.519 Z9.786
N21255 X8.197 Z9.742
N21260 X7.873 Z9.652
N21265 X7.563 Z9.519
N21270 X7.272 Z9.345
N21275 X7.006 Z9.132
N21280 X6.77 Z8.882
N21285 X6.69 Z8.776
N21290 G3 X6.15 Z8.956 I-0.24 K0.181
N21295 G0 Z11.791
N21300 X20.841 Y22.74
N21305 Z9.517
N21310 G1 Z7.779 F500
N21315 G3 X20.414 Z7.507 I-0.3 K0
N21320 G1 X20.25 Z7.583
N21325 X20.011 Z7.659
N21330 X19.807 Z7.696
N21335 X19.612 Z7.707
N21340 X11.979 Z7.71
N21345 X11.837 Z7.747
N21350 X11.742 Z7.8
N21355 X11.608 Z7.92
N21360 X10.408 Z9.117
N21365 X10.219 Z9.279
N21370 X9.917 Z9.477
N21375 X9.671 Z9.596
N21380 X9.501 Z9.659
N21385 X9.234 Z9.735
N21390 X8.961 Z9.779
N21395 X8.654 Z9.792
N21400 X8.381 Z9.77
N21405 X8.138 Z9.728
N21410 X7.892 Z9.659
N21415 X7.58 Z9.528
N21420 X7.288 Z9.356
N21425 X7.02 Z9.144
N21430 X6.781 Z8.895
N21435 X6.69 Z8.776
N21440 G3 X6.151 Z8.957 I-0.239 K0.182
N21445 G0 Z11.791
N21450 X20.779 Y22.89
N21455 Z9.515
N21460 G1 Z7.779 F500
N21465 G3 X20.351 Z7.508 I-0.3 K0
N21470 G1 X20.187 Z7.585
N21475 X20.015 Z7.644
N21480 X19.836 Z7.684
N21485 X19.653 Z7.705
N21490 X11.973 Z7.711
N21495 X11.808 Z7.761
N21500 X11.742 Z7.8
N21505 X11.608 Z7.92
N21510 X10.408 Z9.117
N21515 X10.219 Z9.278
N21520 X9.917 Z9.477
