(1001)
(T1 D=3 CR=0 - ZMIN=-0.793 - vlcov frza)
N10 G90
N15 G17
N20 G21
(-Attention- Property Safe Retracts is set to Clearance Height.)
(Ensure the clearance height will clear the part and or fixtures.)
(Raise the Z-axis to a safe height before starting the program.)
(Horizontal1)
N25 T1 M6
N30 S10000 M3
N35 G17 G90
N40 M8
N45 G0 X23.318 Y39.915
N50 Z23
N55 G0 Z4.707
N60 G1 Z3.007 F150
N65 X23.317 Y39.917 Z2.974
N70 X23.314 Y39.921 Z2.94
N75 X23.308 Y39.929 Z2.908
N80 X23.301 Y39.939 Z2.877
N85 X23.29 Y39.952 Z2.848
N90 X23.277 Y39.966 Z2.82
N95 X23.26 Y39.981 Z2.795
N100 X23.241 Y39.996 Z2.773
N105 X23.218 Y40.011 Z2.753
N110 X23.192 Y40.025 Z2.737
N115 X23.163 Y40.037 Z2.724
N120 X23.132 Y40.045 Z2.715
N125 X23.099 Y40.051 Z2.709
N130 X23.065 Y40.053 Z2.707
N135 X22.244 F600
N140 X23.371 Y35.532
N145 X23.766 Y40.053
N150 X23.065
N155 G17 G2 X21.788 Y40.905 I0 J1.384
N160 G3 X20.51 Y41.757 I-1.278 J-0.532
N165 G1 X20.063
N170 X24.181 Y25.241
N175 X25.626 Y41.757
N180 X20.51
N185 G2 X18.902 Y42.828 I0 J1.741
N190 G3 X17.295 Y43.9 I-1.607 J-0.67
N195 G1 X17.02
N200 X16.977
N205 X16.975 Y43.898
N210 X16.991 Y43.886
N215 X17.049 Y43.838
N220 X17.146 Y43.748
N225 X17.188 Y43.703
N230 X17.265 Y43.61
N235 X17.326 Y43.524
N240 X17.359 Y43.472
N245 X17.432 Y43.334
N250 X17.464 Y43.26
N255 X17.488 Y43.196
N260 X17.529 Y43.058
N265 X22.281 Y24.001
N270 X22.305 Y23.907
N275 X22.317 Y23.863
N280 X22.359 Y23.725
N285 X22.412 Y23.587
N290 X22.443 Y23.519
N295 X22.478 Y23.449
N300 X22.556 Y23.311
N305 X22.582 Y23.272
N310 X22.651 Y23.173
N315 X22.72 Y23.083
N320 X22.762 Y23.035
N325 X22.858 Y22.931
N330 X22.894 Y22.897
N335 X22.996 Y22.806
N340 X23.055 Y22.758
N345 X23.135 Y22.701
N350 X23.273 Y22.612
N355 X23.411 Y22.538
N360 X23.55 Y22.476
N365 X23.688 Y22.426
N370 X23.826 Y22.387
N375 X23.965 Y22.359
N380 X24.06 Y22.344
N385 X24.103 Y22.339
N390 X24.241 Y22.329
N395 X24.379 Y22.328
N400 X24.518 Y22.336
N405 X24.593 Y22.344
N410 X24.656 Y22.353
N415 X24.794 Y22.382
N420 X24.933 Y22.434
N425 X25.045 Y22.482
N430 X25.071 Y22.495
N435 X25.209 Y22.568
N440 X25.295 Y22.62
N445 X25.348 Y22.656
N450 X25.486 Y22.759
N455 X25.624 Y22.883
N460 X25.638 Y22.897
N465 X25.763 Y23.035
N470 X25.869 Y23.173
N475 X25.901 Y23.218
N480 X25.958 Y23.311
N485 X26.039 Y23.461
N490 X26.095 Y23.587
N495 X26.146 Y23.725
N500 X26.177 Y23.835
N505 X26.185 Y23.863
N510 X26.214 Y24.001
N515 X26.234 Y24.139
N520 X26.248 Y24.277
N525 X27.867 Y42.781
N530 X27.881 Y42.92
N535 X27.909 Y43.058
N540 X27.95 Y43.196
N545 X27.975 Y43.264
N550 X28.006 Y43.334
N555 X28.079 Y43.472
N560 X28.114 Y43.527
N565 X28.173 Y43.61
N570 X28.252 Y43.705
N575 X28.292 Y43.748
N580 X28.39 Y43.84
N585 X28.463 Y43.898
N590 X28.461 Y43.9
N595 X17.295
N600 G18 G3 X16.995 Z3.007 I0 K0.3
N605 G0 Z23
N610 G17
(2D Pocket2)
N615 G0 X31.7 Y28.95
N620 Z22
N625 Z12
N630 G1 Z9 F150
N635 G3 Y28.45 I0 J-0.25 F600
N640 Y28.95 I0 J0.25
N645 G1 Z8 F150
N650 G3 Y28.45 I0 J-0.25 F600
N655 Y28.95 I0 J0.25
N660 G1 Z7 F150
N665 G3 Y28.45 I0 J-0.25 F600
N670 Y28.95 I0 J0.25
N675 G1 Z6 F150
N680 G3 Y28.45 I0 J-0.25 F600
N685 Y28.95 I0 J0.25
N690 G1 Z5 F150
N695 G3 Y28.45 I0 J-0.25 F600
N700 Y28.95 I0 J0.25
N705 G1 Z4 F150
N710 G3 Y28.45 I0 J-0.25 F600
N715 Y28.95 I0 J0.25
N720 G1 Z3 F150
N725 G3 Y28.45 I0 J-0.25 F600
N730 Y28.95 I0 J0.25
N735 G1 Z2 F150
N740 G3 Y28.45 I0 J-0.25 F600
N745 Y28.95 I0 J0.25
N750 G1 Z1 F150
N755 G3 Y28.45 I0 J-0.25 F600
N760 Y28.95 I0 J0.25
N765 G1 Z0 F150
N770 G3 Y28.45 I0 J-0.25 F600
N775 Y28.95 I0 J0.25
N780 G1 Z-0.793 F150
N785 G3 Y28.45 I0 J-0.25 F600
N790 Y28.95 I0 J0.25
N795 G1 X31.643 Y28.943 Z-0.781
N800 X31.589 Y28.924 Z-0.77
N805 X31.548 Y28.898 Z-0.738
N810 X31.512 Y28.865 Z-0.705
N815 X31.493 Y28.84 Z-0.656
N820 X31.476 Y28.811 Z-0.608
N825 X31.467 Y28.791 Z-0.493
N830 G0 Z12
N835 X31.7 Y13.95
N840 G1 Z9 F150
N845 G3 Y13.45 I0 J-0.25 F600
N850 Y13.95 I0 J0.25
N855 G1 Z8 F150
N860 G3 Y13.45 I0 J-0.25 F600
N865 Y13.95 I0 J0.25
N870 G1 Z7 F150
N875 G3 Y13.45 I0 J-0.25 F600
N880 Y13.95 I0 J0.25
N885 G1 Z6 F150
N890 G3 Y13.45 I0 J-0.25 F600
N895 Y13.95 I0 J0.25
N900 G1 Z5 F150
N905 G3 Y13.45 I0 J-0.25 F600
N910 Y13.95 I0 J0.25
N915 G1 Z4 F150
N920 G3 Y13.45 I0 J-0.25 F600
N925 Y13.95 I0 J0.25
N930 G1 Z3 F150
N935 G3 Y13.45 I0 J-0.25 F600
N940 Y13.95 I0 J0.25
N945 G1 Z2 F150
N950 G3 Y13.45 I0 J-0.25 F600
N955 Y13.95 I0 J0.25
N960 G1 Z1 F150
N965 G3 Y13.45 I0 J-0.25 F600
N970 Y13.95 I0 J0.25
N975 G1 Z0 F150
N980 G3 Y13.45 I0 J-0.25 F600
N985 Y13.95 I0 J0.25
N990 G1 Z-0.793 F150
N995 G3 Y13.45 I0 J-0.25 F600
N1000 Y13.95 I0 J0.25
N1005 G1 X31.643 Y13.943 Z-0.781
N1010 X31.589 Y13.924 Z-0.77
N1015 X31.548 Y13.898 Z-0.738
N1020 X31.512 Y13.865 Z-0.705
N1025 X31.493 Y13.84 Z-0.656
N1030 X31.476 Y13.811 Z-0.608
N1035 X31.467 Y13.791 Z-0.493
N1040 G0 Z12
N1045 X15.7 Y13.95
N1050 G1 Z9 F150
N1055 G3 Y13.45 I0 J-0.25 F600
N1060 Y13.95 I0 J0.25
N1065 G1 Z8 F150
N1070 G3 Y13.45 I0 J-0.25 F600
N1075 Y13.95 I0 J0.25
N1080 G1 Z7 F150
N1085 G3 Y13.45 I0 J-0.25 F600
N1090 Y13.95 I0 J0.25
N1095 G1 Z6 F150
N1100 G3 Y13.45 I0 J-0.25 F600
N1105 Y13.95 I0 J0.25
N1110 G1 Z5 F150
N1115 G3 Y13.45 I0 J-0.25 F600
N1120 Y13.95 I0 J0.25
N1125 G1 Z4 F150
N1130 G3 Y13.45 I0 J-0.25 F600
N1135 Y13.95 I0 J0.25
N1140 G1 Z3 F150
N1145 G3 Y13.45 I0 J-0.25 F600
N1150 Y13.95 I0 J0.25
N1155 G1 Z2 F150
N1160 G3 Y13.45 I0 J-0.25 F600
N1165 Y13.95 I0 J0.25
N1170 G1 Z1 F150
N1175 G3 Y13.45 I0 J-0.25 F600
N1180 Y13.95 I0 J0.25
N1185 G1 Z0 F150
N1190 G3 Y13.45 I0 J-0.25 F600
N1195 Y13.95 I0 J0.25
N1200 G1 Z-0.793 F150
N1205 G3 Y13.45 I0 J-0.25 F600
N1210 Y13.95 I0 J0.25
N1215 G1 X15.643 Y13.943 Z-0.781
N1220 X15.589 Y13.924 Z-0.77
N1225 X15.548 Y13.898 Z-0.738
N1230 X15.512 Y13.865 Z-0.705
N1235 X15.493 Y13.84 Z-0.656
N1240 X15.476 Y13.811 Z-0.608
N1245 X15.467 Y13.791 Z-0.493
N1250 G0 Z12
N1255 X15.7 Y28.95
N1260 G1 Z9 F150
N1265 G3 Y28.45 I0 J-0.25 F600
N1270 Y28.95 I0 J0.25
N1275 G1 Z8 F150
N1280 G3 Y28.45 I0 J-0.25 F600
N1285 Y28.95 I0 J0.25
N1290 G1 Z7 F150
N1295 G3 Y28.45 I0 J-0.25 F600
N1300 Y28.95 I0 J0.25
N1305 G1 Z6 F150
N1310 G3 Y28.45 I0 J-0.25 F600
N1315 Y28.95 I0 J0.25
N1320 G1 Z5 F150
N1325 G3 Y28.45 I0 J-0.25 F600
N1330 Y28.95 I0 J0.25
N1335 G1 Z4 F150
N1340 G3 Y28.45 I0 J-0.25 F600
N1345 Y28.95 I0 J0.25
N1350 G1 Z3 F150
N1355 G3 Y28.45 I0 J-0.25 F600
N1360 Y28.95 I0 J0.25
N1365 G1 Z2 F150
N1370 G3 Y28.45 I0 J-0.25 F600
N1375 Y28.95 I0 J0.25
N1380 G1 Z1 F150
N1385 G3 Y28.45 I0 J-0.25 F600
N1390 Y28.95 I0 J0.25
N1395 G1 Z0 F150
N1400 G3 Y28.45 I0 J-0.25 F600
N1405 Y28.95 I0 J0.25
N1410 G1 Z-0.793 F150
N1415 G3 Y28.45 I0 J-0.25 F600
N1420 Y28.95 I0 J0.25
N1425 G1 X15.643 Y28.943 Z-0.781
N1430 X15.589 Y28.924 Z-0.77
N1435 X15.548 Y28.898 Z-0.738
N1440 X15.512 Y28.865 Z-0.705
N1445 X15.493 Y28.84 Z-0.656
N1450 X15.476 Y28.811 Z-0.608
N1455 X15.467 Y28.791 Z-0.493
N1460 G0 Z22
(2D Kontura1)
N1465 G0 Z25
N1470 X23 Y5.3
N1475 Z25
N1480 Z15
N1485 G1 Z11 F150
N1490 Z-0.493
N1495 G19 G3 Y5.6 Z-0.793 J0.3 K0 F600
N1500 G1 Y5.9
N1505 G17 G3 X22.7 Y6.2 I-0.3 J0
N1510 G1 X7.7
N1515 G2 X6.2 Y7.7 I0 J1.5
N1520 G1 Y42.7
N1525 G2 X7.7 Y44.2 I1.5 J0
N1530 G1 X37.7
N1535 G2 X39.2 Y42.7 I0 J-1.5
N1540 G1 Y7.7
N1545 G2 X37.7 Y6.2 I-1.5 J0
N1550 G1 X22.7
N1555 G3 X22.4 Y5.9 I0 J-0.3
N1560 G1 Y5.6
N1565 G19 G2 Y5.3 Z-0.493 J0 K0.3
N1570 G0 Z25
N1575 G17
N1580 M9
N1585 M2
