(1001)
(T2 D=3 CR=1.5 - ZMIN=2.707 - Frza s kulovm koncem)
N10 G90
N15 G17
N20 G21
(-Attention- Property Safe Retracts is set to Clearance Height.)
(Ensure the clearance height will clear the part and or fixtures.)
(Raise the Z-axis to a safe height before starting the program.)
(Contour2)
N25 T2 M6
N30 S10000 M3
N35 G17 G90
N40 M8
N45 G0 X16.668 Y43.134
N50 Z22
N55 G0 Z9.006
N60 G1 Z3.007 F20
N65 X16.66 Y43.132 Z2.94
N70 X16.639 Y43.127 Z2.877
N75 X16.604 Y43.118 Z2.82
N80 X16.558 Y43.107 Z2.773
N85 X16.503 Y43.093 Z2.737
N90 X16.441 Y43.078 Z2.715
N95 X16.376 Y43.062 Z2.707
N100 G17 G3 X16.158 Y42.698 I0.073 J-0.291 F500
N105 G1 X20.904 Y23.665
N110 X20.94 Y23.527
N115 X20.968 Y23.427
N120 X21.002 Y23.314 F20
N125 X21.06 Y23.149 F500
N130 X21.147 Y22.942 F20
N135 X21.224 Y22.788 F500
N140 X21.283 Y22.682 F20
N145 X21.313 Y22.63 F500
N150 X21.353 Y22.561
N155 X21.426 Y22.451
N160 X21.496 Y22.35 F20
N165 X21.599 Y22.214 F500
N170 X21.719 Y22.074 F20
N175 X21.729 Y22.062 F500
N180 X21.778 Y22.009
N185 X21.866 Y21.919
N190 X21.952 Y21.838 F20
N195 X21.96 Y21.831 F500
N200 X22.069 Y21.733
N205 X22.161 Y21.66
N210 X22.259 Y21.585 F20
N215 X22.399 Y21.486 F500
N220 X22.536 Y21.401 F20
N225 X22.582 Y21.374 F500
N230 X22.651 Y21.336
N235 X22.743 Y21.288
N240 X22.85 Y21.236 F20
N245 X22.97 Y21.182 F500
N250 X23.066 Y21.145
N255 X23.102 Y21.131
N260 X23.217 Y21.089 F20
N265 X23.383 Y21.038 F500
N270 X23.523 Y21.003 F20
N275 X23.549 Y20.997 F500
N280 X23.618 Y20.981
N285 X23.757 Y20.956
N290 X23.895 Y20.937
N295 X24.033 Y20.921
N300 X24.102 Y20.917
N305 X24.158 Y20.914
N310 X24.281 Y20.91 F20
N315 X24.456 Y20.912 F500
N320 X24.59 Y20.921 F20
N325 X24.655 Y20.925 F500
N330 X24.724 Y20.933
N335 X24.849 Y20.95
N340 X24.985 Y20.973 F20
N345 X25.001 Y20.976 F500
N350 X25.07 Y20.99
N355 X25.091 Y20.994
N360 X25.093 Y20.995
N365 X25.139 Y21.008
N370 X25.197 Y21.026
N375 X25.32 Y21.066 F20
N380 X25.415 Y21.101 F500
N385 X25.553 Y21.158
N390 X25.574 Y21.167
N395 X25.68 Y21.214 F20
N400 X25.835 Y21.293 F500
N405 X25.932 Y21.349 F20
N410 X25.968 Y21.371 F500
N415 X26.105 Y21.457
N420 X26.167 Y21.499
N425 X26.258 Y21.565 F20
N430 X26.383 Y21.661 F500
N435 X26.424 Y21.697
N440 X26.463 Y21.731
N445 X26.558 Y21.814 F20
N450 X26.68 Y21.935 F500
N455 X26.758 Y22.019 F20
N460 X26.797 Y22.064 F500
N465 X26.869 Y22.147
N470 X26.936 Y22.232
N475 X27.002 Y22.32 F20
N480 X27.074 Y22.423 F500
N485 X27.119 Y22.492
N490 X27.151 Y22.546
N495 X27.213 Y22.648 F20
N500 X27.294 Y22.802 F500
N505 X27.342 Y22.903 F20
N510 X27.374 Y22.975 F500
N515 X27.43 Y23.113
N520 X27.448 Y23.16
N525 X27.486 Y23.265 F20
N530 X27.524 Y23.389 F500
N535 X27.544 Y23.458
N540 X27.551 Y23.486
N545 X27.589 Y23.643 F20
N550 X27.62 Y23.814 F500
N555 X27.635 Y23.923 F20
N560 X27.653 Y24.078 F500
N565 X27.666 Y24.216
N570 X29.283 Y42.698
N575 G3 X29.01 Y43.023 I-0.299 J0.026
N580 G1 X28.943 Y43.029 Z2.715
N585 X28.88 Y43.034 Z2.737
N590 X28.824 Y43.039 Z2.773
N595 X28.776 Y43.043 Z2.82
N600 X28.741 Y43.046 Z2.877
N605 X28.719 Y43.048 Z2.94
N610 X28.711 Y43.049 Z3.007
N615 G0 Z22
N620 M9
N625 M2
