(Project rapoukBasev4)
(Created by Estlcam version 11 build 11,245)
(Machining time about 19:06:18 hours)

(Required tools:)
(End mill 3mm)

G90
G91.1
M03 S4260
G00 Z5.0000


(No. 1: )
G00 X79.1000 Y0.0000
G00 Z0.5000
G02 X-39.5500 Y-68.5026 Z0.3333 I-79.1000 J0.0000 F30 S4260
G02 Y68.5026 Z0.1667 I39.5500 J68.5026
G02 X79.1000 Y0.0000 Z0.0000 I39.5500 J-68.5026
G02 X-39.5500 Y-68.5026 Z-0.1667 I-79.1000 J0.0000
G02 Y68.5026 Z-0.3333 I39.5500 J68.5026
G02 X79.1000 Y0.0000 Z-0.5000 I39.5500 J-68.5026
G02 X-39.5500 Y-68.5026 I-79.1000 J0.0000
G02 Y68.5026 I39.5500 J68.5026
G02 X79.1000 Y0.0000 I39.5500 J-68.5026
G02 X73.2439 Y-30.3386 I-79.1867 J-0.4494 F75
G02 X56.1847 Y-56.1847 I-73.4960 J29.9566
G02 X30.4753 Y-73.5739 I-56.5638 J55.9283
G02 X0.0000 Y-79.8144 I-30.9237 J73.4820
G02 X-30.6120 Y-73.9039 I-0.4494 J79.9011
G02 X-56.6899 Y-56.6899 I30.2300 J74.1560
G02 X-74.2339 Y-30.7487 I56.4334 J57.0690
G02 X-80.5288 Y0.0000 I74.1420 J31.1971
G02 X-74.5639 Y30.8854 I80.6155 J0.4494
G02 X-57.1950 Y57.1950 I74.8160 J-30.5034
G02 X-31.0221 Y74.8939 I57.5741 J-56.9386
G02 X0.0000 Y81.2431 I31.4705 J-74.8021
G02 X31.1587 Y75.2239 I0.4494 J-81.3299
G02 X57.7001 Y57.7001 I-30.7768 J-75.4760
G02 X75.5364 Y31.2882 I-57.4711 J-58.0393
G02 X81.7600 Y0.0000 I-75.5364 J-31.2882
G02 X-40.8800 Y-70.8062 I-81.7600 J0.0000
G02 Y70.8062 I40.8800 J70.8062
G02 X81.7600 Y0.0000 I40.8800 J-70.8062
G02 X-79.1000 I-80.4300 J0.0000
G02 X79.1000 I79.1000 J0.0000
G02 X-39.5500 Y-68.5026 Z-0.6667 I-79.1000 J0.0000 F30
G02 Y68.5026 Z-0.8333 I39.5500 J68.5026
G02 X79.1000 Y0.0000 Z-1.0000 I39.5500 J-68.5026
G02 X-39.5500 Y-68.5026 I-79.1000 J0.0000
G02 Y68.5026 I39.5500 J68.5026
G02 X79.1000 Y0.0000 I39.5500 J-68.5026
G02 X73.2439 Y-30.3386 I-79.1867 J-0.4494 F75
G02 X56.1847 Y-56.1847 I-73.4960 J29.9566
G02 X30.4753 Y-73.5739 I-56.5638 J55.9283
G02 X0.0000 Y-79.8144 I-30.9237 J73.4820
G02 X-30.6120 Y-73.9039 I-0.4494 J79.9011
G02 X-56.6899 Y-56.6899 I30.2300 J74.1560
G02 X-74.2339 Y-30.7487 I56.4334 J57.0690
G02 X-80.5288 Y0.0000 I74.1420 J31.1971
G02 X-74.5639 Y30.8854 I80.6155 J0.4494
G02 X-57.1950 Y57.1950 I74.8160 J-30.5034
G02 X-31.0221 Y74.8939 I57.5741 J-56.9386
G02 X0.0000 Y81.2431 I31.4705 J-74.8021
G02 X31.1587 Y75.2239 I0.4494 J-81.3299
G02 X57.7001 Y57.7001 I-30.7768 J-75.4760
G02 X75.5364 Y31.2882 I-57.4711 J-58.0393
G02 X81.7600 Y0.0000 I-75.5364 J-31.2882
G02 X-40.8800 Y-70.8062 I-81.7600 J0.0000
G02 Y70.8062 I40.8800 J70.8062
G02 X81.7600 Y0.0000 I40.8800 J-70.8062
G02 X-79.1000 I-80.4300 J0.0000
G02 X79.1000 I79.1000 J0.0000
G02 X-39.5500 Y-68.5026 Z-1.1667 I-79.1000 J0.0000 F30
G02 Y68.5026 Z-1.3333 I39.5500 J68.5026
G02 X79.1000 Y0.0000 Z-1.5000 I39.5500 J-68.5026
G02 X-39.5500 Y-68.5026 I-79.1000 J0.0000
G02 Y68.5026 I39.5500 J68.5026
G02 X79.1000 Y0.0000 I39.5500 J-68.5026
G02 X73.2439 Y-30.3386 I-79.1867 J-0.4494 F75
G02 X56.1847 Y-56.1847 I-73.4960 J29.9566
G02 X30.4753 Y-73.5739 I-56.5638 J55.9283
G02 X0.0000 Y-79.8144 I-30.9237 J73.4820
G02 X-30.6120 Y-73.9039 I-0.4494 J79.9011
G02 X-56.6899 Y-56.6899 I30.2300 J74.1560
G02 X-74.2339 Y-30.7487 I56.4334 J57.0690
G02 X-80.5288 Y0.0000 I74.1420 J31.1971
G02 X-74.5639 Y30.8854 I80.6155 J0.4494
G02 X-57.1950 Y57.1950 I74.8160 J-30.5034
G02 X-31.0221 Y74.8939 I57.5741 J-56.9386
G02 X0.0000 Y81.2431 I31.4705 J-74.8021
G02 X31.1587 Y75.2239 I0.4494 J-81.3299
G02 X57.7001 Y57.7001 I-30.7768 J-75.4760
G02 X75.5364 Y31.2882 I-57.4711 J-58.0393
G02 X81.7600 Y0.0000 I-75.5364 J-31.2882
G02 X-40.8800 Y-70.8062 I-81.7600 J0.0000
G02 Y70.8062 I40.8800 J70.8062
G02 X81.7600 Y0.0000 I40.8800 J-70.8062
G02 X-79.1000 I-80.4300 J0.0000
G02 X79.1000 I79.1000 J0.0000
G02 X-39.5500 Y-68.5026 Z-1.6667 I-79.1000 J0.0000 F30
G02 Y68.5026 Z-1.8333 I39.5500 J68.5026
G02 X79.1000 Y0.0000 Z-2.0000 I39.5500 J-68.5026
G02 X-39.5500 Y-68.5026 I-79.1000 J0.0000
G02 Y68.5026 I39.5500 J68.5026
G02 X79.1000 Y0.0000 I39.5500 J-68.5026
G02 X73.2439 Y-30.3386 I-79.1867 J-0.4494 F75
G02 X56.1847 Y-56.1847 I-73.4960 J29.9566
G02 X30.4753 Y-73.5739 I-56.5638 J55.9283
G02 X0.0000 Y-79.8144 I-30.9237 J73.4820
G02 X-30.6120 Y-73.9039 I-0.4494 J79.9011
G02 X-56.6899 Y-56.6899 I30.2300 J74.1560
G02 X-74.2339 Y-30.7487 I56.4334 J57.0690
G02 X-80.5288 Y0.0000 I74.1420 J31.1971
G02 X-74.5639 Y30.8854 I80.6155 J0.4494
G02 X-57.1950 Y57.1950 I74.8160 J-30.5034
G02 X-31.0221 Y74.8939 I57.5741 J-56.9386
G02 X0.0000 Y81.2431 I31.4705 J-74.8021
G02 X31.1587 Y75.2239 I0.4494 J-81.3299
G02 X57.7001 Y57.7001 I-30.7768 J-75.4760
G02 X75.5364 Y31.2882 I-57.4711 J-58.0393
G02 X81.7600 Y0.0000 I-75.5364 J-31.2882
G02 X-40.8800 Y-70.8062 I-81.7600 J0.0000
G02 Y70.8062 I40.8800 J70.8062
G02 X81.7600 Y0.0000 I40.8800 J-70.8062
G02 X-79.1000 I-80.4300 J0.0000
G02 X79.1000 I79.1000 J0.0000
G02 X-39.5500 Y-68.5026 Z-2.1667 I-79.1000 J0.0000 F30
G02 Y68.5026 Z-2.3333 I39.5500 J68.5026
G02 X79.1000 Y0.0000 Z-2.5000 I39.5500 J-68.5026
G02 X-39.5500 Y-68.5026 I-79.1000 J0.0000
G02 Y68.5026 I39.5500 J68.5026
G02 X79.1000 Y0.0000 I39.5500 J-68.5026
G02 X73.2439 Y-30.3386 I-79.1867 J-0.4494 F75
G02 X56.1847 Y-56.1847 I-73.4960 J29.9566
G02 X30.4753 Y-73.5739 I-56.5638 J55.9283
G02 X0.0000 Y-79.8144 I-30.9237 J73.4820
G02 X-30.6120 Y-73.9039 I-0.4494 J79.9011
G02 X-56.6899 Y-56.6899 I30.2300 J74.1560
G02 X-74.2339 Y-30.7487 I56.4334 J57.0690
G02 X-80.5288 Y0.0000 I74.1420 J31.1971
G02 X-74.5639 Y30.8854 I80.6155 J0.4494
G02 X-57.1950 Y57.1950 I74.8160 J-30.5034
G02 X-31.0221 Y74.8939 I57.5741 J-56.9386
G02 X0.0000 Y81.2431 I31.4705 J-74.8021
G02 X31.1587 Y75.2239 I0.4494 J-81.3299
G02 X57.7001 Y57.7001 I-30.7768 J-75.4760
G02 X75.5364 Y31.2882 I-57.4711 J-58.0393
G02 X81.7600 Y0.0000 I-75.5364 J-31.2882
G02 X-40.8800 Y-70.8062 I-81.7600 J0.0000
G02 Y70.8062 I40.8800 J70.8062
G02 X81.7600 Y0.0000 I40.8800 J-70.8062
G02 X-79.1000 I-80.4300 J0.0000
G02 X79.1000 I79.1000 J0.0000
G02 X-39.5500 Y-68.5026 Z-2.6667 I-79.1000 J0.0000 F30
G02 Y68.5026 Z-2.8333 I39.5500 J68.5026
G02 X79.1000 Y0.0000 Z-3.0000 I39.5500 J-68.5026
G02 X-39.5500 Y-68.5026 I-79.1000 J0.0000
G02 Y68.5026 I39.5500 J68.5026
G02 X79.1000 Y0.0000 I39.5500 J-68.5026
G02 X73.2439 Y-30.3386 I-79.1867 J-0.4494 F75
G02 X56.1847 Y-56.1847 I-73.4960 J29.9566
G02 X30.4753 Y-73.5739 I-56.5638 J55.9283
G02 X0.0000 Y-79.8144 I-30.9237 J73.4820
G02 X-30.6120 Y-73.9039 I-0.4494 J79.9011
G02 X-56.6899 Y-56.6899 I30.2300 J74.1560
G02 X-74.2339 Y-30.7487 I56.4334 J57.0690
G02 X-80.5288 Y0.0000 I74.1420 J31.1971
G02 X-74.5639 Y30.8854 I80.6155 J0.4494
G02 X-57.1950 Y57.1950 I74.8160 J-30.5034
G02 X-31.0221 Y74.8939 I57.5741 J-56.9386
G02 X0.0000 Y81.2431 I31.4705 J-74.8021
G02 X31.1587 Y75.2239 I0.4494 J-81.3299
G02 X57.7001 Y57.7001 I-30.7768 J-75.4760
G02 X75.5364 Y31.2882 I-57.4711 J-58.0393
G02 X81.7600 Y0.0000 I-75.5364 J-31.2882
G02 X-40.8800 Y-70.8062 I-81.7600 J0.0000
G02 Y70.8062 I40.8800 J70.8062
G02 X81.7600 Y0.0000 I40.8800 J-70.8062
G02 X-79.1000 I-80.4300 J0.0000
G02 X79.1000 I79.1000 J0.0000
G02 X-39.5500 Y-68.5026 Z-3.1667 I-79.1000 J0.0000 F30
G02 Y68.5026 Z-3.3333 I39.5500 J68.5026
G02 X79.1000 Y0.0000 Z-3.5000 I39.5500 J-68.5026
G02 X-39.5500 Y-68.5026 I-79.1000 J0.0000
G02 Y68.5026 I39.5500 J68.5026
G02 X79.1000 Y0.0000 I39.5500 J-68.5026
G02 X73.2439 Y-30.3386 I-79.1867 J-0.4494 F75
G02 X56.1847 Y-56.1847 I-73.4960 J29.9566
G02 X30.4753 Y-73.5739 I-56.5638 J55.9283
G02 X0.0000 Y-79.8144 I-30.9237 J73.4820
G02 X-30.6120 Y-73.9039 I-0.4494 J79.9011
G02 X-56.6899 Y-56.6899 I30.2300 J74.1560
G02 X-74.2339 Y-30.7487 I56.4334 J57.0690
G02 X-80.5288 Y0.0000 I74.1420 J31.1971
G02 X-74.5639 Y30.8854 I80.6155 J0.4494
G02 X-57.1950 Y57.1950 I74.8160 J-30.5034
G02 X-31.0221 Y74.8939 I57.5741 J-56.9386
G02 X0.0000 Y81.2431 I31.4705 J-74.8021
G02 X31.1587 Y75.2239 I0.4494 J-81.3299
G02 X57.7001 Y57.7001 I-30.7768 J-75.4760
G02 X75.5364 Y31.2882 I-57.4711 J-58.0393
G02 X81.7600 Y0.0000 I-75.5364 J-31.2882
G02 X-40.8800 Y-70.8062 I-81.7600 J0.0000
G02 Y70.8062 I40.8800 J70.8062
G02 X81.7600 Y0.0000 I40.8800 J-70.8062
G02 X-79.1000 I-80.4300 J0.0000
G02 X79.1000 I79.1000 J0.0000
G02 X-39.5500 Y-68.5026 Z-3.6667 I-79.1000 J0.0000 F30
G02 Y68.5026 Z-3.8333 I39.5500 J68.5026
G02 X79.1000 Y0.0000 Z-4.0000 I39.5500 J-68.5026
G02 X-39.5500 Y-68.5026 I-79.1000 J0.0000
G02 Y68.5026 I39.5500 J68.5026
G02 X79.1000 Y0.0000 I39.5500 J-68.5026
G02 X73.2439 Y-30.3386 I-79.1867 J-0.4494 F75
G02 X56.1847 Y-56.1847 I-73.4960 J29.9566
G02 X30.4753 Y-73.5739 I-56.5638 J55.9283
G02 X0.0000 Y-79.8144 I-30.9237 J73.4820
G02 X-30.6120 Y-73.9039 I-0.4494 J79.9011
G02 X-56.6899 Y-56.6899 I30.2300 J74.1560
G02 X-74.2339 Y-30.7487 I56.4334 J57.0690
G02 X-80.5288 Y0.0000 I74.1420 J31.1971
G02 X-74.5639 Y30.8854 I80.6155 J0.4494
G02 X-57.1950 Y57.1950 I74.8160 J-30.5034
G02 X-31.0221 Y74.8939 I57.5741 J-56.9386
G02 X0.0000 Y81.2431 I31.4705 J-74.8021
G02 X31.1587 Y75.2239 I0.4494 J-81.3299
G02 X57.7001 Y57.7001 I-30.7768 J-75.4760
G02 X75.5364 Y31.2882 I-57.4711 J-58.0393
G02 X81.7600 Y0.0000 I-75.5364 J-31.2882
G02 X-40.8800 Y-70.8062 I-81.7600 J0.0000
G02 Y70.8062 I40.8800 J70.8062
G02 X81.7600 Y0.0000 I40.8800 J-70.8062
G02 X-79.1000 I-80.4300 J0.0000
G02 X79.1000 I79.1000 J0.0000
G02 X-39.5500 Y-68.5026 Z-4.1667 I-79.1000 J0.0000 F30
G02 Y68.5026 Z-4.3333 I39.5500 J68.5026
G02 X79.1000 Y0.0000 Z-4.5000 I39.5500 J-68.5026
G02 X-39.5500 Y-68.5026 I-79.1000 J0.0000
G02 Y68.5026 I39.5500 J68.5026
G02 X79.1000 Y0.0000 I39.5500 J-68.5026
G02 X73.2439 Y-30.3386 I-79.1867 J-0.4494 F75
G02 X56.1847 Y-56.1847 I-73.4960 J29.9566
G02 X30.4753 Y-73.5739 I-56.5638 J55.9283
G02 X0.0000 Y-79.8144 I-30.9237 J73.4820
G02 X-30.6120 Y-73.9039 I-0.4494 J79.9011
G02 X-56.6899 Y-56.6899 I30.2300 J74.1560
G02 X-74.2339 Y-30.7487 I56.4334 J57.0690
G02 X-80.5288 Y0.0000 I74.1420 J31.1971
G02 X-74.5639 Y30.8854 I80.6155 J0.4494
G02 X-57.1950 Y57.1950 I74.8160 J-30.5034
G02 X-31.0221 Y74.8939 I57.5741 J-56.9386
G02 X0.0000 Y81.2431 I31.4705 J-74.8021
G02 X31.1587 Y75.2239 I0.4494 J-81.3299
G02 X57.7001 Y57.7001 I-30.7768 J-75.4760
G02 X75.5364 Y31.2882 I-57.4711 J-58.0393
G02 X81.7600 Y0.0000 I-75.5364 J-31.2882
G02 X-40.8800 Y-70.8062 I-81.7600 J0.0000
G02 Y70.8062 I40.8800 J70.8062
G02 X81.7600 Y0.0000 I40.8800 J-70.8062
G02 X-79.1000 I-80.4300 J0.0000
G02 X79.1000 I79.1000 J0.0000
G02 X-39.5500 Y-68.5026 Z-4.6667 I-79.1000 J0.0000 F30
G02 Y68.5026 Z-4.8333 I39.5500 J68.5026
G02 X79.1000 Y0.0000 Z-5.0000 I39.5500 J-68.5026
G02 X-39.5500 Y-68.5026 I-79.1000 J0.0000
G02 Y68.5026 I39.5500 J68.5026
G02 X79.1000 Y0.0000 I39.5500 J-68.5026
G02 X73.2439 Y-30.3386 I-79.1867 J-0.4494 F75
G02 X56.1847 Y-56.1847 I-73.4960 J29.9566
G02 X30.4753 Y-73.5739 I-56.5638 J55.9283
G02 X0.0000 Y-79.8144 I-30.9237 J73.4820
G02 X-30.6120 Y-73.9039 I-0.4494 J79.9011
G02 X-56.6899 Y-56.6899 I30.2300 J74.1560
G02 X-74.2339 Y-30.7487 I56.4334 J57.0690
G02 X-80.5288 Y0.0000 I74.1420 J31.1971
G02 X-74.5639 Y30.8854 I80.6155 J0.4494
G02 X-57.1950 Y57.1950 I74.8160 J-30.5034
G02 X-31.0221 Y74.8939 I57.5741 J-56.9386
G02 X0.0000 Y81.2431 I31.4705 J-74.8021
G02 X31.1587 Y75.2239 I0.4494 J-81.3299
G02 X57.7001 Y57.7001 I-30.7768 J-75.4760
G02 X75.5364 Y31.2882 I-57.4711 J-58.0393
G02 X81.7600 Y0.0000 I-75.5364 J-31.2882
G02 X-40.8800 Y-70.8062 I-81.7600 J0.0000
G02 Y70.8062 I40.8800 J70.8062
G02 X81.7600 Y0.0000 I40.8800 J-70.8062
G02 X-79.1000 I-80.4300 J0.0000
G02 X79.1000 I79.1000 J0.0000
G02 X-39.5500 Y-68.5026 Z-5.1667 I-79.1000 J0.0000 F30
G02 Y68.5026 Z-5.3333 I39.5500 J68.5026
G02 X79.1000 Y0.0000 Z-5.5000 I39.5500 J-68.5026
G02 X-39.5500 Y-68.5026 I-79.1000 J0.0000
G02 Y68.5026 I39.5500 J68.5026
G02 X79.1000 Y0.0000 I39.5500 J-68.5026
G02 X73.2439 Y-30.3386 I-79.1867 J-0.4494 F75
G02 X56.1847 Y-56.1847 I-73.4960 J29.9566
G02 X30.4753 Y-73.5739 I-56.5638 J55.9283
G02 X0.0000 Y-79.8144 I-30.9237 J73.4820
G02 X-30.6120 Y-73.9039 I-0.4494 J79.9011
G02 X-56.6899 Y-56.6899 I30.2300 J74.1560
G02 X-74.2339 Y-30.7487 I56.4334 J57.0690
G02 X-80.5288 Y0.0000 I74.1420 J31.1971
G02 X-74.5639 Y30.8854 I80.6155 J0.4494
G02 X-57.1950 Y57.1950 I74.8160 J-30.5034
G02 X-31.0221 Y74.8939 I57.5741 J-56.9386
G02 X0.0000 Y81.2431 I31.4705 J-74.8021
G02 X31.1587 Y75.2239 I0.4494 J-81.3299
G02 X57.7001 Y57.7001 I-30.7768 J-75.4760
G02 X75.5364 Y31.2882 I-57.4711 J-58.0393
G02 X81.7600 Y0.0000 I-75.5364 J-31.2882
G02 X-40.8800 Y-70.8062 I-81.7600 J0.0000
G02 Y70.8062 I40.8800 J70.8062
G02 X81.7600 Y0.0000 I40.8800 J-70.8062
G02 X-79.1000 I-80.4300 J0.0000
G02 X79.1000 I79.1000 J0.0000
G02 X-39.5500 Y-68.5026 Z-5.6667 I-79.1000 J0.0000 F30
G02 Y68.5026 Z-5.8333 I39.5500 J68.5026
G02 X79.1000 Y0.0000 Z-6.0000 I39.5500 J-68.5026
G02 X-39.5500 Y-68.5026 I-79.1000 J0.0000
G02 Y68.5026 I39.5500 J68.5026
G02 X79.1000 Y0.0000 I39.5500 J-68.5026
G02 X73.2439 Y-30.3386 I-79.1867 J-0.4494 F75
G02 X56.1847 Y-56.1847 I-73.4960 J29.9566
G02 X30.4753 Y-73.5739 I-56.5638 J55.9283
G02 X0.0000 Y-79.8144 I-30.9237 J73.4820
G02 X-30.6120 Y-73.9039 I-0.4494 J79.9011
G02 X-56.6899 Y-56.6899 I30.2300 J74.1560
G02 X-74.2339 Y-30.7487 I56.4334 J57.0690
G02 X-80.5288 Y0.0000 I74.1420 J31.1971
G02 X-74.5639 Y30.8854 I80.6155 J0.4494
G02 X-57.1950 Y57.1950 I74.8160 J-30.5034
G02 X-31.0221 Y74.8939 I57.5741 J-56.9386
G02 X0.0000 Y81.2431 I31.4705 J-74.8021
G02 X31.1587 Y75.2239 I0.4494 J-81.3299
G02 X57.7001 Y57.7001 I-30.7768 J-75.4760
G02 X75.5364 Y31.2882 I-57.4711 J-58.0393
G02 X81.7600 Y0.0000 I-75.5364 J-31.2882
G02 X-40.8800 Y-70.8062 I-81.7600 J0.0000
G02 Y70.8062 I40.8800 J70.8062
G02 X81.7600 Y0.0000 I40.8800 J-70.8062
G02 X-79.1000 I-80.4300 J0.0000
G02 X79.1000 I79.1000 J0.0000
G02 X-39.5500 Y-68.5026 Z-6.1667 I-79.1000 J0.0000 F30
G02 Y68.5026 Z-6.3333 I39.5500 J68.5026
G02 X79.1000 Y0.0000 Z-6.5000 I39.5500 J-68.5026
G02 X-39.5500 Y-68.5026 I-79.1000 J0.0000
G02 Y68.5026 I39.5500 J68.5026
G02 X79.1000 Y0.0000 I39.5500 J-68.5026
G02 X73.2439 Y-30.3386 I-79.1867 J-0.4494 F75
G02 X56.1847 Y-56.1847 I-73.4960 J29.9566
G02 X30.4753 Y-73.5739 I-56.5638 J55.9283
G02 X0.0000 Y-79.8144 I-30.9237 J73.4820
G02 X-30.6120 Y-73.9039 I-0.4494 J79.9011
G02 X-56.6899 Y-56.6899 I30.2300 J74.1560
G02 X-74.2339 Y-30.7487 I56.4334 J57.0690
G02 X-80.5288 Y0.0000 I74.1420 J31.1971
G02 X-74.5639 Y30.8854 I80.6155 J0.4494
G02 X-57.1950 Y57.1950 I74.8160 J-30.5034
G02 X-31.0221 Y74.8939 I57.5741 J-56.9386
G02 X0.0000 Y81.2431 I31.4705 J-74.8021
G02 X31.1587 Y75.2239 I0.4494 J-81.3299
G02 X57.7001 Y57.7001 I-30.7768 J-75.4760
G02 X75.5364 Y31.2882 I-57.4711 J-58.0393
G02 X81.7600 Y0.0000 I-75.5364 J-31.2882
G02 X-40.8800 Y-70.8062 I-81.7600 J0.0000
G02 Y70.8062 I40.8800 J70.8062
G02 X81.7600 Y0.0000 I40.8800 J-70.8062
G02 X-79.1000 I-80.4300 J0.0000
G02 X79.1000 I79.1000 J0.0000
G02 X-39.5500 Y-68.5026 Z-6.6667 I-79.1000 J0.0000 F30
G02 Y68.5026 Z-6.8333 I39.5500 J68.5026
G02 X79.1000 Y0.0000 Z-7.0000 I39.5500 J-68.5026
G02 X-39.5500 Y-68.5026 I-79.1000 J0.0000
G02 Y68.5026 I39.5500 J68.5026
G02 X79.1000 Y0.0000 I39.5500 J-68.5026
G02 X73.2439 Y-30.3386 I-79.1867 J-0.4494 F75
G02 X56.1847 Y-56.1847 I-73.4960 J29.9566
G02 X30.4753 Y-73.5739 I-56.5638 J55.9283
G02 X0.0000 Y-79.8144 I-30.9237 J73.4820
G02 X-30.6120 Y-73.9039 I-0.4494 J79.9011
G02 X-56.6899 Y-56.6899 I30.2300 J74.1560
G02 X-74.2339 Y-30.7487 I56.4334 J57.0690
G02 X-80.5288 Y0.0000 I74.1420 J31.1971
G02 X-74.5639 Y30.8854 I80.6155 J0.4494
G02 X-57.1950 Y57.1950 I74.8160 J-30.5034
G02 X-31.0221 Y74.8939 I57.5741 J-56.9386
G02 X0.0000 Y81.2431 I31.4705 J-74.8021
G02 X31.1587 Y75.2239 I0.4494 J-81.3299
G02 X57.7001 Y57.7001 I-30.7768 J-75.4760
G02 X75.5364 Y31.2882 I-57.4711 J-58.0393
G02 X81.7600 Y0.0000 I-75.5364 J-31.2882
G02 X-40.8800 Y-70.8062 I-81.7600 J0.0000
G02 Y70.8062 I40.8800 J70.8062
G02 X81.7600 Y0.0000 I40.8800 J-70.8062
G02 X-79.1000 I-80.4300 J0.0000
G02 X79.1000 I79.1000 J0.0000
G02 X-39.5500 Y-68.5026 Z-7.1667 I-79.1000 J0.0000 F30
G02 Y68.5026 Z-7.3333 I39.5500 J68.5026
G02 X79.1000 Y0.0000 Z-7.5000 I39.5500 J-68.5026
G02 X-39.5500 Y-68.5026 I-79.1000 J0.0000
G02 Y68.5026 I39.5500 J68.5026
G02 X79.1000 Y0.0000 I39.5500 J-68.5026
G02 X73.2439 Y-30.3386 I-79.1867 J-0.4494 F75
G02 X56.1847 Y-56.1847 I-73.4960 J29.9566
G02 X30.4753 Y-73.5739 I-56.5638 J55.9283
G02 X0.0000 Y-79.8144 I-30.9237 J73.4820
G02 X-30.6120 Y-73.9039 I-0.4494 J79.9011
G02 X-56.6899 Y-56.6899 I30.2300 J74.1560
G02 X-74.2339 Y-30.7487 I56.4334 J57.0690
G02 X-80.5288 Y0.0000 I74.1420 J31.1971
G02 X-74.5639 Y30.8854 I80.6155 J0.4494
G02 X-57.1950 Y57.1950 I74.8160 J-30.5034
G02 X-31.0221 Y74.8939 I57.5741 J-56.9386
G02 X0.0000 Y81.2431 I31.4705 J-74.8021
G02 X31.1587 Y75.2239 I0.4494 J-81.3299
G02 X57.7001 Y57.7001 I-30.7768 J-75.4760
G02 X75.5364 Y31.2882 I-57.4711 J-58.0393
G02 X81.7600 Y0.0000 I-75.5364 J-31.2882
G02 X-40.8800 Y-70.8062 I-81.7600 J0.0000
G02 Y70.8062 I40.8800 J70.8062
G02 X81.7600 Y0.0000 I40.8800 J-70.8062
G02 X-79.1000 I-80.4300 J0.0000
G02 X79.1000 I79.1000 J0.0000
G02 X-39.5500 Y-68.5026 Z-7.6667 I-79.1000 J0.0000 F30
G02 Y68.5026 Z-7.8333 I39.5500 J68.5026
G02 X79.1000 Y0.0000 Z-8.0000 I39.5500 J-68.5026
G02 X-39.5500 Y-68.5026 I-79.1000 J0.0000
G02 Y68.5026 I39.5500 J68.5026
G02 X79.1000 Y0.0000 I39.5500 J-68.5026
G02 X73.2439 Y-30.3386 I-79.1867 J-0.4494 F75
G02 X56.1847 Y-56.1847 I-73.4960 J29.9566
G02 X30.4753 Y-73.5739 I-56.5638 J55.9283
G02 X0.0000 Y-79.8144 I-30.9237 J73.4820
G02 X-30.6120 Y-73.9039 I-0.4494 J79.9011
G02 X-56.6899 Y-56.6899 I30.2300 J74.1560
G02 X-74.2339 Y-30.7487 I56.4334 J57.0690
G02 X-80.5288 Y0.0000 I74.1420 J31.1971
G02 X-74.5639 Y30.8854 I80.6155 J0.4494
G02 X-57.1950 Y57.1950 I74.8160 J-30.5034
G02 X-31.0221 Y74.8939 I57.5741 J-56.9386
G02 X0.0000 Y81.2431 I31.4705 J-74.8021
G02 X31.1587 Y75.2239 I0.4494 J-81.3299
G02 X57.7001 Y57.7001 I-30.7768 J-75.4760
G02 X75.5364 Y31.2882 I-57.4711 J-58.0393
G02 X81.7600 Y0.0000 I-75.5364 J-31.2882
G02 X-40.8800 Y-70.8062 I-81.7600 J0.0000
G02 Y70.8062 I40.8800 J70.8062
G02 X81.7600 Y0.0000 I40.8800 J-70.8062
G02 X-79.1000 I-80.4300 J0.0000
G02 X79.1000 I79.1000 J0.0000
G02 X-39.5500 Y-68.5026 Z-8.1667 I-79.1000 J0.0000 F30
G02 Y68.5026 Z-8.3333 I39.5500 J68.5026
G02 X79.1000 Y0.0000 Z-8.5000 I39.5500 J-68.5026
G02 X-39.5500 Y-68.5026 I-79.1000 J0.0000
G02 Y68.5026 I39.5500 J68.5026
G02 X79.1000 Y0.0000 I39.5500 J-68.5026
G02 X73.2439 Y-30.3386 I-79.1867 J-0.4494 F75
G02 X56.1847 Y-56.1847 I-73.4960 J29.9566
G02 X30.4753 Y-73.5739 I-56.5638 J55.9283
G02 X0.0000 Y-79.8144 I-30.9237 J73.4820
G02 X-30.6120 Y-73.9039 I-0.4494 J79.9011
G02 X-56.6899 Y-56.6899 I30.2300 J74.1560
G02 X-74.2339 Y-30.7487 I56.4334 J57.0690
G02 X-80.5288 Y0.0000 I74.1420 J31.1971
G02 X-74.5639 Y30.8854 I80.6155 J0.4494
G02 X-57.1950 Y57.1950 I74.8160 J-30.5034
G02 X-31.0221 Y74.8939 I57.5741 J-56.9386
G02 X0.0000 Y81.2431 I31.4705 J-74.8021
G02 X31.1587 Y75.2239 I0.4494 J-81.3299
G02 X57.7001 Y57.7001 I-30.7768 J-75.4760
G02 X75.5364 Y31.2882 I-57.4711 J-58.0393
G02 X81.7600 Y0.0000 I-75.5364 J-31.2882
G02 X-40.8800 Y-70.8062 I-81.7600 J0.0000
G02 Y70.8062 I40.8800 J70.8062
G02 X81.7600 Y0.0000 I40.8800 J-70.8062
G02 X-79.1000 I-80.4300 J0.0000
G02 X79.1000 I79.1000 J0.0000
G02 X-39.5500 Y-68.5026 Z-8.6667 I-79.1000 J0.0000 F30
G02 Y68.5026 Z-8.8333 I39.5500 J68.5026
G02 X79.1000 Y0.0000 Z-9.0000 I39.5500 J-68.5026
G02 X-39.5500 Y-68.5026 I-79.1000 J0.0000
G02 Y68.5026 I39.5500 J68.5026
G02 X79.1000 Y0.0000 I39.5500 J-68.5026
G02 X73.2439 Y-30.3386 I-79.1867 J-0.4494 F75
G02 X56.1847 Y-56.1847 I-73.4960 J29.9566
G02 X30.4753 Y-73.5739 I-56.5638 J55.9283
G02 X0.0000 Y-79.8144 I-30.9237 J73.4820
G02 X-30.6120 Y-73.9039 I-0.4494 J79.9011
G02 X-56.6899 Y-56.6899 I30.2300 J74.1560
G02 X-74.2339 Y-30.7487 I56.4334 J57.0690
G02 X-80.5288 Y0.0000 I74.1420 J31.1971
G02 X-74.5639 Y30.8854 I80.6155 J0.4494
G02 X-57.1950 Y57.1950 I74.8160 J-30.5034
G02 X-31.0221 Y74.8939 I57.5741 J-56.9386
G02 X0.0000 Y81.2431 I31.4705 J-74.8021
G02 X31.1587 Y75.2239 I0.4494 J-81.3299
G02 X57.7001 Y57.7001 I-30.7768 J-75.4760
G02 X75.5364 Y31.2882 I-57.4711 J-58.0393
G02 X81.7600 Y0.0000 I-75.5364 J-31.2882
G02 X-40.8800 Y-70.8062 I-81.7600 J0.0000
G02 Y70.8062 I40.8800 J70.8062
G02 X81.7600 Y0.0000 I40.8800 J-70.8062
G02 X-79.1000 I-80.4300 J0.0000
G02 X79.1000 I79.1000 J0.0000
G02 X-39.5500 Y-68.5026 Z-9.1667 I-79.1000 J0.0000 F30
G02 Y68.5026 Z-9.3333 I39.5500 J68.5026
G02 X79.1000 Y0.0000 Z-9.5000 I39.5500 J-68.5026
G02 X-39.5500 Y-68.5026 I-79.1000 J0.0000
G02 Y68.5026 I39.5500 J68.5026
G02 X79.1000 Y0.0000 I39.5500 J-68.5026
G02 X73.2439 Y-30.3386 I-79.1867 J-0.4494 F75
G02 X56.1847 Y-56.1847 I-73.4960 J29.9566
G02 X30.4753 Y-73.5739 I-56.5638 J55.9283
G02 X0.0000 Y-79.8144 I-30.9237 J73.4820
G02 X-30.6120 Y-73.9039 I-0.4494 J79.9011
G02 X-56.6899 Y-56.6899 I30.2300 J74.1560
G02 X-74.2339 Y-30.7487 I56.4334 J57.0690
G02 X-80.5288 Y0.0000 I74.1420 J31.1971
G02 X-74.5639 Y30.8854 I80.6155 J0.4494
G02 X-57.1950 Y57.1950 I74.8160 J-30.5034
G02 X-31.0221 Y74.8939 I57.5741 J-56.9386
G02 X0.0000 Y81.2431 I31.4705 J-74.8021
G02 X31.1587 Y75.2239 I0.4494 J-81.3299
G02 X57.7001 Y57.7001 I-30.7768 J-75.4760
G02 X75.5364 Y31.2882 I-57.4711 J-58.0393
G02 X81.7600 Y0.0000 I-75.5364 J-31.2882
G02 X-40.8800 Y-70.8062 I-81.7600 J0.0000
G02 Y70.8062 I40.8800 J70.8062
G02 X81.7600 Y0.0000 I40.8800 J-70.8062
G02 X-79.1000 I-80.4300 J0.0000
G02 X79.1000 I79.1000 J0.0000
G02 X-39.5500 Y-68.5026 Z-9.6667 I-79.1000 J0.0000 F30
G02 Y68.5026 Z-9.8333 I39.5500 J68.5026
G02 X79.1000 Y0.0000 Z-10.0000 I39.5500 J-68.5026
G02 X-39.5500 Y-68.5026 I-79.1000 J0.0000
G02 Y68.5026 I39.5500 J68.5026
G02 X79.1000 Y0.0000 I39.5500 J-68.5026
G02 X73.2439 Y-30.3386 I-79.1867 J-0.4494 F75
G02 X56.1847 Y-56.1847 I-73.4960 J29.9566
G02 X30.4753 Y-73.5739 I-56.5638 J55.9283
G02 X0.0000 Y-79.8144 I-30.9237 J73.4820
G02 X-30.6120 Y-73.9039 I-0.4494 J79.9011
G02 X-56.6899 Y-56.6899 I30.2300 J74.1560
G02 X-74.2339 Y-30.7487 I56.4334 J57.0690
G02 X-80.5288 Y0.0000 I74.1420 J31.1971
G02 X-74.5639 Y30.8854 I80.6155 J0.4494
G02 X-57.1950 Y57.1950 I74.8160 J-30.5034
G02 X-31.0221 Y74.8939 I57.5741 J-56.9386
G02 X0.0000 Y81.2431 I31.4705 J-74.8021
G02 X31.1587 Y75.2239 I0.4494 J-81.3299
G02 X57.7001 Y57.7001 I-30.7768 J-75.4760
G02 X75.5364 Y31.2882 I-57.4711 J-58.0393
G02 X81.7600 Y0.0000 I-75.5364 J-31.2882
G02 X-40.8800 Y-70.8062 I-81.7600 J0.0000
G02 Y70.8062 I40.8800 J70.8062
G02 X81.7600 Y0.0000 I40.8800 J-70.8062
G02 X-79.1000 I-80.4300 J0.0000
G02 X79.1000 I79.1000 J0.0000
G02 X-39.5500 Y-68.5026 Z-10.1667 I-79.1000 J0.0000 F30
G02 Y68.5026 Z-10.3333 I39.5500 J68.5026
G02 X79.1000 Y0.0000 Z-10.5000 I39.5500 J-68.5026
G02 X-39.5500 Y-68.5026 I-79.1000 J0.0000
G02 Y68.5026 I39.5500 J68.5026
G02 X79.1000 Y0.0000 I39.5500 J-68.5026
G02 X73.2439 Y-30.3386 I-79.1867 J-0.4494 F75
G02 X56.1847 Y-56.1847 I-73.4960 J29.9566
G02 X30.4753 Y-73.5739 I-56.5638 J55.9283
G02 X0.0000 Y-79.8144 I-30.9237 J73.4820
G02 X-30.6120 Y-73.9039 I-0.4494 J79.9011
G02 X-56.6899 Y-56.6899 I30.2300 J74.1560
G02 X-74.2339 Y-30.7487 I56.4334 J57.0690
G02 X-80.5288 Y0.0000 I74.1420 J31.1971
G02 X-74.5639 Y30.8854 I80.6155 J0.4494
G02 X-57.1950 Y57.1950 I74.8160 J-30.5034
G02 X-31.0221 Y74.8939 I57.5741 J-56.9386
G02 X0.0000 Y81.2431 I31.4705 J-74.8021
G02 X31.1587 Y75.2239 I0.4494 J-81.3299
G02 X57.7001 Y57.7001 I-30.7768 J-75.4760
G02 X75.5364 Y31.2882 I-57.4711 J-58.0393
G02 X81.7600 Y0.0000 I-75.5364 J-31.2882
G02 X-40.8800 Y-70.8062 I-81.7600 J0.0000
G02 Y70.8062 I40.8800 J70.8062
G02 X81.7600 Y0.0000 I40.8800 J-70.8062
G02 X-79.1000 I-80.4300 J0.0000
G02 X79.1000 I79.1000 J0.0000
G02 X-39.5500 Y-68.5026 Z-10.6667 I-79.1000 J0.0000 F30
G02 Y68.5026 Z-10.8333 I39.5500 J68.5026
G02 X79.1000 Y0.0000 Z-11.0000 I39.5500 J-68.5026
G02 X-39.5500 Y-68.5026 I-79.1000 J0.0000
G02 Y68.5026 I39.5500 J68.5026
G02 X79.1000 Y0.0000 I39.5500 J-68.5026
G02 X73.2439 Y-30.3386 I-79.1867 J-0.4494 F75
G02 X56.1847 Y-56.1847 I-73.4960 J29.9566
G02 X30.4753 Y-73.5739 I-56.5638 J55.9283
G02 X0.0000 Y-79.8144 I-30.9237 J73.4820
G02 X-30.6120 Y-73.9039 I-0.4494 J79.9011
G02 X-56.6899 Y-56.6899 I30.2300 J74.1560
G02 X-74.2339 Y-30.7487 I56.4334 J57.0690
G02 X-80.5288 Y0.0000 I74.1420 J31.1971
G02 X-74.5639 Y30.8854 I80.6155 J0.4494
G02 X-57.1950 Y57.1950 I74.8160 J-30.5034
G02 X-31.0221 Y74.8939 I57.5741 J-56.9386
G02 X0.0000 Y81.2431 I31.4705 J-74.8021
G02 X31.1587 Y75.2239 I0.4494 J-81.3299
G02 X57.7001 Y57.7001 I-30.7768 J-75.4760
G02 X75.5364 Y31.2882 I-57.4711 J-58.0393
G02 X81.7600 Y0.0000 I-75.5364 J-31.2882
G02 X-40.8800 Y-70.8062 I-81.7600 J0.0000
G02 Y70.8062 I40.8800 J70.8062
G02 X81.7600 Y0.0000 I40.8800 J-70.8062
G02 X-79.1000 I-80.4300 J0.0000
G02 X79.1000 I79.1000 J0.0000
G02 X-39.5500 Y-68.5026 Z-11.1667 I-79.1000 J0.0000 F30
G02 Y68.5026 Z-11.3333 I39.5500 J68.5026
G02 X79.1000 Y0.0000 Z-11.5000 I39.5500 J-68.5026
G02 X-39.5500 Y-68.5026 I-79.1000 J0.0000
G02 Y68.5026 I39.5500 J68.5026
G02 X79.1000 Y0.0000 I39.5500 J-68.5026
G02 X73.2439 Y-30.3386 I-79.1867 J-0.4494 F75
G02 X56.1847 Y-56.1847 I-73.4960 J29.9566
G02 X30.4753 Y-73.5739 I-56.5638 J55.9283
G02 X0.0000 Y-79.8144 I-30.9237 J73.4820
G02 X-30.6120 Y-73.9039 I-0.4494 J79.9011
G02 X-56.6899 Y-56.6899 I30.2300 J74.1560
G02 X-74.2339 Y-30.7487 I56.4334 J57.0690
G02 X-80.5288 Y0.0000 I74.1420 J31.1971
G02 X-74.5639 Y30.8854 I80.6155 J0.4494
G02 X-57.1950 Y57.1950 I74.8160 J-30.5034
G02 X-31.0221 Y74.8939 I57.5741 J-56.9386
G02 X0.0000 Y81.2431 I31.4705 J-74.8021
G02 X31.1587 Y75.2239 I0.4494 J-81.3299
G02 X57.7001 Y57.7001 I-30.7768 J-75.4760
G02 X75.5364 Y31.2882 I-57.4711 J-58.0393
G02 X81.7600 Y0.0000 I-75.5364 J-31.2882
G02 X-40.8800 Y-70.8062 I-81.7600 J0.0000
G02 Y70.8062 I40.8800 J70.8062
G02 X81.7600 Y0.0000 I40.8800 J-70.8062
G02 X-79.1000 I-80.4300 J0.0000
G02 X79.1000 I79.1000 J0.0000
G02 X-39.5500 Y-68.5026 Z-11.6667 I-79.1000 J0.0000 F30
G02 Y68.5026 Z-11.8333 I39.5500 J68.5026
G02 X79.1000 Y0.0000 Z-12.0000 I39.5500 J-68.5026
G02 X-39.5500 Y-68.5026 I-79.1000 J0.0000
G02 Y68.5026 I39.5500 J68.5026
G02 X79.1000 Y0.0000 I39.5500 J-68.5026
G02 X73.2439 Y-30.3386 I-79.1867 J-0.4494 F75
G02 X56.1847 Y-56.1847 I-73.4960 J29.9566
G02 X30.4753 Y-73.5739 I-56.5638 J55.9283
G02 X0.0000 Y-79.8144 I-30.9237 J73.4820
G02 X-30.6120 Y-73.9039 I-0.4494 J79.9011
G02 X-56.6899 Y-56.6899 I30.2300 J74.1560
G02 X-74.2339 Y-30.7487 I56.4334 J57.0690
G02 X-80.5288 Y0.0000 I74.1420 J31.1971
G02 X-74.5639 Y30.8854 I80.6155 J0.4494
G02 X-57.1950 Y57.1950 I74.8160 J-30.5034
G02 X-31.0221 Y74.8939 I57.5741 J-56.9386
G02 X0.0000 Y81.2431 I31.4705 J-74.8021
G02 X31.1587 Y75.2239 I0.4494 J-81.3299
G02 X57.7001 Y57.7001 I-30.7768 J-75.4760
G02 X75.5364 Y31.2882 I-57.4711 J-58.0393
G02 X81.7600 Y0.0000 I-75.5364 J-31.2882
G02 X-40.8800 Y-70.8062 I-81.7600 J0.0000
G02 Y70.8062 I40.8800 J70.8062
G02 X81.7600 Y0.0000 I40.8800 J-70.8062
G02 X-79.1000 I-80.4300 J0.0000
G02 X79.1000 I79.1000 J0.0000
G02 X-39.5500 Y-68.5026 Z-12.1667 I-79.1000 J0.0000 F30
G02 Y68.5026 Z-12.3333 I39.5500 J68.5026
G02 X79.1000 Y0.0000 Z-12.5000 I39.5500 J-68.5026
G02 X-39.5500 Y-68.5026 I-79.1000 J0.0000
G02 Y68.5026 I39.5500 J68.5026
G02 X79.1000 Y0.0000 I39.5500 J-68.5026
G02 X73.2439 Y-30.3386 I-79.1867 J-0.4494 F75
G02 X56.1847 Y-56.1847 I-73.4960 J29.9566
G02 X30.4753 Y-73.5739 I-56.5638 J55.9283
G02 X0.0000 Y-79.8144 I-30.9237 J73.4820
G02 X-30.6120 Y-73.9039 I-0.4494 J79.9011
G02 X-56.6899 Y-56.6899 I30.2300 J74.1560
G02 X-74.2339 Y-30.7487 I56.4334 J57.0690
G02 X-80.5288 Y0.0000 I74.1420 J31.1971
G02 X-74.5639 Y30.8854 I80.6155 J0.4494
G02 X-57.1950 Y57.1950 I74.8160 J-30.5034
G02 X-31.0221 Y74.8939 I57.5741 J-56.9386
G02 X0.0000 Y81.2431 I31.4705 J-74.8021
G02 X31.1587 Y75.2239 I0.4494 J-81.3299
G02 X57.7001 Y57.7001 I-30.7768 J-75.4760
G02 X75.5364 Y31.2882 I-57.4711 J-58.0393
G02 X81.7600 Y0.0000 I-75.5364 J-31.2882
G02 X-40.8800 Y-70.8062 I-81.7600 J0.0000
G02 Y70.8062 I40.8800 J70.8062
G02 X81.7600 Y0.0000 I40.8800 J-70.8062
G02 X-79.1000 I-80.4300 J0.0000
G02 X79.1000 I79.1000 J0.0000
G02 X-39.5500 Y-68.5026 Z-12.6667 I-79.1000 J0.0000 F30
G02 Y68.5026 Z-12.8333 I39.5500 J68.5026
G02 X79.1000 Y0.0000 Z-13.0000 I39.5500 J-68.5026
G02 X-39.5500 Y-68.5026 I-79.1000 J0.0000
G02 Y68.5026 I39.5500 J68.5026
G02 X79.1000 Y0.0000 I39.5500 J-68.5026
G02 X73.2439 Y-30.3386 I-79.1867 J-0.4494 F75
G02 X56.1847 Y-56.1847 I-73.4960 J29.9566
G02 X30.4753 Y-73.5739 I-56.5638 J55.9283
G02 X0.0000 Y-79.8144 I-30.9237 J73.4820
G02 X-30.6120 Y-73.9039 I-0.4494 J79.9011
G02 X-56.6899 Y-56.6899 I30.2300 J74.1560
G02 X-74.2339 Y-30.7487 I56.4334 J57.0690
G02 X-80.5288 Y0.0000 I74.1420 J31.1971
G02 X-74.5639 Y30.8854 I80.6155 J0.4494
G02 X-57.1950 Y57.1950 I74.8160 J-30.5034
G02 X-31.0221 Y74.8939 I57.5741 J-56.9386
G02 X0.0000 Y81.2431 I31.4705 J-74.8021
G02 X31.1587 Y75.2239 I0.4494 J-81.3299
G02 X57.7001 Y57.7001 I-30.7768 J-75.4760
G02 X75.5364 Y31.2882 I-57.4711 J-58.0393
G02 X81.7600 Y0.0000 I-75.5364 J-31.2882
G02 X-40.8800 Y-70.8062 I-81.7600 J0.0000
G02 Y70.8062 I40.8800 J70.8062
G02 X81.7600 Y0.0000 I40.8800 J-70.8062
G02 X-79.1000 I-80.4300 J0.0000
G02 X79.1000 I79.1000 J0.0000
G02 X-39.5500 Y-68.5026 Z-13.1667 I-79.1000 J0.0000 F30
G02 Y68.5026 Z-13.3333 I39.5500 J68.5026
G02 X79.1000 Y0.0000 Z-13.5000 I39.5500 J-68.5026
G02 X-39.5500 Y-68.5026 I-79.1000 J0.0000
G02 Y68.5026 I39.5500 J68.5026
G02 X79.1000 Y0.0000 I39.5500 J-68.5026
G02 X73.2439 Y-30.3386 I-79.1867 J-0.4494 F75
G02 X56.1847 Y-56.1847 I-73.4960 J29.9566
G02 X30.4753 Y-73.5739 I-56.5638 J55.9283
G02 X0.0000 Y-79.8144 I-30.9237 J73.4820
G02 X-30.6120 Y-73.9039 I-0.4494 J79.9011
G02 X-56.6899 Y-56.6899 I30.2300 J74.1560
G02 X-74.2339 Y-30.7487 I56.4334 J57.0690
G02 X-80.5288 Y0.0000 I74.1420 J31.1971
G02 X-74.5639 Y30.8854 I80.6155 J0.4494
G02 X-57.1950 Y57.1950 I74.8160 J-30.5034
G02 X-31.0221 Y74.8939 I57.5741 J-56.9386
G02 X0.0000 Y81.2431 I31.4705 J-74.8021
G02 X31.1587 Y75.2239 I0.4494 J-81.3299
G02 X57.7001 Y57.7001 I-30.7768 J-75.4760
G02 X75.5364 Y31.2882 I-57.4711 J-58.0393
G02 X81.7600 Y0.0000 I-75.5364 J-31.2882
G02 X-40.8800 Y-70.8062 I-81.7600 J0.0000
G02 Y70.8062 I40.8800 J70.8062
G02 X81.7600 Y0.0000 I40.8800 J-70.8062
G02 X-79.1000 I-80.4300 J0.0000
G02 X79.1000 I79.1000 J0.0000
G02 X-39.5500 Y-68.5026 Z-13.6667 I-79.1000 J0.0000 F30
G02 Y68.5026 Z-13.8333 I39.5500 J68.5026
G02 X79.1000 Y0.0000 Z-14.0000 I39.5500 J-68.5026
G02 X-39.5500 Y-68.5026 I-79.1000 J0.0000
G02 Y68.5026 I39.5500 J68.5026
G02 X79.1000 Y0.0000 I39.5500 J-68.5026
G02 X73.2439 Y-30.3386 I-79.1867 J-0.4494 F75
G02 X56.1847 Y-56.1847 I-73.4960 J29.9566
G02 X30.4753 Y-73.5739 I-56.5638 J55.9283
G02 X0.0000 Y-79.8144 I-30.9237 J73.4820
G02 X-30.6120 Y-73.9039 I-0.4494 J79.9011
G02 X-56.6899 Y-56.6899 I30.2300 J74.1560
G02 X-74.2339 Y-30.7487 I56.4334 J57.0690
G02 X-80.5288 Y0.0000 I74.1420 J31.1971
G02 X-74.5639 Y30.8854 I80.6155 J0.4494
G02 X-57.1950 Y57.1950 I74.8160 J-30.5034
G02 X-31.0221 Y74.8939 I57.5741 J-56.9386
G02 X0.0000 Y81.2431 I31.4705 J-74.8021
G02 X31.1587 Y75.2239 I0.4494 J-81.3299
G02 X57.7001 Y57.7001 I-30.7768 J-75.4760
G02 X75.5364 Y31.2882 I-57.4711 J-58.0393
G02 X81.7600 Y0.0000 I-75.5364 J-31.2882
G02 X-40.8800 Y-70.8062 I-81.7600 J0.0000
G02 Y70.8062 I40.8800 J70.8062
G02 X81.7600 Y0.0000 I40.8800 J-70.8062
G02 X-79.1000 I-80.4300 J0.0000
G02 X79.1000 I79.1000 J0.0000
G02 X-39.5500 Y-68.5026 Z-14.1667 I-79.1000 J0.0000 F30
G02 Y68.5026 Z-14.3333 I39.5500 J68.5026
G02 X79.1000 Y0.0000 Z-14.5000 I39.5500 J-68.5026
G02 X-39.5500 Y-68.5026 I-79.1000 J0.0000
G02 Y68.5026 I39.5500 J68.5026
G02 X79.1000 Y0.0000 I39.5500 J-68.5026
G02 X73.2439 Y-30.3386 I-79.1867 J-0.4494 F75
G02 X56.1847 Y-56.1847 I-73.4960 J29.9566
G02 X30.4753 Y-73.5739 I-56.5638 J55.9283
G02 X0.0000 Y-79.8144 I-30.9237 J73.4820
G02 X-30.6120 Y-73.9039 I-0.4494 J79.9011
G02 X-56.6899 Y-56.6899 I30.2300 J74.1560
G02 X-74.2339 Y-30.7487 I56.4334 J57.0690
G02 X-80.5288 Y0.0000 I74.1420 J31.1971
G02 X-74.5639 Y30.8854 I80.6155 J0.4494
G02 X-57.1950 Y57.1950 I74.8160 J-30.5034
G02 X-31.0221 Y74.8939 I57.5741 J-56.9386
G02 X0.0000 Y81.2431 I31.4705 J-74.8021
G02 X31.1587 Y75.2239 I0.4494 J-81.3299
G02 X57.7001 Y57.7001 I-30.7768 J-75.4760
G02 X75.5364 Y31.2882 I-57.4711 J-58.0393
G02 X81.7600 Y0.0000 I-75.5364 J-31.2882
G02 X-40.8800 Y-70.8062 I-81.7600 J0.0000
G02 Y70.8062 I40.8800 J70.8062
G02 X81.7600 Y0.0000 I40.8800 J-70.8062
G02 X-79.1000 I-80.4300 J0.0000
G02 X79.1000 I79.1000 J0.0000
G02 X-39.5500 Y-68.5026 Z-14.6667 I-79.1000 J0.0000 F30
G02 Y68.5026 Z-14.8333 I39.5500 J68.5026
G02 X79.1000 Y0.0000 Z-15.0000 I39.5500 J-68.5026
G02 X-39.5500 Y-68.5026 I-79.1000 J0.0000
G02 Y68.5026 I39.5500 J68.5026
G02 X79.1000 Y0.0000 I39.5500 J-68.5026
G02 X73.2439 Y-30.3386 I-79.1867 J-0.4494 F75
G02 X56.1847 Y-56.1847 I-73.4960 J29.9566
G02 X30.4753 Y-73.5739 I-56.5638 J55.9283
G02 X0.0000 Y-79.8144 I-30.9237 J73.4820
G02 X-30.6120 Y-73.9039 I-0.4494 J79.9011
G02 X-56.6899 Y-56.6899 I30.2300 J74.1560
G02 X-74.2339 Y-30.7487 I56.4334 J57.0690
G02 X-80.5288 Y0.0000 I74.1420 J31.1971
G02 X-74.5639 Y30.8854 I80.6155 J0.4494
G02 X-57.1950 Y57.1950 I74.8160 J-30.5034
G02 X-31.0221 Y74.8939 I57.5741 J-56.9386
G02 X0.0000 Y81.2431 I31.4705 J-74.8021
G02 X31.1587 Y75.2239 I0.4494 J-81.3299
G02 X57.7001 Y57.7001 I-30.7768 J-75.4760
G02 X75.5364 Y31.2882 I-57.4711 J-58.0393
G02 X81.7600 Y0.0000 I-75.5364 J-31.2882
G02 X-40.8800 Y-70.8062 I-81.7600 J0.0000
G02 Y70.8062 I40.8800 J70.8062
G02 X81.7600 Y0.0000 I40.8800 J-70.8062
G02 X-79.1000 I-80.4300 J0.0000
G02 X79.1000 I79.1000 J0.0000
G02 X-39.5500 Y-68.5026 Z-15.1667 I-79.1000 J0.0000 F30
G02 Y68.5026 Z-15.3333 I39.5500 J68.5026
G02 X79.1000 Y0.0000 Z-15.5000 I39.5500 J-68.5026
G02 X-39.5500 Y-68.5026 I-79.1000 J0.0000
G02 Y68.5026 I39.5500 J68.5026
G02 X79.1000 Y0.0000 I39.5500 J-68.5026
G02 X73.2439 Y-30.3386 I-79.1867 J-0.4494 F75
G02 X56.1847 Y-56.1847 I-73.4960 J29.9566
G02 X30.4753 Y-73.5739 I-56.5638 J55.9283
G02 X0.0000 Y-79.8144 I-30.9237 J73.4820
G02 X-30.6120 Y-73.9039 I-0.4494 J79.9011
G02 X-56.6899 Y-56.6899 I30.2300 J74.1560
G02 X-74.2339 Y-30.7487 I56.4334 J57.0690
G02 X-80.5288 Y0.0000 I74.1420 J31.1971
G02 X-74.5639 Y30.8854 I80.6155 J0.4494
G02 X-57.1950 Y57.1950 I74.8160 J-30.5034
G02 X-31.0221 Y74.8939 I57.5741 J-56.9386
G02 X0.0000 Y81.2431 I31.4705 J-74.8021
G02 X31.1587 Y75.2239 I0.4494 J-81.3299
G02 X57.7001 Y57.7001 I-30.7768 J-75.4760
G02 X75.5364 Y31.2882 I-57.4711 J-58.0393
G02 X81.7600 Y0.0000 I-75.5364 J-31.2882
G02 X-40.8800 Y-70.8062 I-81.7600 J0.0000
G02 Y70.8062 I40.8800 J70.8062
G02 X81.7600 Y0.0000 I40.8800 J-70.8062
G02 X-79.1000 I-80.4300 J0.0000
G02 X79.1000 I79.1000 J0.0000
G02 X-39.5500 Y-68.5026 Z-15.6667 I-79.1000 J0.0000 F30
G02 Y68.5026 Z-15.8333 I39.5500 J68.5026
G02 X79.1000 Y0.0000 Z-16.0000 I39.5500 J-68.5026
G02 X-39.5500 Y-68.5026 I-79.1000 J0.0000
G02 Y68.5026 I39.5500 J68.5026
G02 X79.1000 Y0.0000 I39.5500 J-68.5026
G02 X73.2439 Y-30.3386 I-79.1867 J-0.4494 F75
G02 X56.1847 Y-56.1847 I-73.4960 J29.9566
G02 X30.4753 Y-73.5739 I-56.5638 J55.9283
G02 X0.0000 Y-79.8144 I-30.9237 J73.4820
G02 X-30.6120 Y-73.9039 I-0.4494 J79.9011
G02 X-56.6899 Y-56.6899 I30.2300 J74.1560
G02 X-74.2339 Y-30.7487 I56.4334 J57.0690
G02 X-80.5288 Y0.0000 I74.1420 J31.1971
G02 X-74.5639 Y30.8854 I80.6155 J0.4494
G02 X-57.1950 Y57.1950 I74.8160 J-30.5034
G02 X-31.0221 Y74.8939 I57.5741 J-56.9386
G02 X0.0000 Y81.2431 I31.4705 J-74.8021
G02 X31.1587 Y75.2239 I0.4494 J-81.3299
G02 X57.7001 Y57.7001 I-30.7768 J-75.4760
G02 X75.5364 Y31.2882 I-57.4711 J-58.0393
G02 X81.7600 Y0.0000 I-75.5364 J-31.2882
G02 X-40.8800 Y-70.8062 I-81.7600 J0.0000
G02 Y70.8062 I40.8800 J70.8062
G02 X81.7600 Y0.0000 I40.8800 J-70.8062
G02 X-79.1000 I-80.4300 J0.0000
G02 X79.1000 I79.1000 J0.0000
G02 X-39.5500 Y-68.5026 Z-16.1667 I-79.1000 J0.0000 F30
G02 Y68.5026 Z-16.3333 I39.5500 J68.5026
G02 X79.1000 Y0.0000 Z-16.5000 I39.5500 J-68.5026
G02 X-39.5500 Y-68.5026 I-79.1000 J0.0000
G02 Y68.5026 I39.5500 J68.5026
G02 X79.1000 Y0.0000 I39.5500 J-68.5026
G02 X73.2439 Y-30.3386 I-79.1867 J-0.4494 F75
G02 X56.1847 Y-56.1847 I-73.4960 J29.9566
G02 X30.4753 Y-73.5739 I-56.5638 J55.9283
G02 X0.0000 Y-79.8144 I-30.9237 J73.4820
G02 X-30.6120 Y-73.9039 I-0.4494 J79.9011
G02 X-56.6899 Y-56.6899 I30.2300 J74.1560
G02 X-74.2339 Y-30.7487 I56.4334 J57.0690
G02 X-80.5288 Y0.0000 I74.1420 J31.1971
G02 X-74.5639 Y30.8854 I80.6155 J0.4494
G02 X-57.1950 Y57.1950 I74.8160 J-30.5034
G02 X-31.0221 Y74.8939 I57.5741 J-56.9386
G02 X0.0000 Y81.2431 I31.4705 J-74.8021
G02 X31.1587 Y75.2239 I0.4494 J-81.3299
G02 X57.7001 Y57.7001 I-30.7768 J-75.4760
G02 X75.5364 Y31.2882 I-57.4711 J-58.0393
G02 X81.7600 Y0.0000 I-75.5364 J-31.2882
G02 X-40.8800 Y-70.8062 I-81.7600 J0.0000
G02 Y70.8062 I40.8800 J70.8062
G02 X81.7600 Y0.0000 I40.8800 J-70.8062
G02 X-79.1000 I-80.4300 J0.0000
G02 X79.1000 I79.1000 J0.0000
G02 X-39.5500 Y-68.5026 Z-16.6667 I-79.1000 J0.0000 F30
G02 Y68.5026 Z-16.8333 I39.5500 J68.5026
G02 X79.1000 Y0.0000 Z-17.0000 I39.5500 J-68.5026
G02 X-39.5500 Y-68.5026 I-79.1000 J0.0000
G02 Y68.5026 I39.5500 J68.5026
G02 X79.1000 Y0.0000 I39.5500 J-68.5026
G02 X73.2439 Y-30.3386 I-79.1867 J-0.4494 F75
G02 X56.1847 Y-56.1847 I-73.4960 J29.9566
G02 X30.4753 Y-73.5739 I-56.5638 J55.9283
G02 X0.0000 Y-79.8144 I-30.9237 J73.4820
G02 X-30.6120 Y-73.9039 I-0.4494 J79.9011
G02 X-56.6899 Y-56.6899 I30.2300 J74.1560
G02 X-74.2339 Y-30.7487 I56.4334 J57.0690
G02 X-80.5288 Y0.0000 I74.1420 J31.1971
G02 X-74.5639 Y30.8854 I80.6155 J0.4494
G02 X-57.1950 Y57.1950 I74.8160 J-30.5034
G02 X-31.0221 Y74.8939 I57.5741 J-56.9386
G02 X0.0000 Y81.2431 I31.4705 J-74.8021
G02 X31.1587 Y75.2239 I0.4494 J-81.3299
G02 X57.7001 Y57.7001 I-30.7768 J-75.4760
G02 X75.5364 Y31.2882 I-57.4711 J-58.0393
G02 X81.7600 Y0.0000 I-75.5364 J-31.2882
G02 X-40.8800 Y-70.8062 I-81.7600 J0.0000
G02 Y70.8062 I40.8800 J70.8062
G02 X81.7600 Y0.0000 I40.8800 J-70.8062
G02 X-79.1000 I-80.4300 J0.0000
G02 X79.1000 I79.1000 J0.0000
G02 X-39.5500 Y-68.5026 Z-17.1667 I-79.1000 J0.0000 F30
G02 Y68.5026 Z-17.3333 I39.5500 J68.5026
G02 X79.1000 Y0.0000 Z-17.5000 I39.5500 J-68.5026
G02 X-39.5500 Y-68.5026 I-79.1000 J0.0000
G02 Y68.5026 I39.5500 J68.5026
G02 X79.1000 Y0.0000 I39.5500 J-68.5026
G02 X73.2439 Y-30.3386 I-79.1867 J-0.4494 F75
G02 X56.1847 Y-56.1847 I-73.4960 J29.9566
G02 X30.4753 Y-73.5739 I-56.5638 J55.9283
G02 X0.0000 Y-79.8144 I-30.9237 J73.4820
G02 X-30.6120 Y-73.9039 I-0.4494 J79.9011
G02 X-56.6899 Y-56.6899 I30.2300 J74.1560
G02 X-74.2339 Y-30.7487 I56.4334 J57.0690
G02 X-80.5288 Y0.0000 I74.1420 J31.1971
G02 X-74.5639 Y30.8854 I80.6155 J0.4494
G02 X-57.1950 Y57.1950 I74.8160 J-30.5034
G02 X-31.0221 Y74.8939 I57.5741 J-56.9386
G02 X0.0000 Y81.2431 I31.4705 J-74.8021
G02 X31.1587 Y75.2239 I0.4494 J-81.3299
G02 X57.7001 Y57.7001 I-30.7768 J-75.4760
G02 X75.5364 Y31.2882 I-57.4711 J-58.0393
G02 X81.7600 Y0.0000 I-75.5364 J-31.2882
G02 X-40.8800 Y-70.8062 I-81.7600 J0.0000
G02 Y70.8062 I40.8800 J70.8062
G02 X81.7600 Y0.0000 I40.8800 J-70.8062
G02 X-79.1000 I-80.4300 J0.0000
G02 X79.1000 I79.1000 J0.0000
G02 X-39.5500 Y-68.5026 Z-17.6667 I-79.1000 J0.0000 F30
G02 Y68.5026 Z-17.8333 I39.5500 J68.5026
G02 X79.1000 Y0.0000 Z-18.0000 I39.5500 J-68.5026
G02 X-39.5500 Y-68.5026 I-79.1000 J0.0000
G02 Y68.5026 I39.5500 J68.5026
G02 X79.1000 Y0.0000 I39.5500 J-68.5026
G02 X73.2439 Y-30.3386 I-79.1867 J-0.4494 F75
G02 X56.1847 Y-56.1847 I-73.4960 J29.9566
G02 X30.4753 Y-73.5739 I-56.5638 J55.9283
G02 X0.0000 Y-79.8144 I-30.9237 J73.4820
G02 X-30.6120 Y-73.9039 I-0.4494 J79.9011
G02 X-56.6899 Y-56.6899 I30.2300 J74.1560
G02 X-74.2339 Y-30.7487 I56.4334 J57.0690
G02 X-80.5288 Y0.0000 I74.1420 J31.1971
G02 X-74.5639 Y30.8854 I80.6155 J0.4494
G02 X-57.1950 Y57.1950 I74.8160 J-30.5034
G02 X-31.0221 Y74.8939 I57.5741 J-56.9386
G02 X0.0000 Y81.2431 I31.4705 J-74.8021
G02 X31.1587 Y75.2239 I0.4494 J-81.3299
G02 X57.7001 Y57.7001 I-30.7768 J-75.4760
G02 X75.5364 Y31.2882 I-57.4711 J-58.0393
G02 X81.7600 Y0.0000 I-75.5364 J-31.2882
G02 X-40.8800 Y-70.8062 I-81.7600 J0.0000
G02 Y70.8062 I40.8800 J70.8062
G02 X81.7600 Y0.0000 I40.8800 J-70.8062
G02 X-79.1000 I-80.4300 J0.0000
G02 X79.1000 I79.1000 J0.0000
G02 X-39.5500 Y-68.5026 Z-18.1667 I-79.1000 J0.0000 F30
G02 Y68.5026 Z-18.3333 I39.5500 J68.5026
G02 X79.1000 Y0.0000 Z-18.5000 I39.5500 J-68.5026
G02 X-39.5500 Y-68.5026 I-79.1000 J0.0000
G02 Y68.5026 I39.5500 J68.5026
G02 X79.1000 Y0.0000 I39.5500 J-68.5026
G02 X73.2439 Y-30.3386 I-79.1867 J-0.4494 F75
G02 X56.1847 Y-56.1847 I-73.4960 J29.9566
G02 X30.4753 Y-73.5739 I-56.5638 J55.9283
G02 X0.0000 Y-79.8144 I-30.9237 J73.4820
G02 X-30.6120 Y-73.9039 I-0.4494 J79.9011
G02 X-56.6899 Y-56.6899 I30.2300 J74.1560
G02 X-74.2339 Y-30.7487 I56.4334 J57.0690
G02 X-80.5288 Y0.0000 I74.1420 J31.1971
G02 X-74.5639 Y30.8854 I80.6155 J0.4494
G02 X-57.1950 Y57.1950 I74.8160 J-30.5034
G02 X-31.0221 Y74.8939 I57.5741 J-56.9386
G02 X0.0000 Y81.2431 I31.4705 J-74.8021
G02 X31.1587 Y75.2239 I0.4494 J-81.3299
G02 X57.7001 Y57.7001 I-30.7768 J-75.4760
G02 X75.5364 Y31.2882 I-57.4711 J-58.0393
G02 X81.7600 Y0.0000 I-75.5364 J-31.2882
G02 X-40.8800 Y-70.8062 I-81.7600 J0.0000
G02 Y70.8062 I40.8800 J70.8062
G02 X81.7600 Y0.0000 I40.8800 J-70.8062
G02 X-79.1000 I-80.4300 J0.0000
G02 X79.1000 I79.1000 J0.0000
G02 X-39.5500 Y-68.5026 Z-18.6667 I-79.1000 J0.0000 F30
G02 Y68.5026 Z-18.8333 I39.5500 J68.5026
G02 X79.1000 Y0.0000 Z-19.0000 I39.5500 J-68.5026
G02 X-39.5500 Y-68.5026 I-79.1000 J0.0000
G02 Y68.5026 I39.5500 J68.5026
G02 X79.1000 Y0.0000 I39.5500 J-68.5026
G02 X73.2439 Y-30.3386 I-79.1867 J-0.4494 F75
G02 X56.1847 Y-56.1847 I-73.4960 J29.9566
G02 X30.4753 Y-73.5739 I-56.5638 J55.9283
G02 X0.0000 Y-79.8144 I-30.9237 J73.4820
G02 X-30.6120 Y-73.9039 I-0.4494 J79.9011
G02 X-56.6899 Y-56.6899 I30.2300 J74.1560
G02 X-74.2339 Y-30.7487 I56.4334 J57.0690
G02 X-80.5288 Y0.0000 I74.1420 J31.1971
G02 X-74.5639 Y30.8854 I80.6155 J0.4494
G02 X-57.1950 Y57.1950 I74.8160 J-30.5034
G02 X-31.0221 Y74.8939 I57.5741 J-56.9386
G02 X0.0000 Y81.2431 I31.4705 J-74.8021
G02 X31.1587 Y75.2239 I0.4494 J-81.3299
G02 X57.7001 Y57.7001 I-30.7768 J-75.4760
G02 X75.5364 Y31.2882 I-57.4711 J-58.0393
G02 X81.7600 Y0.0000 I-75.5364 J-31.2882
G02 X-40.8800 Y-70.8062 I-81.7600 J0.0000
G02 Y70.8062 I40.8800 J70.8062
G02 X81.7600 Y0.0000 I40.8800 J-70.8062
G02 X-79.1000 I-80.4300 J0.0000
G02 X79.1000 I79.1000 J0.0000
G02 X-39.5500 Y-68.5026 Z-19.1667 I-79.1000 J0.0000 F30
G02 Y68.5026 Z-19.3333 I39.5500 J68.5026
G02 X79.1000 Y0.0000 Z-19.5000 I39.5500 J-68.5026
G02 X-39.5500 Y-68.5026 I-79.1000 J0.0000
G02 Y68.5026 I39.5500 J68.5026
G02 X79.1000 Y0.0000 I39.5500 J-68.5026
G02 X73.2439 Y-30.3386 I-79.1867 J-0.4494 F75
G02 X56.1847 Y-56.1847 I-73.4960 J29.9566
G02 X30.4753 Y-73.5739 I-56.5638 J55.9283
G02 X0.0000 Y-79.8144 I-30.9237 J73.4820
G02 X-30.6120 Y-73.9039 I-0.4494 J79.9011
G02 X-56.6899 Y-56.6899 I30.2300 J74.1560
G02 X-74.2339 Y-30.7487 I56.4334 J57.0690
G02 X-80.5288 Y0.0000 I74.1420 J31.1971
G02 X-74.5639 Y30.8854 I80.6155 J0.4494
G02 X-57.1950 Y57.1950 I74.8160 J-30.5034
G02 X-31.0221 Y74.8939 I57.5741 J-56.9386
G02 X0.0000 Y81.2431 I31.4705 J-74.8021
G02 X31.1587 Y75.2239 I0.4494 J-81.3299
G02 X57.7001 Y57.7001 I-30.7768 J-75.4760
G02 X75.5364 Y31.2882 I-57.4711 J-58.0393
G02 X81.7600 Y0.0000 I-75.5364 J-31.2882
G02 X-40.8800 Y-70.8062 I-81.7600 J0.0000
G02 Y70.8062 I40.8800 J70.8062
G02 X81.7600 Y0.0000 I40.8800 J-70.8062
G02 X-79.1000 I-80.4300 J0.0000
G02 X79.1000 I79.1000 J0.0000
G02 X-39.5500 Y-68.5026 Z-19.6667 I-79.1000 J0.0000 F30
G02 Y68.5026 Z-19.8333 I39.5500 J68.5026
G02 X79.1000 Y0.0000 Z-20.0000 I39.5500 J-68.5026
G02 X-39.5500 Y-68.5026 I-79.1000 J0.0000
G02 Y68.5026 I39.5500 J68.5026
G02 X79.1000 Y0.0000 I39.5500 J-68.5026
G02 X73.2439 Y-30.3386 I-79.1867 J-0.4494 F75
G02 X56.1847 Y-56.1847 I-73.4960 J29.9566
G02 X30.4753 Y-73.5739 I-56.5638 J55.9283
G02 X0.0000 Y-79.8144 I-30.9237 J73.4820
G02 X-30.6120 Y-73.9039 I-0.4494 J79.9011
G02 X-56.6899 Y-56.6899 I30.2300 J74.1560
G02 X-74.2339 Y-30.7487 I56.4334 J57.0690
G02 X-80.5288 Y0.0000 I74.1420 J31.1971
G02 X-74.5639 Y30.8854 I80.6155 J0.4494
G02 X-57.1950 Y57.1950 I74.8160 J-30.5034
G02 X-31.0221 Y74.8939 I57.5741 J-56.9386
G02 X0.0000 Y81.2431 I31.4705 J-74.8021
G02 X31.1587 Y75.2239 I0.4494 J-81.3299
G02 X57.7001 Y57.7001 I-30.7768 J-75.4760
G02 X75.5364 Y31.2882 I-57.4711 J-58.0393
G02 X81.7600 Y0.0000 I-75.5364 J-31.2882
G02 X-40.8800 Y-70.8062 I-81.7600 J0.0000
G02 Y70.8062 I40.8800 J70.8062
G02 X81.7600 Y0.0000 I40.8800 J-70.8062
G02 X-79.1000 I-80.4300 J0.0000
G02 X79.1000 I79.1000 J0.0000
G02 X-39.5500 Y-68.5026 Z-20.1667 I-79.1000 J0.0000 F30
G02 Y68.5026 Z-20.3333 I39.5500 J68.5026
G02 X79.1000 Y0.0000 Z-20.5000 I39.5500 J-68.5026
G02 X-39.5500 Y-68.5026 I-79.1000 J0.0000
G02 Y68.5026 I39.5500 J68.5026
G02 X79.1000 Y0.0000 I39.5500 J-68.5026
G02 X73.2439 Y-30.3386 I-79.1867 J-0.4494 F75
G02 X56.1847 Y-56.1847 I-73.4960 J29.9566
G02 X30.4753 Y-73.5739 I-56.5638 J55.9283
G02 X0.0000 Y-79.8144 I-30.9237 J73.4820
G02 X-30.6120 Y-73.9039 I-0.4494 J79.9011
G02 X-56.6899 Y-56.6899 I30.2300 J74.1560
G02 X-74.2339 Y-30.7487 I56.4334 J57.0690
G02 X-80.5288 Y0.0000 I74.1420 J31.1971
G02 X-74.5639 Y30.8854 I80.6155 J0.4494
G02 X-57.1950 Y57.1950 I74.8160 J-30.5034
G02 X-31.0221 Y74.8939 I57.5741 J-56.9386
G02 X0.0000 Y81.2431 I31.4705 J-74.8021
G02 X31.1587 Y75.2239 I0.4494 J-81.3299
G02 X57.7001 Y57.7001 I-30.7768 J-75.4760
G02 X75.5364 Y31.2882 I-57.4711 J-58.0393
G02 X81.7600 Y0.0000 I-75.5364 J-31.2882
G02 X-40.8800 Y-70.8062 I-81.7600 J0.0000
G02 Y70.8062 I40.8800 J70.8062
G02 X81.7600 Y0.0000 I40.8800 J-70.8062
G02 X-79.1000 I-80.4300 J0.0000
G02 X79.1000 I79.1000 J0.0000
G02 X-39.5500 Y-68.5026 Z-20.6667 I-79.1000 J0.0000 F30
G02 Y68.5026 Z-20.8333 I39.5500 J68.5026
G02 X79.1000 Y0.0000 Z-21.0000 I39.5500 J-68.5026
G02 X-39.5500 Y-68.5026 I-79.1000 J0.0000
G02 Y68.5026 I39.5500 J68.5026
G02 X79.1000 Y0.0000 I39.5500 J-68.5026
G02 X73.2439 Y-30.3386 I-79.1867 J-0.4494 F75
G02 X56.1847 Y-56.1847 I-73.4960 J29.9566
G02 X30.4753 Y-73.5739 I-56.5638 J55.9283
G02 X0.0000 Y-79.8144 I-30.9237 J73.4820
G02 X-30.6120 Y-73.9039 I-0.4494 J79.9011
G02 X-56.6899 Y-56.6899 I30.2300 J74.1560
G02 X-74.2339 Y-30.7487 I56.4334 J57.0690
G02 X-80.5288 Y0.0000 I74.1420 J31.1971
G02 X-74.5639 Y30.8854 I80.6155 J0.4494
G02 X-57.1950 Y57.1950 I74.8160 J-30.5034
G02 X-31.0221 Y74.8939 I57.5741 J-56.9386
G02 X0.0000 Y81.2431 I31.4705 J-74.8021
G02 X31.1587 Y75.2239 I0.4494 J-81.3299
G02 X57.7001 Y57.7001 I-30.7768 J-75.4760
G02 X75.5364 Y31.2882 I-57.4711 J-58.0393
G02 X81.7600 Y0.0000 I-75.5364 J-31.2882
G02 X-40.8800 Y-70.8062 I-81.7600 J0.0000
G02 Y70.8062 I40.8800 J70.8062
G02 X81.7600 Y0.0000 I40.8800 J-70.8062
G02 X-79.1000 I-80.4300 J0.0000
G02 X79.1000 I79.1000 J0.0000
G02 X-39.5500 Y-68.5026 Z-21.1667 I-79.1000 J0.0000 F30
G02 Y68.5026 Z-21.3333 I39.5500 J68.5026
G02 X79.1000 Y0.0000 Z-21.5000 I39.5500 J-68.5026
G02 X-39.5500 Y-68.5026 I-79.1000 J0.0000
G02 Y68.5026 I39.5500 J68.5026
G02 X79.1000 Y0.0000 I39.5500 J-68.5026
G02 X73.2439 Y-30.3386 I-79.1867 J-0.4494 F75
G02 X56.1847 Y-56.1847 I-73.4960 J29.9566
G02 X30.4753 Y-73.5739 I-56.5638 J55.9283
G02 X0.0000 Y-79.8144 I-30.9237 J73.4820
G02 X-30.6120 Y-73.9039 I-0.4494 J79.9011
G02 X-56.6899 Y-56.6899 I30.2300 J74.1560
G02 X-74.2339 Y-30.7487 I56.4334 J57.0690
G02 X-80.5288 Y0.0000 I74.1420 J31.1971
G02 X-74.5639 Y30.8854 I80.6155 J0.4494
G02 X-57.1950 Y57.1950 I74.8160 J-30.5034
G02 X-31.0221 Y74.8939 I57.5741 J-56.9386
G02 X0.0000 Y81.2431 I31.4705 J-74.8021
G02 X31.1587 Y75.2239 I0.4494 J-81.3299
G02 X57.7001 Y57.7001 I-30.7768 J-75.4760
G02 X75.5364 Y31.2882 I-57.4711 J-58.0393
G02 X81.7600 Y0.0000 I-75.5364 J-31.2882
G02 X-40.8800 Y-70.8062 I-81.7600 J0.0000
G02 Y70.8062 I40.8800 J70.8062
G02 X81.7600 Y0.0000 I40.8800 J-70.8062
G02 X-79.1000 I-80.4300 J0.0000
G02 X79.1000 I79.1000 J0.0000
G02 X-39.5500 Y-68.5026 Z-21.6667 I-79.1000 J0.0000 F30
G02 Y68.5026 Z-21.8333 I39.5500 J68.5026
G02 X79.1000 Y0.0000 Z-22.0000 I39.5500 J-68.5026
G02 X-39.5500 Y-68.5026 I-79.1000 J0.0000
G02 Y68.5026 I39.5500 J68.5026
G02 X79.1000 Y0.0000 I39.5500 J-68.5026
G02 X73.2439 Y-30.3386 I-79.1867 J-0.4494 F75
G02 X56.1847 Y-56.1847 I-73.4960 J29.9566
G02 X30.4753 Y-73.5739 I-56.5638 J55.9283
G02 X0.0000 Y-79.8144 I-30.9237 J73.4820
G02 X-30.6120 Y-73.9039 I-0.4494 J79.9011
G02 X-56.6899 Y-56.6899 I30.2300 J74.1560
G02 X-74.2339 Y-30.7487 I56.4334 J57.0690
G02 X-80.5288 Y0.0000 I74.1420 J31.1971
G02 X-74.5639 Y30.8854 I80.6155 J0.4494
G02 X-57.1950 Y57.1950 I74.8160 J-30.5034
G02 X-31.0221 Y74.8939 I57.5741 J-56.9386
G02 X0.0000 Y81.2431 I31.4705 J-74.8021
G02 X31.1587 Y75.2239 I0.4494 J-81.3299
G02 X57.7001 Y57.7001 I-30.7768 J-75.4760
G02 X75.5364 Y31.2882 I-57.4711 J-58.0393
G02 X81.7600 Y0.0000 I-75.5364 J-31.2882
G02 X-40.8800 Y-70.8062 I-81.7600 J0.0000
G02 Y70.8062 I40.8800 J70.8062
G02 X81.7600 Y0.0000 I40.8800 J-70.8062
G02 X-79.1000 I-80.4300 J0.0000
G02 X79.1000 I79.1000 J0.0000
G02 X-39.5500 Y-68.5026 Z-22.1667 I-79.1000 J0.0000 F30
G02 Y68.5026 Z-22.3333 I39.5500 J68.5026
G02 X79.1000 Y0.0000 Z-22.5000 I39.5500 J-68.5026
G02 X-39.5500 Y-68.5026 I-79.1000 J0.0000
G02 Y68.5026 I39.5500 J68.5026
G02 X79.1000 Y0.0000 I39.5500 J-68.5026
G02 X73.2439 Y-30.3386 I-79.1867 J-0.4494 F75
G02 X56.1847 Y-56.1847 I-73.4960 J29.9566
G02 X30.4753 Y-73.5739 I-56.5638 J55.9283
G02 X0.0000 Y-79.8144 I-30.9237 J73.4820
G02 X-30.6120 Y-73.9039 I-0.4494 J79.9011
G02 X-56.6899 Y-56.6899 I30.2300 J74.1560
G02 X-74.2339 Y-30.7487 I56.4334 J57.0690
G02 X-80.5288 Y0.0000 I74.1420 J31.1971
G02 X-74.5639 Y30.8854 I80.6155 J0.4494
G02 X-57.1950 Y57.1950 I74.8160 J-30.5034
G02 X-31.0221 Y74.8939 I57.5741 J-56.9386
G02 X0.0000 Y81.2431 I31.4705 J-74.8021
G02 X31.1587 Y75.2239 I0.4494 J-81.3299
G02 X57.7001 Y57.7001 I-30.7768 J-75.4760
G02 X75.5364 Y31.2882 I-57.4711 J-58.0393
G02 X81.7600 Y0.0000 I-75.5364 J-31.2882
G02 X-40.8800 Y-70.8062 I-81.7600 J0.0000
G02 Y70.8062 I40.8800 J70.8062
G02 X81.7600 Y0.0000 I40.8800 J-70.8062
G02 X-79.1000 I-80.4300 J0.0000
G02 X79.1000 I79.1000 J0.0000
G02 X-39.5500 Y-68.5026 Z-22.6667 I-79.1000 J0.0000 F30
G02 Y68.5026 Z-22.8333 I39.5500 J68.5026
G02 X79.1000 Y0.0000 Z-23.0000 I39.5500 J-68.5026
G02 X-39.5500 Y-68.5026 I-79.1000 J0.0000
G02 Y68.5026 I39.5500 J68.5026
G02 X79.1000 Y0.0000 I39.5500 J-68.5026
G02 X73.2439 Y-30.3386 I-79.1867 J-0.4494 F75
G02 X56.1847 Y-56.1847 I-73.4960 J29.9566
G02 X30.4753 Y-73.5739 I-56.5638 J55.9283
G02 X0.0000 Y-79.8144 I-30.9237 J73.4820
G02 X-30.6120 Y-73.9039 I-0.4494 J79.9011
G02 X-56.6899 Y-56.6899 I30.2300 J74.1560
G02 X-74.2339 Y-30.7487 I56.4334 J57.0690
G02 X-80.5288 Y0.0000 I74.1420 J31.1971
G02 X-74.5639 Y30.8854 I80.6155 J0.4494
G02 X-57.1950 Y57.1950 I74.8160 J-30.5034
G02 X-31.0221 Y74.8939 I57.5741 J-56.9386
G02 X0.0000 Y81.2431 I31.4705 J-74.8021
G02 X31.1587 Y75.2239 I0.4494 J-81.3299
G02 X57.7001 Y57.7001 I-30.7768 J-75.4760
G02 X75.5364 Y31.2882 I-57.4711 J-58.0393
G02 X81.7600 Y0.0000 I-75.5364 J-31.2882
G02 X-40.8800 Y-70.8062 I-81.7600 J0.0000
G02 Y70.8062 I40.8800 J70.8062
G02 X81.7600 Y0.0000 I40.8800 J-70.8062
G02 X-79.1000 I-80.4300 J0.0000
G02 X79.1000 I79.1000 J0.0000
G02 X-39.5500 Y-68.5026 Z-23.1667 I-79.1000 J0.0000 F30
G02 Y68.5026 Z-23.3333 I39.5500 J68.5026
G02 X79.1000 Y0.0000 Z-23.5000 I39.5500 J-68.5026
G02 X-39.5500 Y-68.5026 I-79.1000 J0.0000
G02 Y68.5026 I39.5500 J68.5026
G02 X79.1000 Y0.0000 I39.5500 J-68.5026
G02 X73.2439 Y-30.3386 I-79.1867 J-0.4494 F75
G02 X56.1847 Y-56.1847 I-73.4960 J29.9566
G02 X30.4753 Y-73.5739 I-56.5638 J55.9283
G02 X0.0000 Y-79.8144 I-30.9237 J73.4820
G02 X-30.6120 Y-73.9039 I-0.4494 J79.9011
G02 X-56.6899 Y-56.6899 I30.2300 J74.1560
G02 X-74.2339 Y-30.7487 I56.4334 J57.0690
G02 X-80.5288 Y0.0000 I74.1420 J31.1971
G02 X-74.5639 Y30.8854 I80.6155 J0.4494
G02 X-57.1950 Y57.1950 I74.8160 J-30.5034
G02 X-31.0221 Y74.8939 I57.5741 J-56.9386
G02 X0.0000 Y81.2431 I31.4705 J-74.8021
G02 X31.1587 Y75.2239 I0.4494 J-81.3299
G02 X57.7001 Y57.7001 I-30.7768 J-75.4760
G02 X75.5364 Y31.2882 I-57.4711 J-58.0393
G02 X81.7600 Y0.0000 I-75.5364 J-31.2882
G02 X-40.8800 Y-70.8062 I-81.7600 J0.0000
G02 Y70.8062 I40.8800 J70.8062
G02 X81.7600 Y0.0000 I40.8800 J-70.8062
G02 X-79.1000 I-80.4300 J0.0000
G02 X79.1000 I79.1000 J0.0000
G02 X-39.5500 Y-68.5026 Z-23.6667 I-79.1000 J0.0000 F30
G02 Y68.5026 Z-23.8333 I39.5500 J68.5026
G02 X79.1000 Y0.0000 Z-24.0000 I39.5500 J-68.5026
G02 X-39.5500 Y-68.5026 I-79.1000 J0.0000
G02 Y68.5026 I39.5500 J68.5026
G02 X79.1000 Y0.0000 I39.5500 J-68.5026
G02 X73.2439 Y-30.3386 I-79.1867 J-0.4494 F75
G02 X56.1847 Y-56.1847 I-73.4960 J29.9566
G02 X30.4753 Y-73.5739 I-56.5638 J55.9283
G02 X0.0000 Y-79.8144 I-30.9237 J73.4820
G02 X-30.6120 Y-73.9039 I-0.4494 J79.9011
G02 X-56.6899 Y-56.6899 I30.2300 J74.1560
G02 X-74.2339 Y-30.7487 I56.4334 J57.0690
G02 X-80.5288 Y0.0000 I74.1420 J31.1971
G02 X-74.5639 Y30.8854 I80.6155 J0.4494
G02 X-57.1950 Y57.1950 I74.8160 J-30.5034
G02 X-31.0221 Y74.8939 I57.5741 J-56.9386
G02 X0.0000 Y81.2431 I31.4705 J-74.8021
G02 X31.1587 Y75.2239 I0.4494 J-81.3299
G02 X57.7001 Y57.7001 I-30.7768 J-75.4760
G02 X75.5364 Y31.2882 I-57.4711 J-58.0393
G02 X81.7600 Y0.0000 I-75.5364 J-31.2882
G02 X-40.8800 Y-70.8062 I-81.7600 J0.0000
G02 Y70.8062 I40.8800 J70.8062
G02 X81.7600 Y0.0000 I40.8800 J-70.8062
G02 X-79.1000 I-80.4300 J0.0000
G02 X79.1000 I79.1000 J0.0000
G02 X-39.5500 Y-68.5026 Z-24.1667 I-79.1000 J0.0000 F30
G02 Y68.5026 Z-24.3333 I39.5500 J68.5026
G02 X79.1000 Y0.0000 Z-24.5000 I39.5500 J-68.5026
G02 X-39.5500 Y-68.5026 I-79.1000 J0.0000
G02 Y68.5026 I39.5500 J68.5026
G02 X79.1000 Y0.0000 I39.5500 J-68.5026
G02 X73.2439 Y-30.3386 I-79.1867 J-0.4494 F75
G02 X56.1847 Y-56.1847 I-73.4960 J29.9566
G02 X30.4753 Y-73.5739 I-56.5638 J55.9283
G02 X0.0000 Y-79.8144 I-30.9237 J73.4820
G02 X-30.6120 Y-73.9039 I-0.4494 J79.9011
G02 X-56.6899 Y-56.6899 I30.2300 J74.1560
G02 X-74.2339 Y-30.7487 I56.4334 J57.0690
G02 X-80.5288 Y0.0000 I74.1420 J31.1971
G02 X-74.5639 Y30.8854 I80.6155 J0.4494
G02 X-57.1950 Y57.1950 I74.8160 J-30.5034
G02 X-31.0221 Y74.8939 I57.5741 J-56.9386
G02 X0.0000 Y81.2431 I31.4705 J-74.8021
G02 X31.1587 Y75.2239 I0.4494 J-81.3299
G02 X57.7001 Y57.7001 I-30.7768 J-75.4760
G02 X75.5364 Y31.2882 I-57.4711 J-58.0393
G02 X81.7600 Y0.0000 I-75.5364 J-31.2882
G02 X-40.8800 Y-70.8062 I-81.7600 J0.0000
G02 Y70.8062 I40.8800 J70.8062
G02 X81.7600 Y0.0000 I40.8800 J-70.8062
G02 X-79.1000 I-80.4300 J0.0000
G02 X79.1000 I79.1000 J0.0000
G02 X-39.5500 Y-68.5026 Z-24.6667 I-79.1000 J0.0000 F30
G02 Y68.5026 Z-24.8333 I39.5500 J68.5026
G02 X79.1000 Y0.0000 Z-25.0000 I39.5500 J-68.5026
G02 X-39.5500 Y-68.5026 I-79.1000 J0.0000
G02 Y68.5026 I39.5500 J68.5026
G02 X79.1000 Y0.0000 I39.5500 J-68.5026
G02 X73.2439 Y-30.3386 I-79.1867 J-0.4494 F75
G02 X56.1847 Y-56.1847 I-73.4960 J29.9566
G02 X30.4753 Y-73.5739 I-56.5638 J55.9283
G02 X0.0000 Y-79.8144 I-30.9237 J73.4820
G02 X-30.6120 Y-73.9039 I-0.4494 J79.9011
G02 X-56.6899 Y-56.6899 I30.2300 J74.1560
G02 X-74.2339 Y-30.7487 I56.4334 J57.0690
G02 X-80.5288 Y0.0000 I74.1420 J31.1971
G02 X-74.5639 Y30.8854 I80.6155 J0.4494
G02 X-57.1950 Y57.1950 I74.8160 J-30.5034
G02 X-31.0221 Y74.8939 I57.5741 J-56.9386
G02 X0.0000 Y81.2431 I31.4705 J-74.8021
G02 X31.1587 Y75.2239 I0.4494 J-81.3299
G02 X57.7001 Y57.7001 I-30.7768 J-75.4760
G02 X75.5364 Y31.2882 I-57.4711 J-58.0393
G02 X81.7600 Y0.0000 I-75.5364 J-31.2882
G02 X-40.8800 Y-70.8062 I-81.7600 J0.0000
G02 Y70.8062 I40.8800 J70.8062
G02 X81.7600 Y0.0000 I40.8800 J-70.8062
G02 X-79.1000 I-80.4300 J0.0000
G02 X79.1000 I79.1000 J0.0000
G02 X-39.5500 Y-68.5026 Z-25.1667 I-79.1000 J0.0000 F30
G02 Y68.5026 Z-25.3333 I39.5500 J68.5026
G02 X79.1000 Y0.0000 Z-25.5000 I39.5500 J-68.5026
G02 X-39.5500 Y-68.5026 I-79.1000 J0.0000
G02 Y68.5026 I39.5500 J68.5026
G02 X79.1000 Y0.0000 I39.5500 J-68.5026
G02 X73.2439 Y-30.3386 I-79.1867 J-0.4494 F75
G02 X56.1847 Y-56.1847 I-73.4960 J29.9566
G02 X30.4753 Y-73.5739 I-56.5638 J55.9283
G02 X0.0000 Y-79.8144 I-30.9237 J73.4820
G02 X-30.6120 Y-73.9039 I-0.4494 J79.9011
G02 X-56.6899 Y-56.6899 I30.2300 J74.1560
G02 X-74.2339 Y-30.7487 I56.4334 J57.0690
G02 X-80.5288 Y0.0000 I74.1420 J31.1971
G02 X-74.5639 Y30.8854 I80.6155 J0.4494
G02 X-57.1950 Y57.1950 I74.8160 J-30.5034
G02 X-31.0221 Y74.8939 I57.5741 J-56.9386
G02 X0.0000 Y81.2431 I31.4705 J-74.8021
G02 X31.1587 Y75.2239 I0.4494 J-81.3299
G02 X57.7001 Y57.7001 I-30.7768 J-75.4760
G02 X75.5364 Y31.2882 I-57.4711 J-58.0393
G02 X81.7600 Y0.0000 I-75.5364 J-31.2882
G02 X-40.8800 Y-70.8062 I-81.7600 J0.0000
G02 Y70.8062 I40.8800 J70.8062
G02 X81.7600 Y0.0000 I40.8800 J-70.8062
G02 X-79.1000 I-80.4300 J0.0000
G02 X79.1000 I79.1000 J0.0000
G02 X-39.5500 Y-68.5026 Z-25.6667 I-79.1000 J0.0000 F30
G02 Y68.5026 Z-25.8333 I39.5500 J68.5026
G02 X79.1000 Y0.0000 Z-26.0000 I39.5500 J-68.5026
G02 X-39.5500 Y-68.5026 I-79.1000 J0.0000
G02 Y68.5026 I39.5500 J68.5026
G02 X79.1000 Y0.0000 I39.5500 J-68.5026
G02 X73.2439 Y-30.3386 I-79.1867 J-0.4494 F75
G02 X56.1847 Y-56.1847 I-73.4960 J29.9566
G02 X30.4753 Y-73.5739 I-56.5638 J55.9283
G02 X0.0000 Y-79.8144 I-30.9237 J73.4820
G02 X-30.6120 Y-73.9039 I-0.4494 J79.9011
G02 X-56.6899 Y-56.6899 I30.2300 J74.1560
G02 X-74.2339 Y-30.7487 I56.4334 J57.0690
G02 X-80.5288 Y0.0000 I74.1420 J31.1971
G02 X-74.5639 Y30.8854 I80.6155 J0.4494
G02 X-57.1950 Y57.1950 I74.8160 J-30.5034
G02 X-31.0221 Y74.8939 I57.5741 J-56.9386
G02 X0.0000 Y81.2431 I31.4705 J-74.8021
G02 X31.1587 Y75.2239 I0.4494 J-81.3299
G02 X57.7001 Y57.7001 I-30.7768 J-75.4760
G02 X75.5364 Y31.2882 I-57.4711 J-58.0393
G02 X81.7600 Y0.0000 I-75.5364 J-31.2882
G02 X-40.8800 Y-70.8062 I-81.7600 J0.0000
G02 Y70.8062 I40.8800 J70.8062
G02 X81.7600 Y0.0000 I40.8800 J-70.8062
G02 X-79.1000 I-80.4300 J0.0000
G02 X79.1000 I79.1000 J0.0000
G02 X-39.5500 Y-68.5026 Z-26.1667 I-79.1000 J0.0000 F30
G02 Y68.5026 Z-26.3333 I39.5500 J68.5026
G02 X79.1000 Y0.0000 Z-26.5000 I39.5500 J-68.5026
G02 X-39.5500 Y-68.5026 I-79.1000 J0.0000
G02 Y68.5026 I39.5500 J68.5026
G02 X79.1000 Y0.0000 I39.5500 J-68.5026
G02 X73.2439 Y-30.3386 I-79.1867 J-0.4494 F75
G02 X56.1847 Y-56.1847 I-73.4960 J29.9566
G02 X30.4753 Y-73.5739 I-56.5638 J55.9283
G02 X0.0000 Y-79.8144 I-30.9237 J73.4820
G02 X-30.6120 Y-73.9039 I-0.4494 J79.9011
G02 X-56.6899 Y-56.6899 I30.2300 J74.1560
G02 X-74.2339 Y-30.7487 I56.4334 J57.0690
G02 X-80.5288 Y0.0000 I74.1420 J31.1971
G02 X-74.5639 Y30.8854 I80.6155 J0.4494
G02 X-57.1950 Y57.1950 I74.8160 J-30.5034
G02 X-31.0221 Y74.8939 I57.5741 J-56.9386
G02 X0.0000 Y81.2431 I31.4705 J-74.8021
G02 X31.1587 Y75.2239 I0.4494 J-81.3299
G02 X57.7001 Y57.7001 I-30.7768 J-75.4760
G02 X75.5364 Y31.2882 I-57.4711 J-58.0393
G02 X81.7600 Y0.0000 I-75.5364 J-31.2882
G02 X-40.8800 Y-70.8062 I-81.7600 J0.0000
G02 Y70.8062 I40.8800 J70.8062
G02 X81.7600 Y0.0000 I40.8800 J-70.8062
G02 X-79.1000 I-80.4300 J0.0000
G02 X79.1000 I79.1000 J0.0000
G02 X-39.5500 Y-68.5026 Z-26.6667 I-79.1000 J0.0000 F30
G02 Y68.5026 Z-26.8333 I39.5500 J68.5026
G02 X79.1000 Y0.0000 Z-27.0000 I39.5500 J-68.5026
G02 X-39.5500 Y-68.5026 I-79.1000 J0.0000
G02 Y68.5026 I39.5500 J68.5026
G02 X79.1000 Y0.0000 I39.5500 J-68.5026
G02 X73.2439 Y-30.3386 I-79.1867 J-0.4494 F75
G02 X56.1847 Y-56.1847 I-73.4960 J29.9566
G02 X30.4753 Y-73.5739 I-56.5638 J55.9283
G02 X0.0000 Y-79.8144 I-30.9237 J73.4820
G02 X-30.6120 Y-73.9039 I-0.4494 J79.9011
G02 X-56.6899 Y-56.6899 I30.2300 J74.1560
G02 X-74.2339 Y-30.7487 I56.4334 J57.0690
G02 X-80.5288 Y0.0000 I74.1420 J31.1971
G02 X-74.5639 Y30.8854 I80.6155 J0.4494
G02 X-57.1950 Y57.1950 I74.8160 J-30.5034
G02 X-31.0221 Y74.8939 I57.5741 J-56.9386
G02 X0.0000 Y81.2431 I31.4705 J-74.8021
G02 X31.1587 Y75.2239 I0.4494 J-81.3299
G02 X57.7001 Y57.7001 I-30.7768 J-75.4760
G02 X75.5364 Y31.2882 I-57.4711 J-58.0393
G02 X81.7600 Y0.0000 I-75.5364 J-31.2882
G02 X-40.8800 Y-70.8062 I-81.7600 J0.0000
G02 Y70.8062 I40.8800 J70.8062
G02 X81.7600 Y0.0000 I40.8800 J-70.8062
G02 X-79.1000 I-80.4300 J0.0000
G02 X79.1000 I79.1000 J0.0000
G02 X-39.5500 Y-68.5026 Z-27.1667 I-79.1000 J0.0000 F30
G02 Y68.5026 Z-27.3333 I39.5500 J68.5026
G02 X79.1000 Y0.0000 Z-27.5000 I39.5500 J-68.5026
G02 X-39.5500 Y-68.5026 I-79.1000 J0.0000
G02 Y68.5026 I39.5500 J68.5026
G02 X79.1000 Y0.0000 I39.5500 J-68.5026
G02 X73.2439 Y-30.3386 I-79.1867 J-0.4494 F75
G02 X56.1847 Y-56.1847 I-73.4960 J29.9566
G02 X30.4753 Y-73.5739 I-56.5638 J55.9283
G02 X0.0000 Y-79.8144 I-30.9237 J73.4820
G02 X-30.6120 Y-73.9039 I-0.4494 J79.9011
G02 X-56.6899 Y-56.6899 I30.2300 J74.1560
G02 X-74.2339 Y-30.7487 I56.4334 J57.0690
G02 X-80.5288 Y0.0000 I74.1420 J31.1971
G02 X-74.5639 Y30.8854 I80.6155 J0.4494
G02 X-57.1950 Y57.1950 I74.8160 J-30.5034
G02 X-31.0221 Y74.8939 I57.5741 J-56.9386
G02 X0.0000 Y81.2431 I31.4705 J-74.8021
G02 X31.1587 Y75.2239 I0.4494 J-81.3299
G02 X57.7001 Y57.7001 I-30.7768 J-75.4760
G02 X75.5364 Y31.2882 I-57.4711 J-58.0393
G02 X81.7600 Y0.0000 I-75.5364 J-31.2882
G02 X-40.8800 Y-70.8062 I-81.7600 J0.0000
G02 Y70.8062 I40.8800 J70.8062
G02 X81.7600 Y0.0000 I40.8800 J-70.8062
G02 X-79.1000 I-80.4300 J0.0000
G02 X79.1000 I79.1000 J0.0000
G02 X-39.5500 Y-68.5026 Z-27.6667 I-79.1000 J0.0000 F30
G02 Y68.5026 Z-27.8333 I39.5500 J68.5026
G02 X79.1000 Y0.0000 Z-28.0000 I39.5500 J-68.5026
G02 X-39.5500 Y-68.5026 I-79.1000 J0.0000
G02 Y68.5026 I39.5500 J68.5026
G02 X79.1000 Y0.0000 I39.5500 J-68.5026
G02 X73.2439 Y-30.3386 I-79.1867 J-0.4494 F75
G02 X56.1847 Y-56.1847 I-73.4960 J29.9566
G02 X30.4753 Y-73.5739 I-56.5638 J55.9283
G02 X0.0000 Y-79.8144 I-30.9237 J73.4820
G02 X-30.6120 Y-73.9039 I-0.4494 J79.9011
G02 X-56.6899 Y-56.6899 I30.2300 J74.1560
G02 X-74.2339 Y-30.7487 I56.4334 J57.0690
G02 X-80.5288 Y0.0000 I74.1420 J31.1971
G02 X-74.5639 Y30.8854 I80.6155 J0.4494
G02 X-57.1950 Y57.1950 I74.8160 J-30.5034
G02 X-31.0221 Y74.8939 I57.5741 J-56.9386
G02 X0.0000 Y81.2431 I31.4705 J-74.8021
G02 X31.1587 Y75.2239 I0.4494 J-81.3299
G02 X57.7001 Y57.7001 I-30.7768 J-75.4760
G02 X75.5364 Y31.2882 I-57.4711 J-58.0393
G02 X81.7600 Y0.0000 I-75.5364 J-31.2882
G02 X-40.8800 Y-70.8062 I-81.7600 J0.0000
G02 Y70.8062 I40.8800 J70.8062
G02 X81.7600 Y0.0000 I40.8800 J-70.8062
G02 X-79.1000 I-80.4300 J0.0000
G02 X79.1000 I79.1000 J0.0000
G02 X-39.5500 Y-68.5026 Z-28.1667 I-79.1000 J0.0000 F30
G02 Y68.5026 Z-28.3333 I39.5500 J68.5026
G02 X79.1000 Y0.0000 Z-28.5000 I39.5500 J-68.5026
G02 X-39.5500 Y-68.5026 I-79.1000 J0.0000
G02 Y68.5026 I39.5500 J68.5026
G02 X79.1000 Y0.0000 I39.5500 J-68.5026
G02 X73.2439 Y-30.3386 I-79.1867 J-0.4494 F75
G02 X56.1847 Y-56.1847 I-73.4960 J29.9566
G02 X30.4753 Y-73.5739 I-56.5638 J55.9283
G02 X0.0000 Y-79.8144 I-30.9237 J73.4820
G02 X-30.6120 Y-73.9039 I-0.4494 J79.9011
G02 X-56.6899 Y-56.6899 I30.2300 J74.1560
G02 X-74.2339 Y-30.7487 I56.4334 J57.0690
G02 X-80.5288 Y0.0000 I74.1420 J31.1971
G02 X-74.5639 Y30.8854 I80.6155 J0.4494
G02 X-57.1950 Y57.1950 I74.8160 J-30.5034
G02 X-31.0221 Y74.8939 I57.5741 J-56.9386
G02 X0.0000 Y81.2431 I31.4705 J-74.8021
G02 X31.1587 Y75.2239 I0.4494 J-81.3299
G02 X57.7001 Y57.7001 I-30.7768 J-75.4760
G02 X75.5364 Y31.2882 I-57.4711 J-58.0393
G02 X81.7600 Y0.0000 I-75.5364 J-31.2882
G02 X-40.8800 Y-70.8062 I-81.7600 J0.0000
G02 Y70.8062 I40.8800 J70.8062
G02 X81.7600 Y0.0000 I40.8800 J-70.8062
G02 X-79.1000 I-80.4300 J0.0000
G02 X79.1000 I79.1000 J0.0000
G02 X-39.5500 Y-68.5026 Z-28.6667 I-79.1000 J0.0000 F30
G02 Y68.5026 Z-28.8333 I39.5500 J68.5026
G02 X79.1000 Y0.0000 Z-29.0000 I39.5500 J-68.5026
G02 X-39.5500 Y-68.5026 I-79.1000 J0.0000
G02 Y68.5026 I39.5500 J68.5026
G02 X79.1000 Y0.0000 I39.5500 J-68.5026
G02 X73.2439 Y-30.3386 I-79.1867 J-0.4494 F75
G02 X56.1847 Y-56.1847 I-73.4960 J29.9566
G02 X30.4753 Y-73.5739 I-56.5638 J55.9283
G02 X0.0000 Y-79.8144 I-30.9237 J73.4820
G02 X-30.6120 Y-73.9039 I-0.4494 J79.9011
G02 X-56.6899 Y-56.6899 I30.2300 J74.1560
G02 X-74.2339 Y-30.7487 I56.4334 J57.0690
G02 X-80.5288 Y0.0000 I74.1420 J31.1971
G02 X-74.5639 Y30.8854 I80.6155 J0.4494
G02 X-57.1950 Y57.1950 I74.8160 J-30.5034
G02 X-31.0221 Y74.8939 I57.5741 J-56.9386
G02 X0.0000 Y81.2431 I31.4705 J-74.8021
G02 X31.1587 Y75.2239 I0.4494 J-81.3299
G02 X57.7001 Y57.7001 I-30.7768 J-75.4760
G02 X75.5364 Y31.2882 I-57.4711 J-58.0393
G02 X81.7600 Y0.0000 I-75.5364 J-31.2882
G02 X-40.8800 Y-70.8062 I-81.7600 J0.0000
G02 Y70.8062 I40.8800 J70.8062
G02 X81.7600 Y0.0000 I40.8800 J-70.8062
G02 X-79.1000 I-80.4300 J0.0000
G02 X79.1000 I79.1000 J0.0000
G02 X-39.5500 Y-68.5026 Z-29.1667 I-79.1000 J0.0000 F30
G02 Y68.5026 Z-29.3333 I39.5500 J68.5026
G02 X79.1000 Y0.0000 Z-29.5000 I39.5500 J-68.5026
G02 X-39.5500 Y-68.5026 I-79.1000 J0.0000
G02 Y68.5026 I39.5500 J68.5026
G02 X79.1000 Y0.0000 I39.5500 J-68.5026
G02 X73.2439 Y-30.3386 I-79.1867 J-0.4494 F75
G02 X56.1847 Y-56.1847 I-73.4960 J29.9566
G02 X30.4753 Y-73.5739 I-56.5638 J55.9283
G02 X0.0000 Y-79.8144 I-30.9237 J73.4820
G02 X-30.6120 Y-73.9039 I-0.4494 J79.9011
G02 X-56.6899 Y-56.6899 I30.2300 J74.1560
G02 X-74.2339 Y-30.7487 I56.4334 J57.0690
G02 X-80.5288 Y0.0000 I74.1420 J31.1971
G02 X-74.5639 Y30.8854 I80.6155 J0.4494
G02 X-57.1950 Y57.1950 I74.8160 J-30.5034
G02 X-31.0221 Y74.8939 I57.5741 J-56.9386
G02 X0.0000 Y81.2431 I31.4705 J-74.8021
G02 X31.1587 Y75.2239 I0.4494 J-81.3299
G02 X57.7001 Y57.7001 I-30.7768 J-75.4760
G02 X75.5364 Y31.2882 I-57.4711 J-58.0393
G02 X81.7600 Y0.0000 I-75.5364 J-31.2882
G02 X-40.8800 Y-70.8062 I-81.7600 J0.0000
G02 Y70.8062 I40.8800 J70.8062
G02 X81.7600 Y0.0000 I40.8800 J-70.8062
G02 X-79.1000 I-80.4300 J0.0000
G02 X79.1000 I79.1000 J0.0000
G02 X-39.5500 Y-68.5026 Z-29.6667 I-79.1000 J0.0000 F30
G02 Y68.5026 Z-29.8333 I39.5500 J68.5026
G02 X79.1000 Y0.0000 Z-30.0000 I39.5500 J-68.5026
G02 X-39.5500 Y-68.5026 I-79.1000 J0.0000
G02 Y68.5026 I39.5500 J68.5026
G02 X79.1000 Y0.0000 I39.5500 J-68.5026
G02 X73.2439 Y-30.3386 I-79.1867 J-0.4494 F75
G02 X56.1847 Y-56.1847 I-73.4960 J29.9566
G02 X30.4753 Y-73.5739 I-56.5638 J55.9283
G02 X0.0000 Y-79.8144 I-30.9237 J73.4820
G02 X-30.6120 Y-73.9039 I-0.4494 J79.9011
G02 X-56.6899 Y-56.6899 I30.2300 J74.1560
G02 X-74.2339 Y-30.7487 I56.4334 J57.0690
G02 X-80.5288 Y0.0000 I74.1420 J31.1971
G02 X-74.5639 Y30.8854 I80.6155 J0.4494
G02 X-57.1950 Y57.1950 I74.8160 J-30.5034
G02 X-31.0221 Y74.8939 I57.5741 J-56.9386
G02 X0.0000 Y81.2431 I31.4705 J-74.8021
G02 X31.1587 Y75.2239 I0.4494 J-81.3299
G02 X57.7001 Y57.7001 I-30.7768 J-75.4760
G02 X75.5364 Y31.2882 I-57.4711 J-58.0393
G02 X81.7600 Y0.0000 I-75.5364 J-31.2882
G02 X-40.8800 Y-70.8062 I-81.7600 J0.0000
G02 Y70.8062 I40.8800 J70.8062
G02 X81.7600 Y0.0000 I40.8800 J-70.8062
G02 X-79.1000 I-80.4300 J0.0000
G02 X79.1000 I79.1000 J0.0000
G02 X-39.5500 Y-68.5026 Z-30.1667 I-79.1000 J0.0000 F30
G02 Y68.5026 Z-30.3333 I39.5500 J68.5026
G02 X79.1000 Y0.0000 Z-30.5000 I39.5500 J-68.5026
G02 X-39.5500 Y-68.5026 I-79.1000 J0.0000
G02 Y68.5026 I39.5500 J68.5026
G02 X79.1000 Y0.0000 I39.5500 J-68.5026
G02 X73.2439 Y-30.3386 I-79.1867 J-0.4494 F75
G02 X56.1847 Y-56.1847 I-73.4960 J29.9566
G02 X30.4753 Y-73.5739 I-56.5638 J55.9283
G02 X0.0000 Y-79.8144 I-30.9237 J73.4820
G02 X-30.6120 Y-73.9039 I-0.4494 J79.9011
G02 X-56.6899 Y-56.6899 I30.2300 J74.1560
G02 X-74.2339 Y-30.7487 I56.4334 J57.0690
G02 X-80.5288 Y0.0000 I74.1420 J31.1971
G02 X-74.5639 Y30.8854 I80.6155 J0.4494
G02 X-57.1950 Y57.1950 I74.8160 J-30.5034
G02 X-31.0221 Y74.8939 I57.5741 J-56.9386
G02 X0.0000 Y81.2431 I31.4705 J-74.8021
G02 X31.1587 Y75.2239 I0.4494 J-81.3299
G02 X57.7001 Y57.7001 I-30.7768 J-75.4760
G02 X75.5364 Y31.2882 I-57.4711 J-58.0393
G02 X81.7600 Y0.0000 I-75.5364 J-31.2882
G02 X-40.8800 Y-70.8062 I-81.7600 J0.0000
G02 Y70.8062 I40.8800 J70.8062
G02 X81.7600 Y0.0000 I40.8800 J-70.8062
G02 X-79.1000 I-80.4300 J0.0000
G02 X79.1000 I79.1000 J0.0000
G02 X-39.5500 Y-68.5026 Z-30.6667 I-79.1000 J0.0000 F30
G02 Y68.5026 Z-30.8333 I39.5500 J68.5026
G02 X79.1000 Y0.0000 Z-31.0000 I39.5500 J-68.5026
G02 X-39.5500 Y-68.5026 I-79.1000 J0.0000
G02 Y68.5026 I39.5500 J68.5026
G02 X79.1000 Y0.0000 I39.5500 J-68.5026
G02 X73.2439 Y-30.3386 I-79.1867 J-0.4494 F75
G02 X56.1847 Y-56.1847 I-73.4960 J29.9566
G02 X30.4753 Y-73.5739 I-56.5638 J55.9283
G02 X0.0000 Y-79.8144 I-30.9237 J73.4820
G02 X-30.6120 Y-73.9039 I-0.4494 J79.9011
G02 X-56.6899 Y-56.6899 I30.2300 J74.1560
G02 X-74.2339 Y-30.7487 I56.4334 J57.0690
G02 X-80.5288 Y0.0000 I74.1420 J31.1971
G02 X-74.5639 Y30.8854 I80.6155 J0.4494
G02 X-57.1950 Y57.1950 I74.8160 J-30.5034
G02 X-31.0221 Y74.8939 I57.5741 J-56.9386
G02 X0.0000 Y81.2431 I31.4705 J-74.8021
G02 X31.1587 Y75.2239 I0.4494 J-81.3299
G02 X57.7001 Y57.7001 I-30.7768 J-75.4760
G02 X75.5364 Y31.2882 I-57.4711 J-58.0393
G02 X81.7600 Y0.0000 I-75.5364 J-31.2882
G02 X-40.8800 Y-70.8062 I-81.7600 J0.0000
G02 Y70.8062 I40.8800 J70.8062
G02 X81.7600 Y0.0000 I40.8800 J-70.8062
G02 X-79.1000 I-80.4300 J0.0000
G02 X79.1000 I79.1000 J0.0000
G02 X-39.5500 Y-68.5026 Z-31.1667 I-79.1000 J0.0000 F30
G02 Y68.5026 Z-31.3333 I39.5500 J68.5026
G02 X79.1000 Y0.0000 Z-31.5000 I39.5500 J-68.5026
G02 X-39.5500 Y-68.5026 I-79.1000 J0.0000
G02 Y68.5026 I39.5500 J68.5026
G02 X79.1000 Y0.0000 I39.5500 J-68.5026
G02 X73.2439 Y-30.3386 I-79.1867 J-0.4494 F75
G02 X56.1847 Y-56.1847 I-73.4960 J29.9566
G02 X30.4753 Y-73.5739 I-56.5638 J55.9283
G02 X0.0000 Y-79.8144 I-30.9237 J73.4820
G02 X-30.6120 Y-73.9039 I-0.4494 J79.9011
G02 X-56.6899 Y-56.6899 I30.2300 J74.1560
G02 X-74.2339 Y-30.7487 I56.4334 J57.0690
G02 X-80.5288 Y0.0000 I74.1420 J31.1971
G02 X-74.5639 Y30.8854 I80.6155 J0.4494
G02 X-57.1950 Y57.1950 I74.8160 J-30.5034
G02 X-31.0221 Y74.8939 I57.5741 J-56.9386
G02 X0.0000 Y81.2431 I31.4705 J-74.8021
G02 X31.1587 Y75.2239 I0.4494 J-81.3299
G02 X57.7001 Y57.7001 I-30.7768 J-75.4760
G02 X75.5364 Y31.2882 I-57.4711 J-58.0393
G02 X81.7600 Y0.0000 I-75.5364 J-31.2882
G02 X-40.8800 Y-70.8062 I-81.7600 J0.0000
G02 Y70.8062 I40.8800 J70.8062
G02 X81.7600 Y0.0000 I40.8800 J-70.8062
G02 X-79.1000 I-80.4300 J0.0000
G02 X79.1000 I79.1000 J0.0000
G02 X-39.5500 Y-68.5026 Z-31.6667 I-79.1000 J0.0000 F30
G02 Y68.5026 Z-31.8333 I39.5500 J68.5026
G02 X79.1000 Y0.0000 Z-32.0000 I39.5500 J-68.5026
G02 X-39.5500 Y-68.5026 I-79.1000 J0.0000
G02 Y68.5026 I39.5500 J68.5026
G02 X79.1000 Y0.0000 I39.5500 J-68.5026
G02 X73.2439 Y-30.3386 I-79.1867 J-0.4494 F75
G02 X56.1847 Y-56.1847 I-73.4960 J29.9566
G02 X30.4753 Y-73.5739 I-56.5638 J55.9283
G02 X0.0000 Y-79.8144 I-30.9237 J73.4820
G02 X-30.6120 Y-73.9039 I-0.4494 J79.9011
G02 X-56.6899 Y-56.6899 I30.2300 J74.1560
G02 X-74.2339 Y-30.7487 I56.4334 J57.0690
G02 X-80.5288 Y0.0000 I74.1420 J31.1971
G02 X-74.5639 Y30.8854 I80.6155 J0.4494
G02 X-57.1950 Y57.1950 I74.8160 J-30.5034
G02 X-31.0221 Y74.8939 I57.5741 J-56.9386
G02 X0.0000 Y81.2431 I31.4705 J-74.8021
G02 X31.1587 Y75.2239 I0.4494 J-81.3299
G02 X57.7001 Y57.7001 I-30.7768 J-75.4760
G02 X75.5364 Y31.2882 I-57.4711 J-58.0393
G02 X81.7600 Y0.0000 I-75.5364 J-31.2882
G02 X-40.8800 Y-70.8062 I-81.7600 J0.0000
G02 Y70.8062 I40.8800 J70.8062
G02 X81.7600 Y0.0000 I40.8800 J-70.8062
G02 X-79.1000 I-80.4300 J0.0000
G02 X79.1000 I79.1000 J0.0000
G02 X-39.5500 Y-68.5026 Z-32.1667 I-79.1000 J0.0000 F30
G02 Y68.5026 Z-32.3333 I39.5500 J68.5026
G02 X79.1000 Y0.0000 Z-32.5000 I39.5500 J-68.5026
G02 X-39.5500 Y-68.5026 I-79.1000 J0.0000
G02 Y68.5026 I39.5500 J68.5026
G02 X79.1000 Y0.0000 I39.5500 J-68.5026
G02 X73.2439 Y-30.3386 I-79.1867 J-0.4494 F75
G02 X56.1847 Y-56.1847 I-73.4960 J29.9566
G02 X30.4753 Y-73.5739 I-56.5638 J55.9283
G02 X0.0000 Y-79.8144 I-30.9237 J73.4820
G02 X-30.6120 Y-73.9039 I-0.4494 J79.9011
G02 X-56.6899 Y-56.6899 I30.2300 J74.1560
G02 X-74.2339 Y-30.7487 I56.4334 J57.0690
G02 X-80.5288 Y0.0000 I74.1420 J31.1971
G02 X-74.5639 Y30.8854 I80.6155 J0.4494
G02 X-57.1950 Y57.1950 I74.8160 J-30.5034
G02 X-31.0221 Y74.8939 I57.5741 J-56.9386
G02 X0.0000 Y81.2431 I31.4705 J-74.8021
G02 X31.1587 Y75.2239 I0.4494 J-81.3299
G02 X57.7001 Y57.7001 I-30.7768 J-75.4760
G02 X75.5364 Y31.2882 I-57.4711 J-58.0393
G02 X81.7600 Y0.0000 I-75.5364 J-31.2882
G02 X-40.8800 Y-70.8062 I-81.7600 J0.0000
G02 Y70.8062 I40.8800 J70.8062
G02 X81.7600 Y0.0000 I40.8800 J-70.8062
G02 X-79.1000 I-80.4300 J0.0000
G02 X79.1000 I79.1000 J0.0000
G02 X-39.5500 Y-68.5026 Z-32.6667 I-79.1000 J0.0000 F30
G02 Y68.5026 Z-32.8333 I39.5500 J68.5026
G02 X79.1000 Y0.0000 Z-33.0000 I39.5500 J-68.5026
G02 X-39.5500 Y-68.5026 I-79.1000 J0.0000
G02 Y68.5026 I39.5500 J68.5026
G02 X79.1000 Y0.0000 I39.5500 J-68.5026
G02 X73.2439 Y-30.3386 I-79.1867 J-0.4494 F75
G02 X56.1847 Y-56.1847 I-73.4960 J29.9566
G02 X30.4753 Y-73.5739 I-56.5638 J55.9283
G02 X0.0000 Y-79.8144 I-30.9237 J73.4820
G02 X-30.6120 Y-73.9039 I-0.4494 J79.9011
G02 X-56.6899 Y-56.6899 I30.2300 J74.1560
G02 X-74.2339 Y-30.7487 I56.4334 J57.0690
G02 X-80.5288 Y0.0000 I74.1420 J31.1971
G02 X-74.5639 Y30.8854 I80.6155 J0.4494
G02 X-57.1950 Y57.1950 I74.8160 J-30.5034
G02 X-31.0221 Y74.8939 I57.5741 J-56.9386
G02 X0.0000 Y81.2431 I31.4705 J-74.8021
G02 X31.1587 Y75.2239 I0.4494 J-81.3299
G02 X57.7001 Y57.7001 I-30.7768 J-75.4760
G02 X75.5364 Y31.2882 I-57.4711 J-58.0393
G02 X81.7600 Y0.0000 I-75.5364 J-31.2882
G02 X-40.8800 Y-70.8062 I-81.7600 J0.0000
G02 Y70.8062 I40.8800 J70.8062
G02 X81.7600 Y0.0000 I40.8800 J-70.8062
G02 X-79.1000 I-80.4300 J0.0000
G02 X79.1000 I79.1000 J0.0000
G02 X-39.5500 Y-68.5026 Z-33.1667 I-79.1000 J0.0000 F30
G02 Y68.5026 Z-33.3333 I39.5500 J68.5026
G02 X79.1000 Y0.0000 Z-33.5000 I39.5500 J-68.5026
G02 X-39.5500 Y-68.5026 I-79.1000 J0.0000
G02 Y68.5026 I39.5500 J68.5026
G02 X79.1000 Y0.0000 I39.5500 J-68.5026
G02 X73.2439 Y-30.3386 I-79.1867 J-0.4494 F75
G02 X56.1847 Y-56.1847 I-73.4960 J29.9566
G02 X30.4753 Y-73.5739 I-56.5638 J55.9283
G02 X0.0000 Y-79.8144 I-30.9237 J73.4820
G02 X-30.6120 Y-73.9039 I-0.4494 J79.9011
G02 X-56.6899 Y-56.6899 I30.2300 J74.1560
G02 X-74.2339 Y-30.7487 I56.4334 J57.0690
G02 X-80.5288 Y0.0000 I74.1420 J31.1971
G02 X-74.5639 Y30.8854 I80.6155 J0.4494
G02 X-57.1950 Y57.1950 I74.8160 J-30.5034
G02 X-31.0221 Y74.8939 I57.5741 J-56.9386
G02 X0.0000 Y81.2431 I31.4705 J-74.8021
G02 X31.1587 Y75.2239 I0.4494 J-81.3299
G02 X57.7001 Y57.7001 I-30.7768 J-75.4760
G02 X75.5364 Y31.2882 I-57.4711 J-58.0393
G02 X81.7600 Y0.0000 I-75.5364 J-31.2882
G02 X-40.8800 Y-70.8062 I-81.7600 J0.0000
G02 Y70.8062 I40.8800 J70.8062
G02 X81.7600 Y0.0000 I40.8800 J-70.8062
G02 X-79.1000 I-80.4300 J0.0000
G02 X79.1000 I79.1000 J0.0000
G02 X-39.5500 Y-68.5026 Z-33.6667 I-79.1000 J0.0000 F30
G02 Y68.5026 Z-33.8333 I39.5500 J68.5026
G02 X79.1000 Y0.0000 Z-34.0000 I39.5500 J-68.5026
G02 X-39.5500 Y-68.5026 I-79.1000 J0.0000
G02 Y68.5026 I39.5500 J68.5026
G02 X79.1000 Y0.0000 I39.5500 J-68.5026
G02 X73.2439 Y-30.3386 I-79.1867 J-0.4494 F75
G02 X56.1847 Y-56.1847 I-73.4960 J29.9566
G02 X30.4753 Y-73.5739 I-56.5638 J55.9283
G02 X0.0000 Y-79.8144 I-30.9237 J73.4820
G02 X-30.6120 Y-73.9039 I-0.4494 J79.9011
G02 X-56.6899 Y-56.6899 I30.2300 J74.1560
G02 X-74.2339 Y-30.7487 I56.4334 J57.0690
G02 X-80.5288 Y0.0000 I74.1420 J31.1971
G02 X-74.5639 Y30.8854 I80.6155 J0.4494
G02 X-57.1950 Y57.1950 I74.8160 J-30.5034
G02 X-31.0221 Y74.8939 I57.5741 J-56.9386
G02 X0.0000 Y81.2431 I31.4705 J-74.8021
G02 X31.1587 Y75.2239 I0.4494 J-81.3299
G02 X57.7001 Y57.7001 I-30.7768 J-75.4760
G02 X75.5364 Y31.2882 I-57.4711 J-58.0393
G02 X81.7600 Y0.0000 I-75.5364 J-31.2882
G02 X-40.8800 Y-70.8062 I-81.7600 J0.0000
G02 Y70.8062 I40.8800 J70.8062
G02 X81.7600 Y0.0000 I40.8800 J-70.8062
G02 X-79.1000 I-80.4300 J0.0000
G02 X79.1000 I79.1000 J0.0000
G02 X-39.5500 Y-68.5026 Z-34.1667 I-79.1000 J0.0000 F30
G02 Y68.5026 Z-34.3333 I39.5500 J68.5026
G02 X79.1000 Y0.0000 Z-34.5000 I39.5500 J-68.5026
G02 X-39.5500 Y-68.5026 I-79.1000 J0.0000
G02 Y68.5026 I39.5500 J68.5026
G02 X79.1000 Y0.0000 I39.5500 J-68.5026
G02 X73.2439 Y-30.3386 I-79.1867 J-0.4494 F75
G02 X56.1847 Y-56.1847 I-73.4960 J29.9566
G02 X30.4753 Y-73.5739 I-56.5638 J55.9283
G02 X0.0000 Y-79.8144 I-30.9237 J73.4820
G02 X-30.6120 Y-73.9039 I-0.4494 J79.9011
G02 X-56.6899 Y-56.6899 I30.2300 J74.1560
G02 X-74.2339 Y-30.7487 I56.4334 J57.0690
G02 X-80.5288 Y0.0000 I74.1420 J31.1971
G02 X-74.5639 Y30.8854 I80.6155 J0.4494
G02 X-57.1950 Y57.1950 I74.8160 J-30.5034
G02 X-31.0221 Y74.8939 I57.5741 J-56.9386
G02 X0.0000 Y81.2431 I31.4705 J-74.8021
G02 X31.1587 Y75.2239 I0.4494 J-81.3299
G02 X57.7001 Y57.7001 I-30.7768 J-75.4760
G02 X75.5364 Y31.2882 I-57.4711 J-58.0393
G02 X81.7600 Y0.0000 I-75.5364 J-31.2882
G02 X-40.8800 Y-70.8062 I-81.7600 J0.0000
G02 Y70.8062 I40.8800 J70.8062
G02 X81.7600 Y0.0000 I40.8800 J-70.8062
G02 X-79.1000 I-80.4300 J0.0000
G02 X79.1000 I79.1000 J0.0000
G02 X-39.5500 Y-68.5026 Z-34.6667 I-79.1000 J0.0000 F30
G02 Y68.5026 Z-34.8333 I39.5500 J68.5026
G02 X79.1000 Y0.0000 Z-35.0000 I39.5500 J-68.5026
G02 X-39.5500 Y-68.5026 I-79.1000 J0.0000
G02 Y68.5026 I39.5500 J68.5026
G02 X79.1000 Y0.0000 I39.5500 J-68.5026
G02 X73.2439 Y-30.3386 I-79.1867 J-0.4494 F75
G02 X56.1847 Y-56.1847 I-73.4960 J29.9566
G02 X30.4753 Y-73.5739 I-56.5638 J55.9283
G02 X0.0000 Y-79.8144 I-30.9237 J73.4820
G02 X-30.6120 Y-73.9039 I-0.4494 J79.9011
G02 X-56.6899 Y-56.6899 I30.2300 J74.1560
G02 X-74.2339 Y-30.7487 I56.4334 J57.0690
G02 X-80.5288 Y0.0000 I74.1420 J31.1971
G02 X-74.5639 Y30.8854 I80.6155 J0.4494
G02 X-57.1950 Y57.1950 I74.8160 J-30.5034
G02 X-31.0221 Y74.8939 I57.5741 J-56.9386
G02 X0.0000 Y81.2431 I31.4705 J-74.8021
G02 X31.1587 Y75.2239 I0.4494 J-81.3299
G02 X57.7001 Y57.7001 I-30.7768 J-75.4760
G02 X75.5364 Y31.2882 I-57.4711 J-58.0393
G02 X81.7600 Y0.0000 I-75.5364 J-31.2882
G02 X-40.8800 Y-70.8062 I-81.7600 J0.0000
G02 Y70.8062 I40.8800 J70.8062
G02 X81.7600 Y0.0000 I40.8800 J-70.8062
G02 X-79.1000 I-80.4300 J0.0000
G02 X79.1000 I79.1000 J0.0000
G02 X-39.5500 Y-68.5026 Z-35.1667 I-79.1000 J0.0000 F30
G02 Y68.5026 Z-35.3333 I39.5500 J68.5026
G02 X79.1000 Y0.0000 Z-35.5000 I39.5500 J-68.5026
G02 X-39.5500 Y-68.5026 I-79.1000 J0.0000
G02 Y68.5026 I39.5500 J68.5026
G02 X79.1000 Y0.0000 I39.5500 J-68.5026
G02 X73.2439 Y-30.3386 I-79.1867 J-0.4494 F75
G02 X56.1847 Y-56.1847 I-73.4960 J29.9566
G02 X30.4753 Y-73.5739 I-56.5638 J55.9283
G02 X0.0000 Y-79.8144 I-30.9237 J73.4820
G02 X-30.6120 Y-73.9039 I-0.4494 J79.9011
G02 X-56.6899 Y-56.6899 I30.2300 J74.1560
G02 X-74.2339 Y-30.7487 I56.4334 J57.0690
G02 X-80.5288 Y0.0000 I74.1420 J31.1971
G02 X-74.5639 Y30.8854 I80.6155 J0.4494
G02 X-57.1950 Y57.1950 I74.8160 J-30.5034
G02 X-31.0221 Y74.8939 I57.5741 J-56.9386
G02 X0.0000 Y81.2431 I31.4705 J-74.8021
G02 X31.1587 Y75.2239 I0.4494 J-81.3299
G02 X57.7001 Y57.7001 I-30.7768 J-75.4760
G02 X75.5364 Y31.2882 I-57.4711 J-58.0393
G02 X81.7600 Y0.0000 I-75.5364 J-31.2882
G02 X-40.8800 Y-70.8062 I-81.7600 J0.0000
G02 Y70.8062 I40.8800 J70.8062
G02 X81.7600 Y0.0000 I40.8800 J-70.8062
G02 X-79.1000 I-80.4300 J0.0000
G02 X79.1000 I79.1000 J0.0000
G02 X-39.5500 Y-68.5026 Z-35.6667 I-79.1000 J0.0000 F30
G02 Y68.5026 Z-35.8333 I39.5500 J68.5026
G02 X79.1000 Y0.0000 Z-36.0000 I39.5500 J-68.5026
G02 X-39.5500 Y-68.5026 I-79.1000 J0.0000
G02 Y68.5026 I39.5500 J68.5026
G02 X79.1000 Y0.0000 I39.5500 J-68.5026
G02 X73.2439 Y-30.3386 I-79.1867 J-0.4494 F75
G02 X56.1847 Y-56.1847 I-73.4960 J29.9566
G02 X30.4753 Y-73.5739 I-56.5638 J55.9283
G02 X0.0000 Y-79.8144 I-30.9237 J73.4820
G02 X-30.6120 Y-73.9039 I-0.4494 J79.9011
G02 X-56.6899 Y-56.6899 I30.2300 J74.1560
G02 X-74.2339 Y-30.7487 I56.4334 J57.0690
G02 X-80.5288 Y0.0000 I74.1420 J31.1971
G02 X-74.5639 Y30.8854 I80.6155 J0.4494
G02 X-57.1950 Y57.1950 I74.8160 J-30.5034
G02 X-31.0221 Y74.8939 I57.5741 J-56.9386
G02 X0.0000 Y81.2431 I31.4705 J-74.8021
G02 X31.1587 Y75.2239 I0.4494 J-81.3299
G02 X57.7001 Y57.7001 I-30.7768 J-75.4760
G02 X75.5364 Y31.2882 I-57.4711 J-58.0393
G02 X81.7600 Y0.0000 I-75.5364 J-31.2882
G02 X-40.8800 Y-70.8062 I-81.7600 J0.0000
G02 Y70.8062 I40.8800 J70.8062
G02 X81.7600 Y0.0000 I40.8800 J-70.8062
G02 X-79.1000 I-80.4300 J0.0000
G02 X79.1000 I79.1000 J0.0000
G02 X-39.5500 Y-68.5026 Z-36.1667 I-79.1000 J0.0000 F30
G02 Y68.5026 Z-36.3333 I39.5500 J68.5026
G02 X79.1000 Y0.0000 Z-36.5000 I39.5500 J-68.5026
G02 X-39.5500 Y-68.5026 I-79.1000 J0.0000
G02 Y68.5026 I39.5500 J68.5026
G02 X79.1000 Y0.0000 I39.5500 J-68.5026
G02 X73.2439 Y-30.3386 I-79.1867 J-0.4494 F75
G02 X56.1847 Y-56.1847 I-73.4960 J29.9566
G02 X30.4753 Y-73.5739 I-56.5638 J55.9283
G02 X0.0000 Y-79.8144 I-30.9237 J73.4820
G02 X-30.6120 Y-73.9039 I-0.4494 J79.9011
G02 X-56.6899 Y-56.6899 I30.2300 J74.1560
G02 X-74.2339 Y-30.7487 I56.4334 J57.0690
G02 X-80.5288 Y0.0000 I74.1420 J31.1971
G02 X-74.5639 Y30.8854 I80.6155 J0.4494
G02 X-57.1950 Y57.1950 I74.8160 J-30.5034
G02 X-31.0221 Y74.8939 I57.5741 J-56.9386
G02 X0.0000 Y81.2431 I31.4705 J-74.8021
G02 X31.1587 Y75.2239 I0.4494 J-81.3299
G02 X57.7001 Y57.7001 I-30.7768 J-75.4760
G02 X75.5364 Y31.2882 I-57.4711 J-58.0393
G02 X81.7600 Y0.0000 I-75.5364 J-31.2882
G02 X-40.8800 Y-70.8062 I-81.7600 J0.0000
G02 Y70.8062 I40.8800 J70.8062
G02 X81.7600 Y0.0000 I40.8800 J-70.8062
G02 X-79.1000 I-80.4300 J0.0000
G02 X79.1000 I79.1000 J0.0000
G02 X-39.5500 Y-68.5026 Z-36.6667 I-79.1000 J0.0000 F30
G02 Y68.5026 Z-36.8333 I39.5500 J68.5026
G02 X79.1000 Y0.0000 Z-37.0000 I39.5500 J-68.5026
G02 X-39.5500 Y-68.5026 I-79.1000 J0.0000
G02 Y68.5026 I39.5500 J68.5026
G02 X79.1000 Y0.0000 I39.5500 J-68.5026
G02 X73.2439 Y-30.3386 I-79.1867 J-0.4494 F75
G02 X56.1847 Y-56.1847 I-73.4960 J29.9566
G02 X30.4753 Y-73.5739 I-56.5638 J55.9283
G02 X0.0000 Y-79.8144 I-30.9237 J73.4820
G02 X-30.6120 Y-73.9039 I-0.4494 J79.9011
G02 X-56.6899 Y-56.6899 I30.2300 J74.1560
G02 X-74.2339 Y-30.7487 I56.4334 J57.0690
G02 X-80.5288 Y0.0000 I74.1420 J31.1971
G02 X-74.5639 Y30.8854 I80.6155 J0.4494
G02 X-57.1950 Y57.1950 I74.8160 J-30.5034
G02 X-31.0221 Y74.8939 I57.5741 J-56.9386
G02 X0.0000 Y81.2431 I31.4705 J-74.8021
G02 X31.1587 Y75.2239 I0.4494 J-81.3299
G02 X57.7001 Y57.7001 I-30.7768 J-75.4760
G02 X75.5364 Y31.2882 I-57.4711 J-58.0393
G02 X81.7600 Y0.0000 I-75.5364 J-31.2882
G02 X-40.8800 Y-70.8062 I-81.7600 J0.0000
G02 Y70.8062 I40.8800 J70.8062
G02 X81.7600 Y0.0000 I40.8800 J-70.8062
G02 X-79.1000 I-80.4300 J0.0000
G02 X79.1000 I79.1000 J0.0000
G02 X-39.5500 Y-68.5026 Z-37.1667 I-79.1000 J0.0000 F30
G02 Y68.5026 Z-37.3333 I39.5500 J68.5026
G02 X79.1000 Y0.0000 Z-37.5000 I39.5500 J-68.5026
G02 X-39.5500 Y-68.5026 I-79.1000 J0.0000
G02 Y68.5026 I39.5500 J68.5026
G02 X79.1000 Y0.0000 I39.5500 J-68.5026
G02 X73.2439 Y-30.3386 I-79.1867 J-0.4494 F75
G02 X56.1847 Y-56.1847 I-73.4960 J29.9566
G02 X30.4753 Y-73.5739 I-56.5638 J55.9283
G02 X0.0000 Y-79.8144 I-30.9237 J73.4820
G02 X-30.6120 Y-73.9039 I-0.4494 J79.9011
G02 X-56.6899 Y-56.6899 I30.2300 J74.1560
G02 X-74.2339 Y-30.7487 I56.4334 J57.0690
G02 X-80.5288 Y0.0000 I74.1420 J31.1971
G02 X-74.5639 Y30.8854 I80.6155 J0.4494
G02 X-57.1950 Y57.1950 I74.8160 J-30.5034
G02 X-31.0221 Y74.8939 I57.5741 J-56.9386
G02 X0.0000 Y81.2431 I31.4705 J-74.8021
G02 X31.1587 Y75.2239 I0.4494 J-81.3299
G02 X57.7001 Y57.7001 I-30.7768 J-75.4760
G02 X75.5364 Y31.2882 I-57.4711 J-58.0393
G02 X81.7600 Y0.0000 I-75.5364 J-31.2882
G02 X-40.8800 Y-70.8062 I-81.7600 J0.0000
G02 Y70.8062 I40.8800 J70.8062
G02 X81.7600 Y0.0000 I40.8800 J-70.8062
G02 X-79.1000 I-80.4300 J0.0000
G02 X79.1000 I79.1000 J0.0000
G02 X-39.5500 Y-68.5026 Z-37.6667 I-79.1000 J0.0000 F30
G02 Y68.5026 Z-37.8333 I39.5500 J68.5026
G02 X79.1000 Y0.0000 Z-38.0000 I39.5500 J-68.5026
G02 X-39.5500 Y-68.5026 I-79.1000 J0.0000
G02 Y68.5026 I39.5500 J68.5026
G02 X79.1000 Y0.0000 I39.5500 J-68.5026
G02 X73.2439 Y-30.3386 I-79.1867 J-0.4494 F75
G02 X56.1847 Y-56.1847 I-73.4960 J29.9566
G02 X30.4753 Y-73.5739 I-56.5638 J55.9283
G02 X0.0000 Y-79.8144 I-30.9237 J73.4820
G02 X-30.6120 Y-73.9039 I-0.4494 J79.9011
G02 X-56.6899 Y-56.6899 I30.2300 J74.1560
G02 X-74.2339 Y-30.7487 I56.4334 J57.0690
G02 X-80.5288 Y0.0000 I74.1420 J31.1971
G02 X-74.5639 Y30.8854 I80.6155 J0.4494
G02 X-57.1950 Y57.1950 I74.8160 J-30.5034
G02 X-31.0221 Y74.8939 I57.5741 J-56.9386
G02 X0.0000 Y81.2431 I31.4705 J-74.8021
G02 X31.1587 Y75.2239 I0.4494 J-81.3299
G02 X57.7001 Y57.7001 I-30.7768 J-75.4760
G02 X75.5364 Y31.2882 I-57.4711 J-58.0393
G02 X81.7600 Y0.0000 I-75.5364 J-31.2882
G02 X-40.8800 Y-70.8062 I-81.7600 J0.0000
G02 Y70.8062 I40.8800 J70.8062
G02 X81.7600 Y0.0000 I40.8800 J-70.8062
G02 X-79.1000 I-80.4300 J0.0000
G02 X79.1000 I79.1000 J0.0000
G02 X-39.5500 Y-68.5026 Z-38.1667 I-79.1000 J0.0000 F30
G02 Y68.5026 Z-38.3333 I39.5500 J68.5026
G02 X79.1000 Y0.0000 Z-38.5000 I39.5500 J-68.5026
G02 X-39.5500 Y-68.5026 I-79.1000 J0.0000
G02 Y68.5026 I39.5500 J68.5026
G02 X79.1000 Y0.0000 I39.5500 J-68.5026
G02 X73.2439 Y-30.3386 I-79.1867 J-0.4494 F75
G02 X56.1847 Y-56.1847 I-73.4960 J29.9566
G02 X30.4753 Y-73.5739 I-56.5638 J55.9283
G02 X0.0000 Y-79.8144 I-30.9237 J73.4820
G02 X-30.6120 Y-73.9039 I-0.4494 J79.9011
G02 X-56.6899 Y-56.6899 I30.2300 J74.1560
G02 X-74.2339 Y-30.7487 I56.4334 J57.0690
G02 X-80.5288 Y0.0000 I74.1420 J31.1971
G02 X-74.5639 Y30.8854 I80.6155 J0.4494
G02 X-57.1950 Y57.1950 I74.8160 J-30.5034
G02 X-31.0221 Y74.8939 I57.5741 J-56.9386
G02 X0.0000 Y81.2431 I31.4705 J-74.8021
G02 X31.1587 Y75.2239 I0.4494 J-81.3299
G02 X57.7001 Y57.7001 I-30.7768 J-75.4760
G02 X75.5364 Y31.2882 I-57.4711 J-58.0393
G02 X81.7600 Y0.0000 I-75.5364 J-31.2882
G02 X-40.8800 Y-70.8062 I-81.7600 J0.0000
G02 Y70.8062 I40.8800 J70.8062
G02 X81.7600 Y0.0000 I40.8800 J-70.8062
G02 X-79.1000 I-80.4300 J0.0000
G02 X79.1000 I79.1000 J0.0000
G02 X-39.5500 Y-68.5026 Z-38.6667 I-79.1000 J0.0000 F30
G02 Y68.5026 Z-38.8333 I39.5500 J68.5026
G02 X79.1000 Y0.0000 Z-39.0000 I39.5500 J-68.5026
G02 X-39.5500 Y-68.5026 I-79.1000 J0.0000
G02 Y68.5026 I39.5500 J68.5026
G02 X79.1000 Y0.0000 I39.5500 J-68.5026
G02 X73.2439 Y-30.3386 I-79.1867 J-0.4494 F75
G02 X56.1847 Y-56.1847 I-73.4960 J29.9566
G02 X30.4753 Y-73.5739 I-56.5638 J55.9283
G02 X0.0000 Y-79.8144 I-30.9237 J73.4820
G02 X-30.6120 Y-73.9039 I-0.4494 J79.9011
G02 X-56.6899 Y-56.6899 I30.2300 J74.1560
G02 X-74.2339 Y-30.7487 I56.4334 J57.0690
G02 X-80.5288 Y0.0000 I74.1420 J31.1971
G02 X-74.5639 Y30.8854 I80.6155 J0.4494
G02 X-57.1950 Y57.1950 I74.8160 J-30.5034
G02 X-31.0221 Y74.8939 I57.5741 J-56.9386
G02 X0.0000 Y81.2431 I31.4705 J-74.8021
G02 X31.1587 Y75.2239 I0.4494 J-81.3299
G02 X57.7001 Y57.7001 I-30.7768 J-75.4760
G02 X75.5364 Y31.2882 I-57.4711 J-58.0393
G02 X81.7600 Y0.0000 I-75.5364 J-31.2882
G02 X-40.8800 Y-70.8062 I-81.7600 J0.0000
G02 Y70.8062 I40.8800 J70.8062
G02 X81.7600 Y0.0000 I40.8800 J-70.8062
G02 X-79.1000 I-80.4300 J0.0000
G02 X79.1000 I79.1000 J0.0000
G02 X-39.5500 Y-68.5026 Z-39.1667 I-79.1000 J0.0000 F30
G02 Y68.5026 Z-39.3333 I39.5500 J68.5026
G02 X79.1000 Y0.0000 Z-39.5000 I39.5500 J-68.5026
G02 X-39.5500 Y-68.5026 I-79.1000 J0.0000
G02 Y68.5026 I39.5500 J68.5026
G02 X79.1000 Y0.0000 I39.5500 J-68.5026
G02 X73.2439 Y-30.3386 I-79.1867 J-0.4494 F75
G02 X56.1847 Y-56.1847 I-73.4960 J29.9566
G02 X30.4753 Y-73.5739 I-56.5638 J55.9283
G02 X0.0000 Y-79.8144 I-30.9237 J73.4820
G02 X-30.6120 Y-73.9039 I-0.4494 J79.9011
G02 X-56.6899 Y-56.6899 I30.2300 J74.1560
G02 X-74.2339 Y-30.7487 I56.4334 J57.0690
G02 X-80.5288 Y0.0000 I74.1420 J31.1971
G02 X-74.5639 Y30.8854 I80.6155 J0.4494
G02 X-57.1950 Y57.1950 I74.8160 J-30.5034
G02 X-31.0221 Y74.8939 I57.5741 J-56.9386
G02 X0.0000 Y81.2431 I31.4705 J-74.8021
G02 X31.1587 Y75.2239 I0.4494 J-81.3299
G02 X57.7001 Y57.7001 I-30.7768 J-75.4760
G02 X75.5364 Y31.2882 I-57.4711 J-58.0393
G02 X81.7600 Y0.0000 I-75.5364 J-31.2882
G02 X-40.8800 Y-70.8062 I-81.7600 J0.0000
G02 Y70.8062 I40.8800 J70.8062
G02 X81.7600 Y0.0000 I40.8800 J-70.8062
G02 X-79.1000 I-80.4300 J0.0000
G02 X79.1000 I79.1000 J0.0000
G02 X-39.5500 Y-68.5026 Z-39.6667 I-79.1000 J0.0000 F30
G02 Y68.5026 Z-39.8333 I39.5500 J68.5026
G02 X79.1000 Y0.0000 Z-40.0000 I39.5500 J-68.5026
G02 X-39.5500 Y-68.5026 I-79.1000 J0.0000
G02 Y68.5026 I39.5500 J68.5026
G02 X79.1000 Y0.0000 I39.5500 J-68.5026
G02 X73.2439 Y-30.3386 I-79.1867 J-0.4494 F75
G02 X56.1847 Y-56.1847 I-73.4960 J29.9566
G02 X30.4753 Y-73.5739 I-56.5638 J55.9283
G02 X0.0000 Y-79.8144 I-30.9237 J73.4820
G02 X-30.6120 Y-73.9039 I-0.4494 J79.9011
G02 X-56.6899 Y-56.6899 I30.2300 J74.1560
G02 X-74.2339 Y-30.7487 I56.4334 J57.0690
G02 X-80.5288 Y0.0000 I74.1420 J31.1971
G02 X-74.5639 Y30.8854 I80.6155 J0.4494
G02 X-57.1950 Y57.1950 I74.8160 J-30.5034
G02 X-31.0221 Y74.8939 I57.5741 J-56.9386
G02 X0.0000 Y81.2431 I31.4705 J-74.8021
G02 X31.1587 Y75.2239 I0.4494 J-81.3299
G02 X57.7001 Y57.7001 I-30.7768 J-75.4760
G02 X75.5364 Y31.2882 I-57.4711 J-58.0393
G02 X81.7600 Y0.0000 I-75.5364 J-31.2882
G02 X-40.8800 Y-70.8062 I-81.7600 J0.0000
G02 Y70.8062 I40.8800 J70.8062
G02 X81.7600 Y0.0000 I40.8800 J-70.8062
G02 X-79.1000 I-80.4300 J0.0000
G02 X79.1000 I79.1000 J0.0000
G02 X-39.5500 Y-68.5026 Z-40.1667 I-79.1000 J0.0000 F30
G02 Y68.5026 Z-40.3333 I39.5500 J68.5026
G02 X79.1000 Y0.0000 Z-40.5000 I39.5500 J-68.5026
G02 X-39.5500 Y-68.5026 I-79.1000 J0.0000
G02 Y68.5026 I39.5500 J68.5026
G02 X79.1000 Y0.0000 I39.5500 J-68.5026
G02 X73.2439 Y-30.3386 I-79.1867 J-0.4494 F75
G02 X56.1847 Y-56.1847 I-73.4960 J29.9566
G02 X30.4753 Y-73.5739 I-56.5638 J55.9283
G02 X0.0000 Y-79.8144 I-30.9237 J73.4820
G02 X-30.6120 Y-73.9039 I-0.4494 J79.9011
G02 X-56.6899 Y-56.6899 I30.2300 J74.1560
G02 X-74.2339 Y-30.7487 I56.4334 J57.0690
G02 X-80.5288 Y0.0000 I74.1420 J31.1971
G02 X-74.5639 Y30.8854 I80.6155 J0.4494
G02 X-57.1950 Y57.1950 I74.8160 J-30.5034
G02 X-31.0221 Y74.8939 I57.5741 J-56.9386
G02 X0.0000 Y81.2431 I31.4705 J-74.8021
G02 X31.1587 Y75.2239 I0.4494 J-81.3299
G02 X57.7001 Y57.7001 I-30.7768 J-75.4760
G02 X75.5364 Y31.2882 I-57.4711 J-58.0393
G02 X81.7600 Y0.0000 I-75.5364 J-31.2882
G02 X-40.8800 Y-70.8062 I-81.7600 J0.0000
G02 Y70.8062 I40.8800 J70.8062
G02 X81.7600 Y0.0000 I40.8800 J-70.8062
G02 X-79.1000 I-80.4300 J0.0000
G02 X79.1000 I79.1000 J0.0000
G02 X-39.5500 Y-68.5026 Z-40.6667 I-79.1000 J0.0000 F30
G02 Y68.5026 Z-40.8333 I39.5500 J68.5026
G02 X79.1000 Y0.0000 Z-41.0000 I39.5500 J-68.5026
G02 X-39.5500 Y-68.5026 I-79.1000 J0.0000
G02 Y68.5026 I39.5500 J68.5026
G02 X79.1000 Y0.0000 I39.5500 J-68.5026
G02 X73.2439 Y-30.3386 I-79.1867 J-0.4494 F75
G02 X56.1847 Y-56.1847 I-73.4960 J29.9566
G02 X30.4753 Y-73.5739 I-56.5638 J55.9283
G02 X0.0000 Y-79.8144 I-30.9237 J73.4820
G02 X-30.6120 Y-73.9039 I-0.4494 J79.9011
G02 X-56.6899 Y-56.6899 I30.2300 J74.1560
G02 X-74.2339 Y-30.7487 I56.4334 J57.0690
G02 X-80.5288 Y0.0000 I74.1420 J31.1971
G02 X-74.5639 Y30.8854 I80.6155 J0.4494
G02 X-57.1950 Y57.1950 I74.8160 J-30.5034
G02 X-31.0221 Y74.8939 I57.5741 J-56.9386
G02 X0.0000 Y81.2431 I31.4705 J-74.8021
G02 X31.1587 Y75.2239 I0.4494 J-81.3299
G02 X57.7001 Y57.7001 I-30.7768 J-75.4760
G02 X75.5364 Y31.2882 I-57.4711 J-58.0393
G02 X81.7600 Y0.0000 I-75.5364 J-31.2882
G02 X-40.8800 Y-70.8062 I-81.7600 J0.0000
G02 Y70.8062 I40.8800 J70.8062
G02 X81.7600 Y0.0000 I40.8800 J-70.8062
G02 X-79.1000 I-80.4300 J0.0000
G02 X79.1000 I79.1000 J0.0000
G02 X-39.5500 Y-68.5026 Z-41.1667 I-79.1000 J0.0000 F30
G02 Y68.5026 Z-41.3333 I39.5500 J68.5026
G02 X79.1000 Y0.0000 Z-41.5000 I39.5500 J-68.5026
G02 X-39.5500 Y-68.5026 I-79.1000 J0.0000
G02 Y68.5026 I39.5500 J68.5026
G02 X79.1000 Y0.0000 I39.5500 J-68.5026
G02 X73.2439 Y-30.3386 I-79.1867 J-0.4494 F75
G02 X56.1847 Y-56.1847 I-73.4960 J29.9566
G02 X30.4753 Y-73.5739 I-56.5638 J55.9283
G02 X0.0000 Y-79.8144 I-30.9237 J73.4820
G02 X-30.6120 Y-73.9039 I-0.4494 J79.9011
G02 X-56.6899 Y-56.6899 I30.2300 J74.1560
G02 X-74.2339 Y-30.7487 I56.4334 J57.0690
G02 X-80.5288 Y0.0000 I74.1420 J31.1971
G02 X-74.5639 Y30.8854 I80.6155 J0.4494
G02 X-57.1950 Y57.1950 I74.8160 J-30.5034
G02 X-31.0221 Y74.8939 I57.5741 J-56.9386
G02 X0.0000 Y81.2431 I31.4705 J-74.8021
G02 X31.1587 Y75.2239 I0.4494 J-81.3299
G02 X57.7001 Y57.7001 I-30.7768 J-75.4760
G02 X75.5364 Y31.2882 I-57.4711 J-58.0393
G02 X81.7600 Y0.0000 I-75.5364 J-31.2882
G02 X-40.8800 Y-70.8062 I-81.7600 J0.0000
G02 Y70.8062 I40.8800 J70.8062
G02 X81.7600 Y0.0000 I40.8800 J-70.8062
G02 X-79.1000 I-80.4300 J0.0000
G02 X79.1000 I79.1000 J0.0000
G02 X-39.5500 Y-68.5026 Z-41.6667 I-79.1000 J0.0000 F30
G02 Y68.5026 Z-41.8333 I39.5500 J68.5026
G02 X79.1000 Y0.0000 Z-42.0000 I39.5500 J-68.5026
G02 X-39.5500 Y-68.5026 I-79.1000 J0.0000
G02 Y68.5026 I39.5500 J68.5026
G02 X79.1000 Y0.0000 I39.5500 J-68.5026
G02 X73.2439 Y-30.3386 I-79.1867 J-0.4494 F75
G02 X56.1847 Y-56.1847 I-73.4960 J29.9566
G02 X30.4753 Y-73.5739 I-56.5638 J55.9283
G02 X0.0000 Y-79.8144 I-30.9237 J73.4820
G02 X-30.6120 Y-73.9039 I-0.4494 J79.9011
G02 X-56.6899 Y-56.6899 I30.2300 J74.1560
G02 X-74.2339 Y-30.7487 I56.4334 J57.0690
G02 X-80.5288 Y0.0000 I74.1420 J31.1971
G02 X-74.5639 Y30.8854 I80.6155 J0.4494
G02 X-57.1950 Y57.1950 I74.8160 J-30.5034
G02 X-31.0221 Y74.8939 I57.5741 J-56.9386
G02 X0.0000 Y81.2431 I31.4705 J-74.8021
G02 X31.1587 Y75.2239 I0.4494 J-81.3299
G02 X57.7001 Y57.7001 I-30.7768 J-75.4760
G02 X75.5364 Y31.2882 I-57.4711 J-58.0393
G02 X81.7600 Y0.0000 I-75.5364 J-31.2882
G02 X-40.8800 Y-70.8062 I-81.7600 J0.0000
G02 Y70.8062 I40.8800 J70.8062
G02 X81.7600 Y0.0000 I40.8800 J-70.8062
G02 X-79.1000 I-80.4300 J0.0000
G02 X79.1000 I79.1000 J0.0000
G02 X-39.5500 Y-68.5026 Z-42.1667 I-79.1000 J0.0000 F30
G02 Y68.5026 Z-42.3333 I39.5500 J68.5026
G02 X79.1000 Y0.0000 Z-42.5000 I39.5500 J-68.5026
G02 X-39.5500 Y-68.5026 I-79.1000 J0.0000
G02 Y68.5026 I39.5500 J68.5026
G02 X79.1000 Y0.0000 I39.5500 J-68.5026
G02 X73.2439 Y-30.3386 I-79.1867 J-0.4494 F75
G02 X56.1847 Y-56.1847 I-73.4960 J29.9566
G02 X30.4753 Y-73.5739 I-56.5638 J55.9283
G02 X0.0000 Y-79.8144 I-30.9237 J73.4820
G02 X-30.6120 Y-73.9039 I-0.4494 J79.9011
G02 X-56.6899 Y-56.6899 I30.2300 J74.1560
G02 X-74.2339 Y-30.7487 I56.4334 J57.0690
G02 X-80.5288 Y0.0000 I74.1420 J31.1971
G02 X-74.5639 Y30.8854 I80.6155 J0.4494
G02 X-57.1950 Y57.1950 I74.8160 J-30.5034
G02 X-31.0221 Y74.8939 I57.5741 J-56.9386
G02 X0.0000 Y81.2431 I31.4705 J-74.8021
G02 X31.1587 Y75.2239 I0.4494 J-81.3299
G02 X57.7001 Y57.7001 I-30.7768 J-75.4760
G02 X75.5364 Y31.2882 I-57.4711 J-58.0393
G02 X81.7600 Y0.0000 I-75.5364 J-31.2882
G02 X-40.8800 Y-70.8062 I-81.7600 J0.0000
G02 Y70.8062 I40.8800 J70.8062
G02 X81.7600 Y0.0000 I40.8800 J-70.8062
G02 X-79.1000 I-80.4300 J0.0000
G02 X79.1000 I79.1000 J0.0000
G02 X-39.5500 Y-68.5026 Z-42.6667 I-79.1000 J0.0000 F30
G02 Y68.5026 Z-42.8333 I39.5500 J68.5026
G02 X79.1000 Y0.0000 Z-43.0000 I39.5500 J-68.5026
G02 X-39.5500 Y-68.5026 I-79.1000 J0.0000
G02 Y68.5026 I39.5500 J68.5026
G02 X79.1000 Y0.0000 I39.5500 J-68.5026
G02 X73.2439 Y-30.3386 I-79.1867 J-0.4494 F75
G02 X56.1847 Y-56.1847 I-73.4960 J29.9566
G02 X30.4753 Y-73.5739 I-56.5638 J55.9283
G02 X0.0000 Y-79.8144 I-30.9237 J73.4820
G02 X-30.6120 Y-73.9039 I-0.4494 J79.9011
G02 X-56.6899 Y-56.6899 I30.2300 J74.1560
G02 X-74.2339 Y-30.7487 I56.4334 J57.0690
G02 X-80.5288 Y0.0000 I74.1420 J31.1971
G02 X-74.5639 Y30.8854 I80.6155 J0.4494
G02 X-57.1950 Y57.1950 I74.8160 J-30.5034
G02 X-31.0221 Y74.8939 I57.5741 J-56.9386
G02 X0.0000 Y81.2431 I31.4705 J-74.8021
G02 X31.1587 Y75.2239 I0.4494 J-81.3299
G02 X57.7001 Y57.7001 I-30.7768 J-75.4760
G02 X75.5364 Y31.2882 I-57.4711 J-58.0393
G02 X81.7600 Y0.0000 I-75.5364 J-31.2882
G02 X-40.8800 Y-70.8062 I-81.7600 J0.0000
G02 Y70.8062 I40.8800 J70.8062
G02 X81.7600 Y0.0000 I40.8800 J-70.8062
G02 X-79.1000 I-80.4300 J0.0000
G02 X79.1000 I79.1000 J0.0000
G02 X-39.5500 Y-68.5026 Z-43.1667 I-79.1000 J0.0000 F30
G02 Y68.5026 Z-43.3333 I39.5500 J68.5026
G02 X79.1000 Y0.0000 Z-43.5000 I39.5500 J-68.5026
G02 X-39.5500 Y-68.5026 I-79.1000 J0.0000
G02 Y68.5026 I39.5500 J68.5026
G02 X79.1000 Y0.0000 I39.5500 J-68.5026
G02 X73.2439 Y-30.3386 I-79.1867 J-0.4494 F75
G02 X56.1847 Y-56.1847 I-73.4960 J29.9566
G02 X30.4753 Y-73.5739 I-56.5638 J55.9283
G02 X0.0000 Y-79.8144 I-30.9237 J73.4820
G02 X-30.6120 Y-73.9039 I-0.4494 J79.9011
G02 X-56.6899 Y-56.6899 I30.2300 J74.1560
G02 X-74.2339 Y-30.7487 I56.4334 J57.0690
G02 X-80.5288 Y0.0000 I74.1420 J31.1971
G02 X-74.5639 Y30.8854 I80.6155 J0.4494
G02 X-57.1950 Y57.1950 I74.8160 J-30.5034
G02 X-31.0221 Y74.8939 I57.5741 J-56.9386
G02 X0.0000 Y81.2431 I31.4705 J-74.8021
G02 X31.1587 Y75.2239 I0.4494 J-81.3299
G02 X57.7001 Y57.7001 I-30.7768 J-75.4760
G02 X75.5364 Y31.2882 I-57.4711 J-58.0393
G02 X81.7600 Y0.0000 I-75.5364 J-31.2882
G02 X-40.8800 Y-70.8062 I-81.7600 J0.0000
G02 Y70.8062 I40.8800 J70.8062
G02 X81.7600 Y0.0000 I40.8800 J-70.8062
G02 X-79.1000 I-80.4300 J0.0000
G02 X79.1000 I79.1000 J0.0000
G02 X-39.5500 Y-68.5026 Z-43.6667 I-79.1000 J0.0000 F30
G02 Y68.5026 Z-43.8333 I39.5500 J68.5026
G02 X79.1000 Y0.0000 Z-44.0000 I39.5500 J-68.5026
G02 X-39.5500 Y-68.5026 I-79.1000 J0.0000
G02 Y68.5026 I39.5500 J68.5026
G02 X79.1000 Y0.0000 I39.5500 J-68.5026
G02 X73.2439 Y-30.3386 I-79.1867 J-0.4494 F75
G02 X56.1847 Y-56.1847 I-73.4960 J29.9566
G02 X30.4753 Y-73.5739 I-56.5638 J55.9283
G02 X0.0000 Y-79.8144 I-30.9237 J73.4820
G02 X-30.6120 Y-73.9039 I-0.4494 J79.9011
G02 X-56.6899 Y-56.6899 I30.2300 J74.1560
G02 X-74.2339 Y-30.7487 I56.4334 J57.0690
G02 X-80.5288 Y0.0000 I74.1420 J31.1971
G02 X-74.5639 Y30.8854 I80.6155 J0.4494
G02 X-57.1950 Y57.1950 I74.8160 J-30.5034
G02 X-31.0221 Y74.8939 I57.5741 J-56.9386
G02 X0.0000 Y81.2431 I31.4705 J-74.8021
G02 X31.1587 Y75.2239 I0.4494 J-81.3299
G02 X57.7001 Y57.7001 I-30.7768 J-75.4760
G02 X75.5364 Y31.2882 I-57.4711 J-58.0393
G02 X81.7600 Y0.0000 I-75.5364 J-31.2882
G02 X-40.8800 Y-70.8062 I-81.7600 J0.0000
G02 Y70.8062 I40.8800 J70.8062
G02 X81.7600 Y0.0000 I40.8800 J-70.8062
G02 X-79.1000 I-80.4300 J0.0000
G02 X79.1000 I79.1000 J0.0000
G02 X-39.5500 Y-68.5026 Z-44.1667 I-79.1000 J0.0000 F30
G02 Y68.5026 Z-44.3333 I39.5500 J68.5026
G02 X79.1000 Y0.0000 Z-44.5000 I39.5500 J-68.5026
G02 X-39.5500 Y-68.5026 I-79.1000 J0.0000
G02 Y68.5026 I39.5500 J68.5026
G02 X79.1000 Y0.0000 I39.5500 J-68.5026
G02 X73.2439 Y-30.3386 I-79.1867 J-0.4494 F75
G02 X56.1847 Y-56.1847 I-73.4960 J29.9566
G02 X30.4753 Y-73.5739 I-56.5638 J55.9283
