( Made using CamBam - http://www.cambam.co.uk )
( square 9/23/2023 2:21:28 PM )
( Post processor: Default )
( T1 : 3.175 )
G21 G90 G64 G40
G0 Z3.0
( T1 : 3.175 )
T1 M6
( Profile1 )
G17
M3 S1000
G0 X-1.5875 Y0.0
G0 Z1.0
G1 F15.0 Z-10.0
G1 F80.0 Y-10.0
G0 Z3.0
G0 X0.0 Y-11.5875
G0 Z1.0
G1 F15.0 Z-10.0
G1 F80.0 X10.0
G0 Z3.0
G0 X11.5875 Y-10.0
G0 Z1.0
G1 F15.0 Z-10.0
G1 F80.0 Y0.0
G0 Z3.0
G0 X0.0 Y-1.5875
G0 Z1.0
G1 F15.0 Z-10.0
G1 F80.0 X10.0
G0 Z3.0
M5
M30
