(Project rapoukLegv9)
(Created by Estlcam version 11 build 11,245)
(Machining time about 01:10:41 hours)

(Required tools:)
(End mill 3mm)

G90
G91.1
M03 S4260
G00 Z5.0000


(No. 1: Vn?j?? dr?ha 1)
G00 X-1.5875 Y7.9913
G00 Z0.5000
G01 Z0.0000 F15 S4260
G01 Z-0.5000
G01 Y0.9827 F65
G03 X0.9827 Y-1.5875 I2.5867 J0.0165
G01 X5.0000
G03 X6.5875 Y0.0000 I0.0000 J1.5875
G01 Y10.4125
G01 X27.4125
G01 Y0.0000
G03 X29.0000 Y-1.5875 I1.5875 J0.0000
G01 X34.1483 Y-1.5806
G01 X74.9558 Y1.9896
G03 X76.3677 Y3.1879 I-0.1285 J1.5824
G01 X77.3650 Y7.1879
G03 X76.2087 Y9.1123 I-1.5403 J0.3841
G01 X33.9900 Y19.5875
G01 X3.0000
G03 X1.8775 Y19.1225 I0.0000 J-1.5875
G01 X-1.1225 Y16.1225
G03 X-1.5875 Y15.0000 I1.1225 J-1.1225
G01 Y7.9913
G01 Z-1.0000 F15
G01 Y0.9827 F65
G03 X0.9827 Y-1.5875 I2.5867 J0.0165
G01 X5.0000
G03 X6.5875 Y0.0000 I0.0000 J1.5875
G01 Y10.4125
G01 X27.4125
G01 Y0.0000
G03 X29.0000 Y-1.5875 I1.5875 J0.0000
G01 X34.1483 Y-1.5806
G01 X74.9558 Y1.9896
G03 X76.3677 Y3.1879 I-0.1285 J1.5824
G01 X77.3650 Y7.1879
G03 X76.2087 Y9.1123 I-1.5403 J0.3841
G01 X33.9900 Y19.5875
G01 X3.0000
G03 X1.8775 Y19.1225 I0.0000 J-1.5875
G01 X-1.1225 Y16.1225
G03 X-1.5875 Y15.0000 I1.1225 J-1.1225
G01 Y7.9913
G01 Z-1.5000 F15
G01 Y0.9827 F65
G03 X0.9827 Y-1.5875 I2.5867 J0.0165
G01 X5.0000
G03 X6.5875 Y0.0000 I0.0000 J1.5875
G01 Y10.4125
G01 X27.4125
G01 Y0.0000
G03 X29.0000 Y-1.5875 I1.5875 J0.0000
G01 X34.1483 Y-1.5806
G01 X74.9558 Y1.9896
G03 X76.3677 Y3.1879 I-0.1285 J1.5824
G01 X77.3650 Y7.1879
G03 X76.2087 Y9.1123 I-1.5403 J0.3841
G01 X33.9900 Y19.5875
G01 X3.0000
G03 X1.8775 Y19.1225 I0.0000 J-1.5875
G01 X-1.1225 Y16.1225
G03 X-1.5875 Y15.0000 I1.1225 J-1.1225
G01 Y7.9913
G01 Z-2.0000 F15
G01 Y0.9827 F65
G03 X0.9827 Y-1.5875 I2.5867 J0.0165
G01 X5.0000
G03 X6.5875 Y0.0000 I0.0000 J1.5875
G01 Y10.4125
G01 X27.4125
G01 Y0.0000
G03 X29.0000 Y-1.5875 I1.5875 J0.0000
G01 X34.1483 Y-1.5806
G01 X74.9558 Y1.9896
G03 X76.3677 Y3.1879 I-0.1285 J1.5824
G01 X77.3650 Y7.1879
G03 X76.2087 Y9.1123 I-1.5403 J0.3841
G01 X33.9900 Y19.5875
G01 X3.0000
G03 X1.8775 Y19.1225 I0.0000 J-1.5875
G01 X-1.1225 Y16.1225
G03 X-1.5875 Y15.0000 I1.1225 J-1.1225
G01 Y7.9913
G01 Z-2.5000 F15
G01 Y0.9827 F65
G03 X0.9827 Y-1.5875 I2.5867 J0.0165
G01 X5.0000
G03 X6.5875 Y0.0000 I0.0000 J1.5875
G01 Y10.4125
G01 X27.4125
G01 Y0.0000
G03 X29.0000 Y-1.5875 I1.5875 J0.0000
G01 X34.1483 Y-1.5806
G01 X74.9558 Y1.9896
G03 X76.3677 Y3.1879 I-0.1285 J1.5824
G01 X77.3650 Y7.1879
G03 X76.2087 Y9.1123 I-1.5403 J0.3841
G01 X33.9900 Y19.5875
G01 X3.0000
G03 X1.8775 Y19.1225 I0.0000 J-1.5875
G01 X-1.1225 Y16.1225
G03 X-1.5875 Y15.0000 I1.1225 J-1.1225
G01 Y7.9913
G01 Z-3.0000 F15
G01 Y0.9827 F65
G03 X0.9827 Y-1.5875 I2.5867 J0.0165
G01 X5.0000
G03 X6.5875 Y0.0000 I0.0000 J1.5875
G01 Y10.4125
G01 X27.4125
G01 Y0.0000
G03 X29.0000 Y-1.5875 I1.5875 J0.0000
G01 X34.1483 Y-1.5806
G01 X74.9558 Y1.9896
G03 X76.3677 Y3.1879 I-0.1285 J1.5824
G01 X77.3650 Y7.1879
G03 X76.2087 Y9.1123 I-1.5403 J0.3841
G01 X33.9900 Y19.5875
G01 X3.0000
G03 X1.8775 Y19.1225 I0.0000 J-1.5875
G01 X-1.1225 Y16.1225
G03 X-1.5875 Y15.0000 I1.1225 J-1.1225
G01 Y7.9913
G01 Z-3.5000 F15
G01 Y0.9827 F65
G03 X0.9827 Y-1.5875 I2.5867 J0.0165
G01 X5.0000
G03 X6.5875 Y0.0000 I0.0000 J1.5875
G01 Y10.4125
G01 X27.4125
G01 Y0.0000
G03 X29.0000 Y-1.5875 I1.5875 J0.0000
G01 X34.1483 Y-1.5806
G01 X74.9558 Y1.9896
G03 X76.3677 Y3.1879 I-0.1285 J1.5824
G01 X77.3650 Y7.1879
G03 X76.2087 Y9.1123 I-1.5403 J0.3841
G01 X33.9900 Y19.5875
G01 X3.0000
G03 X1.8775 Y19.1225 I0.0000 J-1.5875
G01 X-1.1225 Y16.1225
G03 X-1.5875 Y15.0000 I1.1225 J-1.1225
G01 Y7.9913
G01 Z-4.0000 F15
G01 Y0.9827 F65
G03 X0.9827 Y-1.5875 I2.5867 J0.0165
G01 X5.0000
G03 X6.5875 Y0.0000 I0.0000 J1.5875
G01 Y10.4125
G01 X27.4125
G01 Y0.0000
G03 X29.0000 Y-1.5875 I1.5875 J0.0000
G01 X34.1483 Y-1.5806
G01 X74.9558 Y1.9896
G03 X76.3677 Y3.1879 I-0.1285 J1.5824
G01 X77.3650 Y7.1879
G03 X76.2087 Y9.1123 I-1.5403 J0.3841
G01 X33.9900 Y19.5875
G01 X3.0000
G03 X1.8775 Y19.1225 I0.0000 J-1.5875
G01 X-1.1225 Y16.1225
G03 X-1.5875 Y15.0000 I1.1225 J-1.1225
G01 Y7.9913
G01 Z-4.5000 F15
G01 Y0.9827 F65
G03 X0.9827 Y-1.5875 I2.5867 J0.0165
G01 X5.0000
G03 X6.5875 Y0.0000 I0.0000 J1.5875
G01 Y10.4125
G01 X27.4125
G01 Y0.0000
G03 X29.0000 Y-1.5875 I1.5875 J0.0000
G01 X34.1483 Y-1.5806
G01 X74.9558 Y1.9896
G03 X76.3677 Y3.1879 I-0.1285 J1.5824
G01 X77.3650 Y7.1879
G03 X76.2087 Y9.1123 I-1.5403 J0.3841
G01 X33.9900 Y19.5875
G01 X3.0000
G03 X1.8775 Y19.1225 I0.0000 J-1.5875
G01 X-1.1225 Y16.1225
G03 X-1.5875 Y15.0000 I1.1225 J-1.1225
G01 Y7.9913
G01 Z-5.0000 F15
G01 Y0.9827 F65
G03 X0.9827 Y-1.5875 I2.5867 J0.0165
G01 X5.0000
G03 X6.5875 Y0.0000 I0.0000 J1.5875
G01 Y10.4125
G01 X27.4125
G01 Y0.0000
G03 X29.0000 Y-1.5875 I1.5875 J0.0000
G01 X34.1483 Y-1.5806
G01 X74.9558 Y1.9896
G03 X76.3677 Y3.1879 I-0.1285 J1.5824
G01 X77.3650 Y7.1879
G03 X76.2087 Y9.1123 I-1.5403 J0.3841
G01 X33.9900 Y19.5875
G01 X3.0000
G03 X1.8775 Y19.1225 I0.0000 J-1.5875
G01 X-1.1225 Y16.1225
G03 X-1.5875 Y15.0000 I1.1225 J-1.1225
G01 Y7.9913
G01 Z-5.5000 F15
G01 Y0.9827 F65
G03 X0.9827 Y-1.5875 I2.5867 J0.0165
G01 X5.0000
G03 X6.5875 Y0.0000 I0.0000 J1.5875
G01 Y10.4125
G01 X27.4125
G01 Y0.0000
G03 X29.0000 Y-1.5875 I1.5875 J0.0000
G01 X34.1483 Y-1.5806
G01 X74.9558 Y1.9896
G03 X76.3677 Y3.1879 I-0.1285 J1.5824
G01 X77.3650 Y7.1879
G03 X76.2087 Y9.1123 I-1.5403 J0.3841
G01 X33.9900 Y19.5875
G01 X3.0000
G03 X1.8775 Y19.1225 I0.0000 J-1.5875
G01 X-1.1225 Y16.1225
G03 X-1.5875 Y15.0000 I1.1225 J-1.1225
G01 Y7.9913
G01 Z-6.0000 F15
G01 Y0.9827 F65
G03 X0.9827 Y-1.5875 I2.5867 J0.0165
G01 X5.0000
G03 X6.5875 Y0.0000 I0.0000 J1.5875
G01 Y10.4125
G01 X27.4125
G01 Y0.0000
G03 X29.0000 Y-1.5875 I1.5875 J0.0000
G01 X34.1483 Y-1.5806
G01 X74.9558 Y1.9896
G03 X76.3677 Y3.1879 I-0.1285 J1.5824
G01 X77.3650 Y7.1879
G03 X76.2087 Y9.1123 I-1.5403 J0.3841
G01 X33.9900 Y19.5875
G01 X3.0000
G03 X1.8775 Y19.1225 I0.0000 J-1.5875
G01 X-1.1225 Y16.1225
G03 X-1.5875 Y15.0000 I1.1225 J-1.1225
G01 Y7.9913
G01 Z-6.5000 F15
G01 Y0.9827 F65
G03 X0.9827 Y-1.5875 I2.5867 J0.0165
G01 X5.0000
G03 X6.5875 Y0.0000 I0.0000 J1.5875
G01 Y10.4125
G01 X27.4125
G01 Y0.0000
G03 X29.0000 Y-1.5875 I1.5875 J0.0000
G01 X34.1483 Y-1.5806
G01 X74.9558 Y1.9896
G03 X76.3677 Y3.1879 I-0.1285 J1.5824
G01 X77.3650 Y7.1879
G03 X76.2087 Y9.1123 I-1.5403 J0.3841
G01 X33.9900 Y19.5875
G01 X3.0000
G03 X1.8775 Y19.1225 I0.0000 J-1.5875
G01 X-1.1225 Y16.1225
G03 X-1.5875 Y15.0000 I1.1225 J-1.1225
G01 Y7.9913
G01 Z-7.0000 F15
G01 Y0.9827 F65
G03 X0.9827 Y-1.5875 I2.5867 J0.0165
G01 X5.0000
G03 X6.5875 Y0.0000 I0.0000 J1.5875
G01 Y10.4125
G01 X27.4125
G01 Y0.0000
G03 X29.0000 Y-1.5875 I1.5875 J0.0000
G01 X34.1483 Y-1.5806
G01 X74.9558 Y1.9896
G03 X76.3677 Y3.1879 I-0.1285 J1.5824
G01 X77.3650 Y7.1879
G03 X76.2087 Y9.1123 I-1.5403 J0.3841
G01 X33.9900 Y19.5875
G01 X3.0000
G03 X1.8775 Y19.1225 I0.0000 J-1.5875
G01 X-1.1225 Y16.1225
G03 X-1.5875 Y15.0000 I1.1225 J-1.1225
G01 Y7.9913
G01 Z-7.5000 F15
G01 Y0.9827 F65
G03 X0.9827 Y-1.5875 I2.5867 J0.0165
G01 X5.0000
G03 X6.5875 Y0.0000 I0.0000 J1.5875
G01 Y10.4125
G01 X27.4125
G01 Y0.0000
G03 X29.0000 Y-1.5875 I1.5875 J0.0000
G01 X34.1483 Y-1.5806
G01 X74.9558 Y1.9896
G03 X76.3677 Y3.1879 I-0.1285 J1.5824
G01 X77.3650 Y7.1879
G03 X76.2087 Y9.1123 I-1.5403 J0.3841
G01 X33.9900 Y19.5875
G01 X3.0000
G03 X1.8775 Y19.1225 I0.0000 J-1.5875
G01 X-1.1225 Y16.1225
G03 X-1.5875 Y15.0000 I1.1225 J-1.1225
G01 Y7.9913
G01 Z-8.0000 F15
G01 Y0.9827 F65
G03 X0.9827 Y-1.5875 I2.5867 J0.0165
G01 X5.0000
G03 X6.5875 Y0.0000 I0.0000 J1.5875
G01 Y10.4125
G01 X27.4125
G01 Y0.0000
G03 X29.0000 Y-1.5875 I1.5875 J0.0000
G01 X34.1483 Y-1.5806
G01 X74.9558 Y1.9896
G03 X76.3677 Y3.1879 I-0.1285 J1.5824
G01 X77.3650 Y7.1879
G03 X76.2087 Y9.1123 I-1.5403 J0.3841
G01 X33.9900 Y19.5875
G01 X3.0000
G03 X1.8775 Y19.1225 I0.0000 J-1.5875
G01 X-1.1225 Y16.1225
G03 X-1.5875 Y15.0000 I1.1225 J-1.1225
G01 Y7.9913
G01 Z-8.5000 F15
G01 Y0.9827 F65
G03 X0.9827 Y-1.5875 I2.5867 J0.0165
G01 X5.0000
G03 X6.5875 Y0.0000 I0.0000 J1.5875
G01 Y10.4125
G01 X27.4125
G01 Y0.0000
G03 X29.0000 Y-1.5875 I1.5875 J0.0000
G01 X34.1483 Y-1.5806
G01 X74.9558 Y1.9896
G03 X76.3677 Y3.1879 I-0.1285 J1.5824
G01 X77.3650 Y7.1879
G03 X76.2087 Y9.1123 I-1.5403 J0.3841
G01 X33.9900 Y19.5875
G01 X3.0000
G03 X1.8775 Y19.1225 I0.0000 J-1.5875
G01 X-1.1225 Y16.1225
G03 X-1.5875 Y15.0000 I1.1225 J-1.1225
G01 Y7.9913
G01 Z-9.0000 F15
G01 Y0.9827 F65
G03 X0.9827 Y-1.5875 I2.5867 J0.0165
G01 X5.0000
G03 X6.5875 Y0.0000 I0.0000 J1.5875
G01 Y10.4125
G01 X27.4125
G01 Y0.0000
G03 X29.0000 Y-1.5875 I1.5875 J0.0000
G01 X34.1483 Y-1.5806
G01 X74.9558 Y1.9896
G03 X76.3677 Y3.1879 I-0.1285 J1.5824
G01 X77.3650 Y7.1879
G03 X76.2087 Y9.1123 I-1.5403 J0.3841
G01 X33.9900 Y19.5875
G01 X3.0000
G03 X1.8775 Y19.1225 I0.0000 J-1.5875
G01 X-1.1225 Y16.1225
G03 X-1.5875 Y15.0000 I1.1225 J-1.1225
G01 Y7.9913
G01 Z-9.5000 F15
G01 Y0.9827 F65
G03 X0.9827 Y-1.5875 I2.5867 J0.0165
G01 X5.0000
G03 X6.5875 Y0.0000 I0.0000 J1.5875
G01 Y10.4125
G01 X27.4125
G01 Y0.0000
G03 X29.0000 Y-1.5875 I1.5875 J0.0000
G01 X34.1483 Y-1.5806
G01 X74.9558 Y1.9896
G03 X76.3677 Y3.1879 I-0.1285 J1.5824
G01 X77.3650 Y7.1879
G03 X76.2087 Y9.1123 I-1.5403 J0.3841
G01 X33.9900 Y19.5875
G01 X3.0000
G03 X1.8775 Y19.1225 I0.0000 J-1.5875
G01 X-1.1225 Y16.1225
G03 X-1.5875 Y15.0000 I1.1225 J-1.1225
G01 Y7.9913
G01 Z-10.0000 F15
G01 Y0.9827 F65
G03 X0.9827 Y-1.5875 I2.5867 J0.0165
G01 X5.0000
G03 X6.5875 Y0.0000 I0.0000 J1.5875
G01 Y10.4125
G01 X27.4125
G01 Y0.0000
G03 X29.0000 Y-1.5875 I1.5875 J0.0000
G01 X34.1483 Y-1.5806
G01 X74.9558 Y1.9896
G03 X76.3677 Y3.1879 I-0.1285 J1.5824
G01 X77.3650 Y7.1879
G03 X76.2087 Y9.1123 I-1.5403 J0.3841
G01 X33.9900 Y19.5875
G01 X3.0000
G03 X1.8775 Y19.1225 I0.0000 J-1.5875
G01 X-1.1225 Y16.1225
G03 X-1.5875 Y15.0000 I1.1225 J-1.1225
G01 Y7.9913
G00 Z5.0000
G00 X0.0000 Y0.0000

M05
M30
