(Project rapoukMiddleLeg0v3)
(Created by Estlcam version 11 build 11,245)
(Machining time about 00:28:01 hours)

(Required tools:)
(End mill 3mm)

G90
G91.1
M03 S4260
G00 Z5.0000


(No. 1: Hole 1)
G00 X15.8901 Y11.5927
G00 Z0.5000
G01 Z0.0000 F15 S4260
G01 Z-0.5000
G02 X12.2368 Y18.3017 I0.1100 J4.4091 F65
G02 X19.8735 Y18.1111 I3.7634 J-2.2998
G02 X15.8901 Y11.5927 I-3.8734 J-2.1093
G01 Z-1.0000 F15
G02 X12.2368 Y18.3017 I0.1100 J4.4091 F65
G02 X19.8735 Y18.1111 I3.7634 J-2.2998
G02 X15.8901 Y11.5927 I-3.8734 J-2.1093
G01 Z-1.5000 F15
G02 X12.2368 Y18.3017 I0.1100 J4.4091 F65
G02 X19.8735 Y18.1111 I3.7634 J-2.2998
G02 X15.8901 Y11.5927 I-3.8734 J-2.1093
G01 Z-2.0000 F15
G02 X12.2368 Y18.3017 I0.1100 J4.4091 F65
G02 X19.8735 Y18.1111 I3.7634 J-2.2998
G02 X15.8901 Y11.5927 I-3.8734 J-2.1093
G01 Z-2.5000 F15
G02 X12.2368 Y18.3017 I0.1100 J4.4091 F65
G02 X19.8735 Y18.1111 I3.7634 J-2.2998
G02 X15.8901 Y11.5927 I-3.8734 J-2.1093
G01 Z-3.0000 F15
G02 X12.2368 Y18.3017 I0.1100 J4.4091 F65
G02 X19.8735 Y18.1111 I3.7634 J-2.2998
G02 X15.8901 Y11.5927 I-3.8734 J-2.1093
G01 Z-3.5000 F15
G02 X12.2368 Y18.3017 I0.1100 J4.4091 F65
G02 X19.8735 Y18.1111 I3.7634 J-2.2998
G02 X15.8901 Y11.5927 I-3.8734 J-2.1093
G01 Z-4.0000 F15
G02 X12.2368 Y18.3017 I0.1100 J4.4091 F65
G02 X19.8735 Y18.1111 I3.7634 J-2.2998
G02 X15.8901 Y11.5927 I-3.8734 J-2.1093
G01 Z-4.5000 F15
G02 X12.2368 Y18.3017 I0.1100 J4.4091 F65
G02 X19.8735 Y18.1111 I3.7634 J-2.2998
G02 X15.8901 Y11.5927 I-3.8734 J-2.1093
G01 Z-5.0000 F15
G02 X12.2368 Y18.3017 I0.1100 J4.4091 F65
G02 X19.8735 Y18.1111 I3.7634 J-2.2998
G02 X15.8901 Y11.5927 I-3.8734 J-2.1093
G00 Z5.0000


(No. 2: Part 1)
G00 X16.0000 Y-1.5875 Z5.0000
G00 Z0.5000
G01 Z0.0000 F15
G01 Z-0.5000
G01 X22.0000 F65
G03 X23.5875 Y0.0000 I0.0000 J1.5875
G01 Y3.9740
G02 X28.0260 Y8.4125 I4.4147 J0.0238
G01 X32.0000
G03 X33.5875 Y10.0000 I0.0000 J1.5875
G01 Y22.0000
G03 X32.0000 Y23.5875 I-1.5875 J0.0000
G01 X28.0260
G02 X23.5875 Y28.0260 I-0.0238 J4.4147
G01 Y32.0000
G03 X22.0000 Y33.5875 I-1.5875 J0.0000
G01 X10.0000
G03 X8.4125 Y32.0000 I0.0000 J-1.5875
G01 Y28.0260
G02 X3.9740 Y23.5875 I-4.4147 J-0.0238
G01 X0.0000
G03 X-1.5875 Y22.0000 I0.0000 J-1.5875
G01 Y10.0000
G03 X0.0000 Y8.4125 I1.5875 J0.0000
G01 X3.9740
G02 X8.4125 Y3.9740 I0.0238 J-4.4147
G01 Y0.0000
G03 X10.0000 Y-1.5875 I1.5875 J0.0000
G01 X16.0000
G01 Z-1.0000 F15
G01 X22.0000 F65
G03 X23.5875 Y0.0000 I0.0000 J1.5875
G01 Y3.9740
G02 X28.0260 Y8.4125 I4.4147 J0.0238
G01 X32.0000
G03 X33.5875 Y10.0000 I0.0000 J1.5875
G01 Y22.0000
G03 X32.0000 Y23.5875 I-1.5875 J0.0000
G01 X28.0260
G02 X23.5875 Y28.0260 I-0.0238 J4.4147
G01 Y32.0000
G03 X22.0000 Y33.5875 I-1.5875 J0.0000
G01 X10.0000
G03 X8.4125 Y32.0000 I0.0000 J-1.5875
G01 Y28.0260
G02 X3.9740 Y23.5875 I-4.4147 J-0.0238
G01 X0.0000
G03 X-1.5875 Y22.0000 I0.0000 J-1.5875
G01 Y10.0000
G03 X0.0000 Y8.4125 I1.5875 J0.0000
G01 X3.9740
G02 X8.4125 Y3.9740 I0.0238 J-4.4147
G01 Y0.0000
G03 X10.0000 Y-1.5875 I1.5875 J0.0000
G01 X16.0000
G01 Z-1.5000 F15
G01 X22.0000 F65
G03 X23.5875 Y0.0000 I0.0000 J1.5875
G01 Y3.9740
G02 X28.0260 Y8.4125 I4.4147 J0.0238
G01 X32.0000
G03 X33.5875 Y10.0000 I0.0000 J1.5875
G01 Y22.0000
G03 X32.0000 Y23.5875 I-1.5875 J0.0000
G01 X28.0260
G02 X23.5875 Y28.0260 I-0.0238 J4.4147
G01 Y32.0000
G03 X22.0000 Y33.5875 I-1.5875 J0.0000
G01 X10.0000
G03 X8.4125 Y32.0000 I0.0000 J-1.5875
G01 Y28.0260
G02 X3.9740 Y23.5875 I-4.4147 J-0.0238
G01 X0.0000
G03 X-1.5875 Y22.0000 I0.0000 J-1.5875
G01 Y10.0000
G03 X0.0000 Y8.4125 I1.5875 J0.0000
G01 X3.9740
G02 X8.4125 Y3.9740 I0.0238 J-4.4147
G01 Y0.0000
G03 X10.0000 Y-1.5875 I1.5875 J0.0000
G01 X16.0000
G01 Z-2.0000 F15
G01 X22.0000 F65
G03 X23.5875 Y0.0000 I0.0000 J1.5875
G01 Y3.9740
G02 X28.0260 Y8.4125 I4.4147 J0.0238
G01 X32.0000
G03 X33.5875 Y10.0000 I0.0000 J1.5875
G01 Y22.0000
G03 X32.0000 Y23.5875 I-1.5875 J0.0000
G01 X28.0260
G02 X23.5875 Y28.0260 I-0.0238 J4.4147
G01 Y32.0000
G03 X22.0000 Y33.5875 I-1.5875 J0.0000
G01 X10.0000
G03 X8.4125 Y32.0000 I0.0000 J-1.5875
G01 Y28.0260
G02 X3.9740 Y23.5875 I-4.4147 J-0.0238
G01 X0.0000
G03 X-1.5875 Y22.0000 I0.0000 J-1.5875
G01 Y10.0000
G03 X0.0000 Y8.4125 I1.5875 J0.0000
G01 X3.9740
G02 X8.4125 Y3.9740 I0.0238 J-4.4147
G01 Y0.0000
G03 X10.0000 Y-1.5875 I1.5875 J0.0000
G01 X16.0000
G01 Z-2.5000 F15
G01 X22.0000 F65
G03 X23.5875 Y0.0000 I0.0000 J1.5875
G01 Y3.9740
G02 X28.0260 Y8.4125 I4.4147 J0.0238
G01 X32.0000
G03 X33.5875 Y10.0000 I0.0000 J1.5875
G01 Y22.0000
G03 X32.0000 Y23.5875 I-1.5875 J0.0000
G01 X28.0260
G02 X23.5875 Y28.0260 I-0.0238 J4.4147
G01 Y32.0000
G03 X22.0000 Y33.5875 I-1.5875 J0.0000
G01 X10.0000
G03 X8.4125 Y32.0000 I0.0000 J-1.5875
G01 Y28.0260
G02 X3.9740 Y23.5875 I-4.4147 J-0.0238
G01 X0.0000
G03 X-1.5875 Y22.0000 I0.0000 J-1.5875
G01 Y10.0000
G03 X0.0000 Y8.4125 I1.5875 J0.0000
G01 X3.9740
G02 X8.4125 Y3.9740 I0.0238 J-4.4147
G01 Y0.0000
G03 X10.0000 Y-1.5875 I1.5875 J0.0000
G01 X16.0000
G01 Z-3.0000 F15
G01 X22.0000 F65
G03 X23.5875 Y0.0000 I0.0000 J1.5875
G01 Y3.9740
G02 X28.0260 Y8.4125 I4.4147 J0.0238
G01 X32.0000
G03 X33.5875 Y10.0000 I0.0000 J1.5875
G01 Y22.0000
G03 X32.0000 Y23.5875 I-1.5875 J0.0000
G01 X28.0260
G02 X23.5875 Y28.0260 I-0.0238 J4.4147
G01 Y32.0000
G03 X22.0000 Y33.5875 I-1.5875 J0.0000
G01 X10.0000
G03 X8.4125 Y32.0000 I0.0000 J-1.5875
G01 Y28.0260
G02 X3.9740 Y23.5875 I-4.4147 J-0.0238
G01 X0.0000
G03 X-1.5875 Y22.0000 I0.0000 J-1.5875
G01 Y10.0000
G03 X0.0000 Y8.4125 I1.5875 J0.0000
G01 X3.9740
G02 X8.4125 Y3.9740 I0.0238 J-4.4147
G01 Y0.0000
G03 X10.0000 Y-1.5875 I1.5875 J0.0000
G01 X16.0000
G01 Z-3.5000 F15
G01 X22.0000 F65
G03 X23.5875 Y0.0000 I0.0000 J1.5875
G01 Y3.9740
G02 X28.0260 Y8.4125 I4.4147 J0.0238
G01 X32.0000
G03 X33.5875 Y10.0000 I0.0000 J1.5875
G01 Y22.0000
G03 X32.0000 Y23.5875 I-1.5875 J0.0000
G01 X28.0260
G02 X23.5875 Y28.0260 I-0.0238 J4.4147
G01 Y32.0000
G03 X22.0000 Y33.5875 I-1.5875 J0.0000
G01 X10.0000
G03 X8.4125 Y32.0000 I0.0000 J-1.5875
G01 Y28.0260
G02 X3.9740 Y23.5875 I-4.4147 J-0.0238
G01 X0.0000
G03 X-1.5875 Y22.0000 I0.0000 J-1.5875
G01 Y10.0000
G03 X0.0000 Y8.4125 I1.5875 J0.0000
G01 X3.9740
G02 X8.4125 Y3.9740 I0.0238 J-4.4147
G01 Y0.0000
G03 X10.0000 Y-1.5875 I1.5875 J0.0000
G01 X16.0000
G01 Z-4.0000 F15
G01 X22.0000 F65
G03 X23.5875 Y0.0000 I0.0000 J1.5875
G01 Y3.9740
G02 X28.0260 Y8.4125 I4.4147 J0.0238
G01 X32.0000
G03 X33.5875 Y10.0000 I0.0000 J1.5875
G01 Y22.0000
G03 X32.0000 Y23.5875 I-1.5875 J0.0000
G01 X28.0260
G02 X23.5875 Y28.0260 I-0.0238 J4.4147
G01 Y32.0000
G03 X22.0000 Y33.5875 I-1.5875 J0.0000
G01 X10.0000
G03 X8.4125 Y32.0000 I0.0000 J-1.5875
G01 Y28.0260
G02 X3.9740 Y23.5875 I-4.4147 J-0.0238
G01 X0.0000
G03 X-1.5875 Y22.0000 I0.0000 J-1.5875
G01 Y10.0000
G03 X0.0000 Y8.4125 I1.5875 J0.0000
G01 X3.9740
G02 X8.4125 Y3.9740 I0.0238 J-4.4147
G01 Y0.0000
G03 X10.0000 Y-1.5875 I1.5875 J0.0000
G01 X16.0000
G01 Z-4.5000 F15
G01 X22.0000 F65
G03 X23.5875 Y0.0000 I0.0000 J1.5875
G01 Y3.9740
G02 X28.0260 Y8.4125 I4.4147 J0.0238
G01 X32.0000
G03 X33.5875 Y10.0000 I0.0000 J1.5875
G01 Y22.0000
G03 X32.0000 Y23.5875 I-1.5875 J0.0000
G01 X28.0260
G02 X23.5875 Y28.0260 I-0.0238 J4.4147
G01 Y32.0000
G03 X22.0000 Y33.5875 I-1.5875 J0.0000
G01 X10.0000
G03 X8.4125 Y32.0000 I0.0000 J-1.5875
G01 Y28.0260
G02 X3.9740 Y23.5875 I-4.4147 J-0.0238
G01 X0.0000
G03 X-1.5875 Y22.0000 I0.0000 J-1.5875
G01 Y10.0000
G03 X0.0000 Y8.4125 I1.5875 J0.0000
G01 X3.9740
G02 X8.4125 Y3.9740 I0.0238 J-4.4147
G01 Y0.0000
G03 X10.0000 Y-1.5875 I1.5875 J0.0000
G01 X16.0000
G01 Z-5.0000 F15
G01 X22.0000 F65
G03 X23.5875 Y0.0000 I0.0000 J1.5875
G01 Y3.9740
G02 X28.0260 Y8.4125 I4.4147 J0.0238
G01 X32.0000
G03 X33.5875 Y10.0000 I0.0000 J1.5875
G01 Y22.0000
G03 X32.0000 Y23.5875 I-1.5875 J0.0000
G01 X28.0260
G02 X23.5875 Y28.0260 I-0.0238 J4.4147
G01 Y32.0000
G03 X22.0000 Y33.5875 I-1.5875 J0.0000
G01 X10.0000
G03 X8.4125 Y32.0000 I0.0000 J-1.5875
G01 Y28.0260
G02 X3.9740 Y23.5875 I-4.4147 J-0.0238
G01 X0.0000
G03 X-1.5875 Y22.0000 I0.0000 J-1.5875
G01 Y10.0000
G03 X0.0000 Y8.4125 I1.5875 J0.0000
G01 X3.9740
G02 X8.4125 Y3.9740 I0.0238 J-4.4147
G01 Y0.0000
G03 X10.0000 Y-1.5875 I1.5875 J0.0000
G01 X16.0000
G00 Z5.0000
G00 X0.0000 Y0.0000

M05
M30
