(Project rapoukMiddleLeg2v3)
(Created by Estlcam version 11 build 11,245)
(Machining time about 00:10:03 hours)

(Required tools:)
(End mill 3mm)

G90
G91.1
M03 S4260
G00 Z5.0000


(No. 1: Part 1)
G00 X6.0000 Y-1.5875
G00 Z0.5000
G01 Z0.0000 F15 S4260
G01 Z-0.5000
G01 X12.0000 F65
G03 X13.5875 Y0.0000 I0.0000 J1.5875
G01 Y22.5283
G03 X-1.5875 I-7.5875 J-0.0295
G01 Y0.0000
G03 X0.0000 Y-1.5875 I1.5875 J0.0000
G01 X6.0000
G01 Z-1.0000 F15
G01 X12.0000 F65
G03 X13.5875 Y0.0000 I0.0000 J1.5875
G01 Y22.5283
G03 X-1.5875 I-7.5875 J-0.0295
G01 Y0.0000
G03 X0.0000 Y-1.5875 I1.5875 J0.0000
G01 X6.0000
G01 Z-1.5000 F15
G01 X12.0000 F65
G03 X13.5875 Y0.0000 I0.0000 J1.5875
G01 Y22.5283
G03 X-1.5875 I-7.5875 J-0.0295
G01 Y0.0000
G03 X0.0000 Y-1.5875 I1.5875 J0.0000
G01 X6.0000
G01 Z-2.0000 F15
G01 X12.0000 F65
G03 X13.5875 Y0.0000 I0.0000 J1.5875
G01 Y22.5283
G03 X-1.5875 I-7.5875 J-0.0295
G01 Y0.0000
G03 X0.0000 Y-1.5875 I1.5875 J0.0000
G01 X6.0000
G01 Z-2.5000 F15
G01 X12.0000 F65
G03 X13.5875 Y0.0000 I0.0000 J1.5875
G01 Y22.5283
G03 X-1.5875 I-7.5875 J-0.0295
G01 Y0.0000
G03 X0.0000 Y-1.5875 I1.5875 J0.0000
G01 X6.0000
G01 Z-3.0000 F15
G01 X12.0000 F65
G03 X13.5875 Y0.0000 I0.0000 J1.5875
G01 Y22.5283
G03 X-1.5875 I-7.5875 J-0.0295
G01 Y0.0000
G03 X0.0000 Y-1.5875 I1.5875 J0.0000
G01 X6.0000
G00 Z5.0000
G00 X0.0000 Y0.0000

M05
M30
