(Project rapoukMiddleLeg2v3Multi)
(Created by Estlcam version 11 build 11,245)
(Machining time about 00:58:00 hours)

(Required tools:)
(End mill 3mm)

G90
G91.1
M03 S4260
G00 Z5.0000


(No. 1: Hole 1)
G00 X5.3773 Y13.3920
G00 Z0.5000
G01 Z0.0000 F15 S4260
G01 Z-0.5000
G01 X6.6227 F65
G01 X6.9307 Y16.2495
G01 X5.0693
G01 X4.7614 Y19.1070
G01 X7.2386
G01 X7.5465 Y21.9645
G01 X4.4535
G01 X4.1511 Y21.8075
G02 X4.1175 Y22.8277 I2.9290 J0.6069
G02 X7.8975 Y22.2583 I1.8833 J-0.3289
G01 X6.4130 Y8.4821
G02 X5.5870 I-0.4130 J0.0198
G01 X4.1511 Y21.8075
G01 X4.4535 Y21.9645
G01 Z-1.0000 F15
G01 X7.5465 F65
G01 X7.2386 Y19.1070
G01 X4.7614
G01 X5.0693 Y16.2495
G01 X6.9307
G01 X6.6227 Y13.3920
G01 X5.3773
G01 X5.0611 Y13.3626
G01 X4.1025 Y22.2583
G02 X7.9048 Y22.6510 I1.8966 J0.2407
G01 X7.9106 Y22.4730
G01 X7.8975 Y22.2583
G01 X6.4130 Y8.4821
G02 X5.5870 I-0.4130 J0.0198
G01 X5.0611 Y13.3626
G01 X5.3773 Y13.3920
G01 Z-1.5000 F15
G01 X6.6227 F65
G01 X6.9307 Y16.2495
G01 X5.0693
G01 X4.7614 Y19.1070
G01 X7.2386
G01 X7.5465 Y21.9645
G01 X4.4535
G01 X4.1511 Y21.8075
G02 X4.1175 Y22.8277 I2.9290 J0.6069
G02 X7.8975 Y22.2583 I1.8833 J-0.3289
G01 X6.4130 Y8.4821
G02 X5.5870 I-0.4130 J0.0198
G01 X4.1511 Y21.8075
G01 X4.4535 Y21.9645
G01 Z-2.0000 F15
G01 X7.5465 F65
G01 X7.2386 Y19.1070
G01 X4.7614
G01 X5.0693 Y16.2495
G01 X6.9307
G01 X6.6227 Y13.3920
G01 X5.3773
G01 X5.0611 Y13.3626
G01 X4.1025 Y22.2583
G02 X7.9048 Y22.6510 I1.8966 J0.2407
G01 X7.9106 Y22.4730
G01 X7.8975 Y22.2583
G01 X6.4130 Y8.4821
G02 X5.5870 I-0.4130 J0.0198
G01 X5.0611 Y13.3626
G01 X5.3773 Y13.3920
G00 Z5.0000


(No. 2: Hole 2)
G00 X21.0693 Y16.2496 Z5.0000
G00 Z0.5000
G01 Z0.0000 F15
G01 Z-0.5000
G01 X22.9307 F65
G01 X22.6227 Y13.3921
G01 X21.3773
G01 X20.7614 Y19.1071
G01 X23.2386
G01 X23.5465 Y21.9646
G01 X20.4535
G01 X20.1510 Y21.8076
G02 X20.1175 Y22.8277 I2.9288 J0.6068
G02 X23.8975 Y22.2583 I1.8833 J-0.3289
G01 X22.4130 Y8.4821
G02 X21.5870 I-0.4130 J0.0198
G01 X20.1510 Y21.8076
G01 X20.4535 Y21.9646
G01 Z-1.0000 F15
G01 X23.5465 F65
G01 X23.2386 Y19.1071
G01 X20.7614
G01 X21.0693 Y16.2496
G01 X22.9307
G01 X22.6227 Y13.3921
G01 X21.3773
G01 X21.0611 Y13.3627
G01 X20.1025 Y22.2583
G02 X23.9048 Y22.6510 I1.8966 J0.2407
G01 X23.9106 Y22.4730
G01 X23.8975 Y22.2583
G01 X22.4130 Y8.4821
G02 X21.5870 I-0.4130 J0.0198
G01 X21.0611 Y13.3627
G01 X21.3773 Y13.3921
G01 Z-1.5000 F15
G01 X22.6227 F65
G01 X22.9307 Y16.2496
G01 X21.0693
G01 X20.7614 Y19.1071
G01 X23.2386
G01 X23.5465 Y21.9646
G01 X20.4535
G01 X20.1510 Y21.8076
G02 X20.1175 Y22.8277 I2.9288 J0.6068
G02 X23.8975 Y22.2583 I1.8833 J-0.3289
G01 X22.4130 Y8.4821
G02 X21.5870 I-0.4130 J0.0198
G01 X20.1510 Y21.8076
G01 X20.4535 Y21.9646
G01 Z-2.0000 F15
G01 X23.5465 F65
G01 X23.2386 Y19.1071
G01 X20.7614
G01 X21.0693 Y16.2496
G01 X22.9307
G01 X22.6227 Y13.3921
G01 X21.3773
G01 X21.0611 Y13.3627
G01 X20.1025 Y22.2583
G02 X23.9048 Y22.6510 I1.8966 J0.2407
G01 X23.9106 Y22.4730
G01 X23.8975 Y22.2583
G01 X22.4130 Y8.4821
G02 X21.5870 I-0.4130 J0.0198
G01 X21.0611 Y13.3627
G01 X21.3773 Y13.3921
G00 Z5.0000


(No. 3: Hole 3)
G00 X37.0693 Y16.2496 Z5.0000
G00 Z0.5000
G01 Z0.0000 F15
G01 Z-0.5000
G01 X38.9307 F65
G01 X38.6227 Y13.3921
G01 X37.3773
G01 X36.7614 Y19.1071
G01 X39.2386
G01 X39.5465 Y21.9646
G01 X36.4535
G01 X36.1510 Y21.8076
G02 X36.1175 Y22.8277 I2.9288 J0.6068
G02 X39.8975 Y22.2583 I1.8833 J-0.3289
G01 X38.4130 Y8.4821
G02 X37.5870 I-0.4130 J0.0198
G01 X36.1510 Y21.8076
G01 X36.4535 Y21.9646
G01 Z-1.0000 F15
G01 X39.5465 F65
G01 X39.2386 Y19.1071
G01 X36.7614
G01 X37.0693 Y16.2496
G01 X38.9307
G01 X38.6227 Y13.3921
G01 X37.3773
G01 X37.0611 Y13.3627
G01 X36.1025 Y22.2583
G02 X39.9048 Y22.6510 I1.8966 J0.2407
G01 X39.9106 Y22.4730
G01 X39.8975 Y22.2583
G01 X38.4130 Y8.4821
G02 X37.5870 I-0.4130 J0.0198
G01 X37.0611 Y13.3627
G01 X37.3773 Y13.3921
G01 Z-1.5000 F15
G01 X38.6227 F65
G01 X38.9307 Y16.2496
G01 X37.0693
G01 X36.7614 Y19.1071
G01 X39.2386
G01 X39.5465 Y21.9646
G01 X36.4535
G01 X36.1510 Y21.8076
G02 X36.1175 Y22.8277 I2.9288 J0.6068
G02 X39.8975 Y22.2583 I1.8833 J-0.3289
G01 X38.4130 Y8.4821
G02 X37.5870 I-0.4130 J0.0198
G01 X36.1510 Y21.8076
G01 X36.4535 Y21.9646
G01 Z-2.0000 F15
G01 X39.5465 F65
G01 X39.2386 Y19.1071
G01 X36.7614
G01 X37.0693 Y16.2496
G01 X38.9307
G01 X38.6227 Y13.3921
G01 X37.3773
G01 X37.0611 Y13.3627
G01 X36.1025 Y22.2583
G02 X39.9048 Y22.6510 I1.8966 J0.2407
G01 X39.9106 Y22.4730
G01 X39.8975 Y22.2583
G01 X38.4130 Y8.4821
G02 X37.5870 I-0.4130 J0.0198
G01 X37.0611 Y13.3627
G01 X37.3773 Y13.3921
G00 Z5.0000


(No. 4: Hole 4)
G00 X53.0693 Y16.3174 Z5.0000
G00 Z0.5000
G01 Z0.0000 F15
G01 Z-0.5000
G01 X54.9306 F65
G01 X54.6227 Y13.4599
G01 X53.3772
G01 X52.7614 Y19.1749
G01 X55.2385
G01 X55.5465 Y22.0324
G01 X52.4534
G01 X52.1510 Y21.8754
G02 X52.1175 Y22.8956 I2.9290 J0.6069
G02 X55.8975 Y22.3262 I1.8833 J-0.3289
G01 X54.4129 Y8.5499
G02 X53.5870 I-0.4130 J0.0198
G01 X52.1510 Y21.8754
G01 X52.4534 Y22.0324
G01 Z-1.0000 F15
G01 X55.5465 F65
G01 X55.2385 Y19.1749
G01 X52.7614
G01 X53.0693 Y16.3174
G01 X54.9306
G01 X54.6227 Y13.4599
G01 X53.3772
G01 X53.0611 Y13.4305
G01 X52.1024 Y22.3262
G02 X55.9047 Y22.7189 I1.8966 J0.2407
G01 X55.9105 Y22.5409
G01 X55.8975 Y22.3262
G01 X54.4129 Y8.5499
G02 X53.5870 I-0.4130 J0.0198
G01 X53.0611 Y13.4305
G01 X53.3772 Y13.4599
G01 Z-1.5000 F15
G01 X54.6227 F65
G01 X54.9306 Y16.3174
G01 X53.0693
G01 X52.7614 Y19.1749
G01 X55.2385
G01 X55.5465 Y22.0324
G01 X52.4534
G01 X52.1510 Y21.8754
G02 X52.1175 Y22.8956 I2.9290 J0.6069
G02 X55.8975 Y22.3262 I1.8833 J-0.3289
G01 X54.4129 Y8.5499
G02 X53.5870 I-0.4130 J0.0198
G01 X52.1510 Y21.8754
G01 X52.4534 Y22.0324
G01 Z-2.0000 F15
G01 X55.5465 F65
G01 X55.2385 Y19.1749
G01 X52.7614
G01 X53.0693 Y16.3174
G01 X54.9306
G01 X54.6227 Y13.4599
G01 X53.3772
G01 X53.0611 Y13.4305
G01 X52.1024 Y22.3262
G02 X55.9047 Y22.7189 I1.8966 J0.2407
G01 X55.9105 Y22.5409
G01 X55.8975 Y22.3262
G01 X54.4129 Y8.5499
G02 X53.5870 I-0.4130 J0.0198
G01 X53.0611 Y13.4305
G01 X53.3772 Y13.4599
G00 Z5.0000


(No. 5: Part 4)
G00 X54.0000 Y-1.5196 Z5.0000
G00 Z0.5000
G01 Z0.0000 F15
G01 Z-0.5000
G01 X60.0000 F65
G03 X61.5875 Y0.0679 I0.0000 J1.5875
G01 Y22.5962
G03 X46.4125 I-7.5875 J-0.0295
G01 Y0.0679
G03 X48.0000 Y-1.5196 I1.5875 J0.0000
G01 X54.0000
G01 Z-1.0000 F15
G01 X60.0000 F65
G03 X61.5875 Y0.0679 I0.0000 J1.5875
G01 Y22.5962
G03 X46.4125 I-7.5875 J-0.0295
G01 Y0.0679
G03 X48.0000 Y-1.5196 I1.5875 J0.0000
G01 X54.0000
G01 Z-1.5000 F15
G01 X60.0000 F65
G03 X61.5875 Y0.0679 I0.0000 J1.5875
G01 Y22.5962
G03 X46.4125 I-7.5875 J-0.0295
G01 Y0.0679
G03 X48.0000 Y-1.5196 I1.5875 J0.0000
G01 X54.0000
G01 Z-2.0000 F15
G01 X60.0000 F65
G03 X61.5875 Y0.0679 I0.0000 J1.5875
G01 Y22.5962
G03 X46.4125 I-7.5875 J-0.0295
G01 Y0.0679
G03 X48.0000 Y-1.5196 I1.5875 J0.0000
G01 X54.0000
G01 Z-2.5000 F15
G01 X60.0000 F65
G03 X61.5875 Y0.0679 I0.0000 J1.5875
G01 Y22.5962
G03 X46.4125 I-7.5875 J-0.0295
G01 Y0.0679
G03 X48.0000 Y-1.5196 I1.5875 J0.0000
G01 X54.0000
G01 Z-3.0000 F15
G01 X60.0000 F65
G03 X61.5875 Y0.0679 I0.0000 J1.5875
G01 Y22.5962
G03 X46.4125 I-7.5875 J-0.0295
G01 Y0.0679
G03 X48.0000 Y-1.5196 I1.5875 J0.0000
G01 X54.0000
G00 Z5.0000


(No. 6: Part 3)
G00 X38.0000 Y-1.5875 Z5.0000
G00 Z0.5000
G01 Z0.0000 F15
G01 Z-0.5000
G01 X44.0000 F65
G03 X45.5875 Y0.0000 I0.0000 J1.5875
G01 Y22.5283
G03 X30.4125 I-7.5875 J-0.0295
G01 Y0.0000
G03 X32.0000 Y-1.5875 I1.5875 J0.0000
G01 X38.0000
G01 Z-1.0000 F15
G01 X44.0000 F65
G03 X45.5875 Y0.0000 I0.0000 J1.5875
G01 Y22.5283
G03 X30.4125 I-7.5875 J-0.0295
G01 Y0.0000
G03 X32.0000 Y-1.5875 I1.5875 J0.0000
G01 X38.0000
G01 Z-1.5000 F15
G01 X44.0000 F65
G03 X45.5875 Y0.0000 I0.0000 J1.5875
G01 Y22.5283
G03 X30.4125 I-7.5875 J-0.0295
G01 Y0.0000
G03 X32.0000 Y-1.5875 I1.5875 J0.0000
G01 X38.0000
G01 Z-2.0000 F15
G01 X44.0000 F65
G03 X45.5875 Y0.0000 I0.0000 J1.5875
G01 Y22.5283
G03 X30.4125 I-7.5875 J-0.0295
G01 Y0.0000
G03 X32.0000 Y-1.5875 I1.5875 J0.0000
G01 X38.0000
G01 Z-2.5000 F15
G01 X44.0000 F65
G03 X45.5875 Y0.0000 I0.0000 J1.5875
G01 Y22.5283
G03 X30.4125 I-7.5875 J-0.0295
G01 Y0.0000
G03 X32.0000 Y-1.5875 I1.5875 J0.0000
G01 X38.0000
G01 Z-3.0000 F15
G01 X44.0000 F65
G03 X45.5875 Y0.0000 I0.0000 J1.5875
G01 Y22.5283
G03 X30.4125 I-7.5875 J-0.0295
G01 Y0.0000
G03 X32.0000 Y-1.5875 I1.5875 J0.0000
G01 X38.0000
G00 Z5.0000


(No. 7: Part 2)
G00 X22.0000 Y-1.5875 Z5.0000
G00 Z0.5000
G01 Z0.0000 F15
G01 Z-0.5000
G01 X28.0000 F65
G03 X29.5875 Y0.0000 I0.0000 J1.5875
G01 Y22.5283
G03 X14.4125 I-7.5875 J-0.0295
G01 Y0.0000
G03 X16.0000 Y-1.5875 I1.5875 J0.0000
G01 X22.0000
G01 Z-1.0000 F15
G01 X28.0000 F65
G03 X29.5875 Y0.0000 I0.0000 J1.5875
G01 Y22.5283
G03 X14.4125 I-7.5875 J-0.0295
G01 Y0.0000
G03 X16.0000 Y-1.5875 I1.5875 J0.0000
G01 X22.0000
G01 Z-1.5000 F15
G01 X28.0000 F65
G03 X29.5875 Y0.0000 I0.0000 J1.5875
G01 Y22.5283
G03 X14.4125 I-7.5875 J-0.0295
G01 Y0.0000
G03 X16.0000 Y-1.5875 I1.5875 J0.0000
G01 X22.0000
G01 Z-2.0000 F15
G01 X28.0000 F65
G03 X29.5875 Y0.0000 I0.0000 J1.5875
G01 Y22.5283
G03 X14.4125 I-7.5875 J-0.0295
G01 Y0.0000
G03 X16.0000 Y-1.5875 I1.5875 J0.0000
G01 X22.0000
G01 Z-2.5000 F15
G01 X28.0000 F65
G03 X29.5875 Y0.0000 I0.0000 J1.5875
G01 Y22.5283
G03 X14.4125 I-7.5875 J-0.0295
G01 Y0.0000
G03 X16.0000 Y-1.5875 I1.5875 J0.0000
G01 X22.0000
G01 Z-3.0000 F15
G01 X28.0000 F65
G03 X29.5875 Y0.0000 I0.0000 J1.5875
G01 Y22.5283
G03 X14.4125 I-7.5875 J-0.0295
G01 Y0.0000
G03 X16.0000 Y-1.5875 I1.5875 J0.0000
G01 X22.0000
G00 Z5.0000


(No. 8: Part 1)
G00 X6.0000 Y-1.5875 Z5.0000
G00 Z0.5000
G01 Z0.0000 F15
G01 Z-0.5000
G01 X12.0000 F65
G03 X13.5875 Y0.0000 I0.0000 J1.5875
G01 Y22.5283
G03 X-1.5875 I-7.5875 J-0.0295
G01 Y0.0000
G03 X0.0000 Y-1.5875 I1.5875 J0.0000
G01 X6.0000
G01 Z-1.0000 F15
G01 X12.0000 F65
G03 X13.5875 Y0.0000 I0.0000 J1.5875
G01 Y22.5283
G03 X-1.5875 I-7.5875 J-0.0295
G01 Y0.0000
G03 X0.0000 Y-1.5875 I1.5875 J0.0000
G01 X6.0000
G01 Z-1.5000 F15
G01 X12.0000 F65
G03 X13.5875 Y0.0000 I0.0000 J1.5875
G01 Y22.5283
G03 X-1.5875 I-7.5875 J-0.0295
G01 Y0.0000
G03 X0.0000 Y-1.5875 I1.5875 J0.0000
G01 X6.0000
G01 Z-2.0000 F15
G01 X12.0000 F65
G03 X13.5875 Y0.0000 I0.0000 J1.5875
G01 Y22.5283
G03 X-1.5875 I-7.5875 J-0.0295
G01 Y0.0000
G03 X0.0000 Y-1.5875 I1.5875 J0.0000
G01 X6.0000
G01 Z-2.5000 F15
G01 X12.0000 F65
G03 X13.5875 Y0.0000 I0.0000 J1.5875
G01 Y22.5283
G03 X-1.5875 I-7.5875 J-0.0295
G01 Y0.0000
G03 X0.0000 Y-1.5875 I1.5875 J0.0000
G01 X6.0000
G01 Z-3.0000 F15
G01 X12.0000 F65
G03 X13.5875 Y0.0000 I0.0000 J1.5875
G01 Y22.5283
G03 X-1.5875 I-7.5875 J-0.0295
G01 Y0.0000
G03 X0.0000 Y-1.5875 I1.5875 J0.0000
G01 X6.0000
G00 Z5.0000
G00 X0.0000 Y0.0000

M05
M30
