(Project rapoukBasev4-65mm-min)
(Created by Estlcam version 11 build 11,245)
(Machining time about 01:29:35 hours)

(Required tools:)
(End mill 3mm)

G90
G91.1
M03 S4260
G00 Z5.0000


(No. 1: Hole 1)
G00 X38.5000 Y7.5875
G00 Z0.5000
G01 Z0.0000 F15 S4260
G01 Z-0.5000
G01 X20.7140 F65
G02 X19.0875 Y9.2140 I-0.0335 J1.5930
G01 Y82.7860
G02 X20.7140 Y84.4125 I1.5930 J0.0335
G01 X56.2860
G02 X57.9125 Y82.7860 I0.0335 J-1.5930
G01 Y9.2140
G02 X56.2860 Y7.5875 I-1.5930 J-0.0335
G01 X38.5000
G01 Z-1.0000 F15
G01 X20.7140 F65
G02 X19.0875 Y9.2140 I-0.0335 J1.5930
G01 Y82.7860
G02 X20.7140 Y84.4125 I1.5930 J0.0335
G01 X56.2860
G02 X57.9125 Y82.7860 I0.0335 J-1.5930
G01 Y9.2140
G02 X56.2860 Y7.5875 I-1.5930 J-0.0335
G01 X38.5000
G01 Z-1.5000 F15
G01 X20.7140 F65
G02 X19.0875 Y9.2140 I-0.0335 J1.5930
G01 Y82.7860
G02 X20.7140 Y84.4125 I1.5930 J0.0335
G01 X56.2860
G02 X57.9125 Y82.7860 I0.0335 J-1.5930
G01 Y9.2140
G02 X56.2860 Y7.5875 I-1.5930 J-0.0335
G01 X38.5000
G01 Z-2.0000 F15
G01 X20.7140 F65
G02 X19.0875 Y9.2140 I-0.0335 J1.5930
G01 Y82.7860
G02 X20.7140 Y84.4125 I1.5930 J0.0335
G01 X56.2860
G02 X57.9125 Y82.7860 I0.0335 J-1.5930
G01 Y9.2140
G02 X56.2860 Y7.5875 I-1.5930 J-0.0335
G01 X38.5000
G01 Z-2.5000 F15
G01 X20.7140 F65
G02 X19.0875 Y9.2140 I-0.0335 J1.5930
G01 Y82.7860
G02 X20.7140 Y84.4125 I1.5930 J0.0335
G01 X56.2860
G02 X57.9125 Y82.7860 I0.0335 J-1.5930
G01 Y9.2140
G02 X56.2860 Y7.5875 I-1.5930 J-0.0335
G01 X38.5000
G01 Z-3.0000 F15
G01 X20.7140 F65
G02 X19.0875 Y9.2140 I-0.0335 J1.5930
G01 Y82.7860
G02 X20.7140 Y84.4125 I1.5930 J0.0335
G01 X56.2860
G02 X57.9125 Y82.7860 I0.0335 J-1.5930
G01 Y9.2140
G02 X56.2860 Y7.5875 I-1.5930 J-0.0335
G01 X38.5000
G01 Z-3.5000 F15
G01 X20.7140 F65
G02 X19.0875 Y9.2140 I-0.0335 J1.5930
G01 Y82.7860
G02 X20.7140 Y84.4125 I1.5930 J0.0335
G01 X56.2860
G02 X57.9125 Y82.7860 I0.0335 J-1.5930
G01 Y9.2140
G02 X56.2860 Y7.5875 I-1.5930 J-0.0335
G01 X38.5000
G01 Z-4.0000 F15
G01 X20.7140 F65
G02 X19.0875 Y9.2140 I-0.0335 J1.5930
G01 Y82.7860
G02 X20.7140 Y84.4125 I1.5930 J0.0335
G01 X56.2860
G02 X57.9125 Y82.7860 I0.0335 J-1.5930
G01 Y9.2140
G02 X56.2860 Y7.5875 I-1.5930 J-0.0335
G01 X38.5000
G01 Z-4.5000 F15
G01 X20.7140 F65
G02 X19.0875 Y9.2140 I-0.0335 J1.5930
G01 Y82.7860
G02 X20.7140 Y84.4125 I1.5930 J0.0335
G01 X56.2860
G02 X57.9125 Y82.7860 I0.0335 J-1.5930
G01 Y9.2140
G02 X56.2860 Y7.5875 I-1.5930 J-0.0335
G01 X38.5000
G01 Z-5.0000 F15
G01 X20.7140 F65
G02 X19.0875 Y9.2140 I-0.0335 J1.5930
G01 Y82.7860
G02 X20.7140 Y84.4125 I1.5930 J0.0335
G01 X56.2860
G02 X57.9125 Y82.7860 I0.0335 J-1.5930
G01 Y9.2140
G02 X56.2860 Y7.5875 I-1.5930 J-0.0335
G01 X38.5000
G01 Z-5.5000 F15
G01 X20.7140 F65
G02 X19.0875 Y9.2140 I-0.0335 J1.5930
G01 Y82.7860
G02 X20.7140 Y84.4125 I1.5930 J0.0335
G01 X56.2860
G02 X57.9125 Y82.7860 I0.0335 J-1.5930
G01 Y9.2140
G02 X56.2860 Y7.5875 I-1.5930 J-0.0335
G01 X38.5000
G01 Z-6.0000 F15
G01 X20.7140 F65
G02 X19.0875 Y9.2140 I-0.0335 J1.5930
G01 Y82.7860
G02 X20.7140 Y84.4125 I1.5930 J0.0335
G01 X56.2860
G02 X57.9125 Y82.7860 I0.0335 J-1.5930
G01 Y9.2140
G02 X56.2860 Y7.5875 I-1.5930 J-0.0335
G01 X38.5000
G01 Z-6.5000 F15
G01 X20.7140 F65
G02 X19.0875 Y9.2140 I-0.0335 J1.5930
G01 Y82.7860
G02 X20.7140 Y84.4125 I1.5930 J0.0335
G01 X56.2860
G02 X57.9125 Y82.7860 I0.0335 J-1.5930
G01 Y9.2140
G02 X56.2860 Y7.5875 I-1.5930 J-0.0335
G01 X38.5000
G01 Z-7.0000 F15
G01 X20.7140 F65
G02 X19.0875 Y9.2140 I-0.0335 J1.5930
G01 Y82.7860
G02 X20.7140 Y84.4125 I1.5930 J0.0335
G01 X56.2860
G02 X57.9125 Y82.7860 I0.0335 J-1.5930
G01 Y9.2140
G02 X56.2860 Y7.5875 I-1.5930 J-0.0335
G01 X38.5000
G01 Z-7.5000 F15
G01 X20.7140 F65
G02 X19.0875 Y9.2140 I-0.0335 J1.5930
G01 Y82.7860
G02 X20.7140 Y84.4125 I1.5930 J0.0335
G01 X56.2860
G02 X57.9125 Y82.7860 I0.0335 J-1.5930
G01 Y9.2140
G02 X56.2860 Y7.5875 I-1.5930 J-0.0335
G01 X38.5000
G01 Z-8.0000 F15
G01 X20.7140 F65
G02 X19.0875 Y9.2140 I-0.0335 J1.5930
G01 Y82.7860
G02 X20.7140 Y84.4125 I1.5930 J0.0335
G01 X56.2860
G02 X57.9125 Y82.7860 I0.0335 J-1.5930
G01 Y9.2140
G02 X56.2860 Y7.5875 I-1.5930 J-0.0335
G01 X38.5000
G01 Z-8.5000 F15
G01 X20.7140 F65
G02 X19.0875 Y9.2140 I-0.0335 J1.5930
G01 Y82.7860
G02 X20.7140 Y84.4125 I1.5930 J0.0335
G01 X56.2860
G02 X57.9125 Y82.7860 I0.0335 J-1.5930
G01 Y9.2140
G02 X56.2860 Y7.5875 I-1.5930 J-0.0335
G01 X38.5000
G01 Z-9.0000 F15
G01 X20.7140 F65
G02 X19.0875 Y9.2140 I-0.0335 J1.5930
G01 Y82.7860
G02 X20.7140 Y84.4125 I1.5930 J0.0335
G01 X56.2860
G02 X57.9125 Y82.7860 I0.0335 J-1.5930
G01 Y9.2140
G02 X56.2860 Y7.5875 I-1.5930 J-0.0335
G01 X38.5000
G01 Z-9.5000 F15
G01 X20.7140 F65
G02 X19.0875 Y9.2140 I-0.0335 J1.5930
G01 Y82.7860
G02 X20.7140 Y84.4125 I1.5930 J0.0335
G01 X56.2860
G02 X57.9125 Y82.7860 I0.0335 J-1.5930
G01 Y9.2140
G02 X56.2860 Y7.5875 I-1.5930 J-0.0335
G01 X38.5000
G01 Z-10.0000 F15
G01 X20.7140 F65
G02 X19.0875 Y9.2140 I-0.0335 J1.5930
G01 Y82.7860
G02 X20.7140 Y84.4125 I1.5930 J0.0335
G01 X56.2860
G02 X57.9125 Y82.7860 I0.0335 J-1.5930
G01 Y9.2140
G02 X56.2860 Y7.5875 I-1.5930 J-0.0335
G01 X38.5000
G00 Z5.0000
G00 X0.0000 Y0.0000

M05
M30
