(Project rapoukMiddleLeg1v3)
(Created by Estlcam version 11 build 11,245)
(Machining time about 00:12:03 hours)

(Required tools:)
(End mill 3mm)

G90
G91.1
M03 S4260
G00 Z5.0000


(No. 1: Hole 1)
G00 X6.0000 Y20.0892
G00 Z0.5000
G01 Z0.0000 F15 S4260
G01 Z-0.5000
G02 X3.9122 Y23.7054 I0.0000 J2.4108 F65
G02 X8.0878 I2.0878 J-1.2054
G02 X6.0000 Y20.0892 I-2.0878 J-1.2054
G01 Z-1.0000 F15
G02 X3.9122 Y23.7054 I0.0000 J2.4108 F65
G02 X8.0878 I2.0878 J-1.2054
G02 X6.0000 Y20.0892 I-2.0878 J-1.2054
G01 Z-1.5000 F15
G02 X3.9122 Y23.7054 I0.0000 J2.4108 F65
G02 X8.0878 I2.0878 J-1.2054
G02 X6.0000 Y20.0892 I-2.0878 J-1.2054
G01 Z-2.0000 F15
G02 X3.9122 Y23.7054 I0.0000 J2.4108 F65
G02 X8.0878 I2.0878 J-1.2054
G02 X6.0000 Y20.0892 I-2.0878 J-1.2054
G01 Z-2.5000 F15
G02 X3.9122 Y23.7054 I0.0000 J2.4108 F65
G02 X8.0878 I2.0878 J-1.2054
G02 X6.0000 Y20.0892 I-2.0878 J-1.2054
G01 Z-3.0000 F15
G02 X3.9122 Y23.7054 I0.0000 J2.4108 F65
G02 X8.0878 I2.0878 J-1.2054
G02 X6.0000 Y20.0892 I-2.0878 J-1.2054
G00 Z5.0000


(No. 2: Part 1)
G00 X6.0000 Y-1.5875 Z5.0000
G00 Z0.5000
G01 Z0.0000 F15
G01 Z-0.5000
G01 X12.0000 F65
G03 X13.5875 Y0.0000 I0.0000 J1.5875
G01 Y22.5283
G03 X-1.5875 I-7.5875 J-0.0295
G01 Y0.0000
G03 X0.0000 Y-1.5875 I1.5875 J0.0000
G01 X6.0000
G01 Z-1.0000 F15
G01 X12.0000 F65
G03 X13.5875 Y0.0000 I0.0000 J1.5875
G01 Y22.5283
G03 X-1.5875 I-7.5875 J-0.0295
G01 Y0.0000
G03 X0.0000 Y-1.5875 I1.5875 J0.0000
G01 X6.0000
G01 Z-1.5000 F15
G01 X12.0000 F65
G03 X13.5875 Y0.0000 I0.0000 J1.5875
G01 Y22.5283
G03 X-1.5875 I-7.5875 J-0.0295
G01 Y0.0000
G03 X0.0000 Y-1.5875 I1.5875 J0.0000
G01 X6.0000
G01 Z-2.0000 F15
G01 X12.0000 F65
G03 X13.5875 Y0.0000 I0.0000 J1.5875
G01 Y22.5283
G03 X-1.5875 I-7.5875 J-0.0295
G01 Y0.0000
G03 X0.0000 Y-1.5875 I1.5875 J0.0000
G01 X6.0000
G01 Z-2.5000 F15
G01 X12.0000 F65
G03 X13.5875 Y0.0000 I0.0000 J1.5875
G01 Y22.5283
G03 X-1.5875 I-7.5875 J-0.0295
G01 Y0.0000
G03 X0.0000 Y-1.5875 I1.5875 J0.0000
G01 X6.0000
G01 Z-3.0000 F15
G01 X12.0000 F65
G03 X13.5875 Y0.0000 I0.0000 J1.5875
G01 Y22.5283
G03 X-1.5875 I-7.5875 J-0.0295
G01 Y0.0000
G03 X0.0000 Y-1.5875 I1.5875 J0.0000
G01 X6.0000
G00 Z5.0000
G00 X0.0000 Y0.0000

M05
M30
