(Project square)
(Created by Estlcam version 11 build 11,245)
(Machining time about 00:12:32 hours)

(Required tools:)
(End mill 3mm)

G90
G91.1
M03 S4260
G00 Z5.0000


(No. 1: Part 1)
G00 X-1.5875 Y0.0000
G00 Z0.5000
G01 Z0.0000 F15 S4260
G01 Z-0.5000
G03 X0.0000 Y-1.5875 I1.5875 J0.0000 F82
G01 X10.0000
G03 X11.5875 Y0.0000 I0.0000 J1.5875
G01 Y10.0000
G03 X10.0000 Y11.5875 I-1.5875 J0.0000
G01 X0.0000
G03 X-1.5875 Y10.0000 I0.0000 J-1.5875
G01 Y0.0000
G01 Z-1.0000 F15
G03 X0.0000 Y-1.5875 I1.5875 J0.0000 F82
G01 X10.0000
G03 X11.5875 Y0.0000 I0.0000 J1.5875
G01 Y10.0000
G03 X10.0000 Y11.5875 I-1.5875 J0.0000
G01 X0.0000
G03 X-1.5875 Y10.0000 I0.0000 J-1.5875
G01 Y0.0000
G01 Z-1.5000 F15
G03 X0.0000 Y-1.5875 I1.5875 J0.0000 F82
G01 X10.0000
G03 X11.5875 Y0.0000 I0.0000 J1.5875
G01 Y10.0000
G03 X10.0000 Y11.5875 I-1.5875 J0.0000
G01 X0.0000
G03 X-1.5875 Y10.0000 I0.0000 J-1.5875
G01 Y0.0000
G01 Z-2.0000 F15
G03 X0.0000 Y-1.5875 I1.5875 J0.0000 F82
G01 X10.0000
G03 X11.5875 Y0.0000 I0.0000 J1.5875
G01 Y10.0000
G03 X10.0000 Y11.5875 I-1.5875 J0.0000
G01 X0.0000
G03 X-1.5875 Y10.0000 I0.0000 J-1.5875
G01 Y0.0000
G01 Z-2.5000 F15
G03 X0.0000 Y-1.5875 I1.5875 J0.0000 F82
G01 X10.0000
G03 X11.5875 Y0.0000 I0.0000 J1.5875
G01 Y10.0000
G03 X10.0000 Y11.5875 I-1.5875 J0.0000
G01 X0.0000
G03 X-1.5875 Y10.0000 I0.0000 J-1.5875
G01 Y0.0000
G01 Z-3.0000 F15
G03 X0.0000 Y-1.5875 I1.5875 J0.0000 F82
G01 X10.0000
G03 X11.5875 Y0.0000 I0.0000 J1.5875
G01 Y10.0000
G03 X10.0000 Y11.5875 I-1.5875 J0.0000
G01 X0.0000
G03 X-1.5875 Y10.0000 I0.0000 J-1.5875
G01 Y0.0000
G01 Z-3.5000 F15
G03 X0.0000 Y-1.5875 I1.5875 J0.0000 F82
G01 X10.0000
G03 X11.5875 Y0.0000 I0.0000 J1.5875
G01 Y10.0000
G03 X10.0000 Y11.5875 I-1.5875 J0.0000
G01 X0.0000
G03 X-1.5875 Y10.0000 I0.0000 J-1.5875
G01 Y0.0000
G01 Z-4.0000 F15
G03 X0.0000 Y-1.5875 I1.5875 J0.0000 F82
G01 X10.0000
G03 X11.5875 Y0.0000 I0.0000 J1.5875
G01 Y10.0000
G03 X10.0000 Y11.5875 I-1.5875 J0.0000
G01 X0.0000
G03 X-1.5875 Y10.0000 I0.0000 J-1.5875
G01 Y0.0000
G01 Z-4.5000 F15
G03 X0.0000 Y-1.5875 I1.5875 J0.0000 F82
G01 X10.0000
G03 X11.5875 Y0.0000 I0.0000 J1.5875
G01 Y10.0000
G03 X10.0000 Y11.5875 I-1.5875 J0.0000
G01 X0.0000
G03 X-1.5875 Y10.0000 I0.0000 J-1.5875
G01 Y0.0000
G01 Z-5.0000 F15
G03 X0.0000 Y-1.5875 I1.5875 J0.0000 F82
G01 X10.0000
G03 X11.5875 Y0.0000 I0.0000 J1.5875
G01 Y10.0000
G03 X10.0000 Y11.5875 I-1.5875 J0.0000
G01 X0.0000
G03 X-1.5875 Y10.0000 I0.0000 J-1.5875
G01 Y0.0000
G01 Z-5.5000 F15
G03 X0.0000 Y-1.5875 I1.5875 J0.0000 F82
G01 X10.0000
G03 X11.5875 Y0.0000 I0.0000 J1.5875
G01 Y10.0000
G03 X10.0000 Y11.5875 I-1.5875 J0.0000
G01 X0.0000
G03 X-1.5875 Y10.0000 I0.0000 J-1.5875
G01 Y0.0000
G01 Z-6.0000 F15
G03 X0.0000 Y-1.5875 I1.5875 J0.0000 F82
G01 X10.0000
G03 X11.5875 Y0.0000 I0.0000 J1.5875
G01 Y10.0000
G03 X10.0000 Y11.5875 I-1.5875 J0.0000
G01 X0.0000
G03 X-1.5875 Y10.0000 I0.0000 J-1.5875
G01 Y0.0000
G01 Z-6.5000 F15
G03 X0.0000 Y-1.5875 I1.5875 J0.0000 F82
G01 X10.0000
G03 X11.5875 Y0.0000 I0.0000 J1.5875
G01 Y10.0000
G03 X10.0000 Y11.5875 I-1.5875 J0.0000
G01 X0.0000
G03 X-1.5875 Y10.0000 I0.0000 J-1.5875
G01 Y0.0000
G01 Z-7.0000 F15
G03 X0.0000 Y-1.5875 I1.5875 J0.0000 F82
G01 X10.0000
G03 X11.5875 Y0.0000 I0.0000 J1.5875
G01 Y10.0000
G03 X10.0000 Y11.5875 I-1.5875 J0.0000
G01 X0.0000
G03 X-1.5875 Y10.0000 I0.0000 J-1.5875
G01 Y0.0000
G01 Z-7.5000 F15
G03 X0.0000 Y-1.5875 I1.5875 J0.0000 F82
G01 X10.0000
G03 X11.5875 Y0.0000 I0.0000 J1.5875
G01 Y10.0000
G03 X10.0000 Y11.5875 I-1.5875 J0.0000
G01 X0.0000
G03 X-1.5875 Y10.0000 I0.0000 J-1.5875
G01 Y0.0000
G01 Z-8.0000 F15
G03 X0.0000 Y-1.5875 I1.5875 J0.0000 F82
G01 X10.0000
G03 X11.5875 Y0.0000 I0.0000 J1.5875
G01 Y10.0000
G03 X10.0000 Y11.5875 I-1.5875 J0.0000
G01 X0.0000
G03 X-1.5875 Y10.0000 I0.0000 J-1.5875
G01 Y0.0000
G01 Z-8.5000 F15
G03 X0.0000 Y-1.5875 I1.5875 J0.0000 F82
G01 X10.0000
G03 X11.5875 Y0.0000 I0.0000 J1.5875
G01 Y10.0000
G03 X10.0000 Y11.5875 I-1.5875 J0.0000
G01 X0.0000
G03 X-1.5875 Y10.0000 I0.0000 J-1.5875
G01 Y0.0000
G01 Z-9.0000 F15
G03 X0.0000 Y-1.5875 I1.5875 J0.0000 F82
G01 X10.0000
G03 X11.5875 Y0.0000 I0.0000 J1.5875
G01 Y10.0000
G03 X10.0000 Y11.5875 I-1.5875 J0.0000
G01 X0.0000
G03 X-1.5875 Y10.0000 I0.0000 J-1.5875
G01 Y0.0000
G01 Z-9.5000 F15
G03 X0.0000 Y-1.5875 I1.5875 J0.0000 F82
G01 X10.0000
G03 X11.5875 Y0.0000 I0.0000 J1.5875
G01 Y10.0000
G03 X10.0000 Y11.5875 I-1.5875 J0.0000
G01 X0.0000
G03 X-1.5875 Y10.0000 I0.0000 J-1.5875
G01 Y0.0000
G01 Z-10.0000 F15
G03 X0.0000 Y-1.5875 I1.5875 J0.0000 F82
G01 X10.0000
G03 X11.5875 Y0.0000 I0.0000 J1.5875
G01 Y10.0000
G03 X10.0000 Y11.5875 I-1.5875 J0.0000
G01 X0.0000
G03 X-1.5875 Y10.0000 I0.0000 J-1.5875
G01 Y0.0000
G00 Z5.0000
G00 X0.0000

M05
M30
