(Project rapoukMiddleLeg2v3)
(Created by Estlcam version 11 build 11,245)
(Machining time about 00:14:15 hours)

(Required tools:)
(End mill 3mm)

G90
G91.1
M03 S4260
G00 Z5.0000


(No. 1: Hole 1)
G00 X5.3773 Y13.3920
G00 Z0.5000
G01 Z0.0000 F15 S4260
G01 Z-0.5000
G01 X6.6227 F65
G01 X6.9307 Y16.2495
G01 X5.0693
G01 X4.7614 Y19.1070
G01 X7.2386
G01 X7.5465 Y21.9645
G01 X4.4535
G01 X4.1511 Y21.8075
G02 X4.1175 Y22.8277 I2.9290 J0.6069
G02 X7.8975 Y22.2583 I1.8833 J-0.3289
G01 X6.4130 Y8.4821
G02 X5.5870 I-0.4130 J0.0198
G01 X4.1511 Y21.8075
G01 X4.4535 Y21.9645
G01 Z-1.0000 F15
G01 X7.5465 F65
G01 X7.2386 Y19.1070
G01 X4.7614
G01 X5.0693 Y16.2495
G01 X6.9307
G01 X6.6227 Y13.3920
G01 X5.3773
G01 X5.0611 Y13.3626
G01 X4.1025 Y22.2583
G02 X7.9048 Y22.6510 I1.8966 J0.2407
G01 X7.9106 Y22.4730
G01 X7.8975 Y22.2583
G01 X6.4130 Y8.4821
G02 X5.5870 I-0.4130 J0.0198
G01 X5.0611 Y13.3626
G01 X5.3773 Y13.3920
G01 Z-1.5000 F15
G01 X6.6227 F65
G01 X6.9307 Y16.2495
G01 X5.0693
G01 X4.7614 Y19.1070
G01 X7.2386
G01 X7.5465 Y21.9645
G01 X4.4535
G01 X4.1511 Y21.8075
G02 X4.1175 Y22.8277 I2.9290 J0.6069
G02 X7.8975 Y22.2583 I1.8833 J-0.3289
G01 X6.4130 Y8.4821
G02 X5.5870 I-0.4130 J0.0198
G01 X4.1511 Y21.8075
G01 X4.4535 Y21.9645
G01 Z-2.0000 F15
G01 X7.5465 F65
G01 X7.2386 Y19.1070
G01 X4.7614
G01 X5.0693 Y16.2495
G01 X6.9307
G01 X6.6227 Y13.3920
G01 X5.3773
G01 X5.0611 Y13.3626
G01 X4.1025 Y22.2583
G02 X7.9048 Y22.6510 I1.8966 J0.2407
G01 X7.9106 Y22.4730
G01 X7.8975 Y22.2583
G01 X6.4130 Y8.4821
G02 X5.5870 I-0.4130 J0.0198
G01 X5.0611 Y13.3626
G01 X5.3773 Y13.3920
G00 Z5.0000


(No. 2: Part 1)
G00 X6.0000 Y-1.5875 Z5.0000
G00 Z0.5000
G01 Z0.0000 F15
G01 Z-0.5000
G01 X12.0000 F65
G03 X13.5875 Y0.0000 I0.0000 J1.5875
G01 Y22.5283
G03 X-1.5875 I-7.5875 J-0.0295
G01 Y0.0000
G03 X0.0000 Y-1.5875 I1.5875 J0.0000
G01 X6.0000
G01 Z-1.0000 F15
G01 X12.0000 F65
G03 X13.5875 Y0.0000 I0.0000 J1.5875
G01 Y22.5283
G03 X-1.5875 I-7.5875 J-0.0295
G01 Y0.0000
G03 X0.0000 Y-1.5875 I1.5875 J0.0000
G01 X6.0000
G01 Z-1.5000 F15
G01 X12.0000 F65
G03 X13.5875 Y0.0000 I0.0000 J1.5875
G01 Y22.5283
G03 X-1.5875 I-7.5875 J-0.0295
G01 Y0.0000
G03 X0.0000 Y-1.5875 I1.5875 J0.0000
G01 X6.0000
G01 Z-2.0000 F15
G01 X12.0000 F65
G03 X13.5875 Y0.0000 I0.0000 J1.5875
G01 Y22.5283
G03 X-1.5875 I-7.5875 J-0.0295
G01 Y0.0000
G03 X0.0000 Y-1.5875 I1.5875 J0.0000
G01 X6.0000
G01 Z-2.5000 F15
G01 X12.0000 F65
G03 X13.5875 Y0.0000 I0.0000 J1.5875
G01 Y22.5283
G03 X-1.5875 I-7.5875 J-0.0295
G01 Y0.0000
G03 X0.0000 Y-1.5875 I1.5875 J0.0000
G01 X6.0000
G01 Z-3.0000 F15
G01 X12.0000 F65
G03 X13.5875 Y0.0000 I0.0000 J1.5875
G01 Y22.5283
G03 X-1.5875 I-7.5875 J-0.0295
G01 Y0.0000
G03 X0.0000 Y-1.5875 I1.5875 J0.0000
G01 X6.0000
G00 Z5.0000
G00 X0.0000 Y0.0000

M05
M30
