(Project rapoukBasev5)
(Created by Estlcam version 11 build 11,245)
(Machining time about 03:04:23 hours)

(Required tools:)
(End mill 3mm)

G90
G91.1
M03 S4260
G00 Z5.0000


(No. 1: Vn?j?? dr?ha 2)
G00 X38.4931 Y-1.5875
G00 Z0.5000
G01 Z0.0000 F15 S4260
G01 Z-0.5000
G01 X76.0173 F65
G03 X78.5875 Y0.9827 I-0.0165 J2.5867
G01 Y5.0173
G03 X76.0173 Y7.5875 I-2.5867 J-0.0165
G01 X67.0875
G01 Y28.4125
G01 X76.0312
G03 X78.5875 Y30.9688 I-0.0332 J2.5895
G01 Y35.0312
G03 X76.0312 Y37.5875 I-2.5895 J-0.0332
G01 X67.0875
G01 Y54.4125
G01 X76.0312
G03 X78.5875 Y56.9688 I-0.0332 J2.5895
G01 Y61.0312
G03 X76.0312 Y63.5875 I-2.5895 J-0.0332
G01 X67.0875
G01 Y84.4125
G01 X76.0312
G03 X78.5875 Y86.9688 I-0.0332 J2.5895
G01 Y91.0312
G03 X76.0312 Y93.5875 I-2.5895 J-0.0332
G01 X0.9827
G03 X-1.5875 Y91.0173 I0.0165 J-2.5867
G01 Y86.9827
G03 X0.9827 Y84.4125 I2.5867 J0.0165
G01 X9.9125
G01 Y63.5875
G01 X0.9688
G03 X-1.5875 Y61.0312 I0.0332 J-2.5895
G01 Y56.9688
G03 X0.9688 Y54.4125 I2.5895 J0.0332
G01 X9.9125
G01 Y37.5875
G01 X0.9688
G03 X-1.5875 Y35.0312 I0.0332 J-2.5895
G01 Y30.9827
G03 X0.9827 Y28.4125 I2.5867 J0.0165
G01 X9.9125
G01 Y7.5875
G01 X0.9827
G03 X-1.5875 Y5.0173 I0.0165 J-2.5867
G01 Y0.9688
G03 X0.9688 Y-1.5875 I2.5895 J0.0332
G01 X38.4931
G01 Z-1.0000 F15
G01 X76.0173 F65
G03 X78.5875 Y0.9827 I-0.0165 J2.5867
G01 Y5.0173
G03 X76.0173 Y7.5875 I-2.5867 J-0.0165
G01 X67.0875
G01 Y28.4125
G01 X76.0312
G03 X78.5875 Y30.9688 I-0.0332 J2.5895
G01 Y35.0312
G03 X76.0312 Y37.5875 I-2.5895 J-0.0332
G01 X67.0875
G01 Y54.4125
G01 X76.0312
G03 X78.5875 Y56.9688 I-0.0332 J2.5895
G01 Y61.0312
G03 X76.0312 Y63.5875 I-2.5895 J-0.0332
G01 X67.0875
G01 Y84.4125
G01 X76.0312
G03 X78.5875 Y86.9688 I-0.0332 J2.5895
G01 Y91.0312
G03 X76.0312 Y93.5875 I-2.5895 J-0.0332
G01 X0.9827
G03 X-1.5875 Y91.0173 I0.0165 J-2.5867
G01 Y86.9827
G03 X0.9827 Y84.4125 I2.5867 J0.0165
G01 X9.9125
G01 Y63.5875
G01 X0.9688
G03 X-1.5875 Y61.0312 I0.0332 J-2.5895
G01 Y56.9688
G03 X0.9688 Y54.4125 I2.5895 J0.0332
G01 X9.9125
G01 Y37.5875
G01 X0.9688
G03 X-1.5875 Y35.0312 I0.0332 J-2.5895
G01 Y30.9827
G03 X0.9827 Y28.4125 I2.5867 J0.0165
G01 X9.9125
G01 Y7.5875
G01 X0.9827
G03 X-1.5875 Y5.0173 I0.0165 J-2.5867
G01 Y0.9688
G03 X0.9688 Y-1.5875 I2.5895 J0.0332
G01 X38.4931
G01 Z-1.5000 F15
G01 X76.0173 F65
G03 X78.5875 Y0.9827 I-0.0165 J2.5867
G01 Y5.0173
G03 X76.0173 Y7.5875 I-2.5867 J-0.0165
G01 X67.0875
G01 Y28.4125
G01 X76.0312
G03 X78.5875 Y30.9688 I-0.0332 J2.5895
G01 Y35.0312
G03 X76.0312 Y37.5875 I-2.5895 J-0.0332
G01 X67.0875
G01 Y54.4125
G01 X76.0312
G03 X78.5875 Y56.9688 I-0.0332 J2.5895
G01 Y61.0312
G03 X76.0312 Y63.5875 I-2.5895 J-0.0332
G01 X67.0875
G01 Y84.4125
G01 X76.0312
G03 X78.5875 Y86.9688 I-0.0332 J2.5895
G01 Y91.0312
G03 X76.0312 Y93.5875 I-2.5895 J-0.0332
G01 X0.9827
G03 X-1.5875 Y91.0173 I0.0165 J-2.5867
G01 Y86.9827
G03 X0.9827 Y84.4125 I2.5867 J0.0165
G01 X9.9125
G01 Y63.5875
G01 X0.9688
G03 X-1.5875 Y61.0312 I0.0332 J-2.5895
G01 Y56.9688
G03 X0.9688 Y54.4125 I2.5895 J0.0332
G01 X9.9125
G01 Y37.5875
G01 X0.9688
G03 X-1.5875 Y35.0312 I0.0332 J-2.5895
G01 Y30.9827
G03 X0.9827 Y28.4125 I2.5867 J0.0165
G01 X9.9125
G01 Y7.5875
G01 X0.9827
G03 X-1.5875 Y5.0173 I0.0165 J-2.5867
G01 Y0.9688
G03 X0.9688 Y-1.5875 I2.5895 J0.0332
G01 X38.4931
G01 Z-2.0000 F15
G01 X76.0173 F65
G03 X78.5875 Y0.9827 I-0.0165 J2.5867
G01 Y5.0173
G03 X76.0173 Y7.5875 I-2.5867 J-0.0165
G01 X67.0875
G01 Y28.4125
G01 X76.0312
G03 X78.5875 Y30.9688 I-0.0332 J2.5895
G01 Y35.0312
G03 X76.0312 Y37.5875 I-2.5895 J-0.0332
G01 X67.0875
G01 Y54.4125
G01 X76.0312
G03 X78.5875 Y56.9688 I-0.0332 J2.5895
G01 Y61.0312
G03 X76.0312 Y63.5875 I-2.5895 J-0.0332
G01 X67.0875
G01 Y84.4125
G01 X76.0312
G03 X78.5875 Y86.9688 I-0.0332 J2.5895
G01 Y91.0312
G03 X76.0312 Y93.5875 I-2.5895 J-0.0332
G01 X0.9827
G03 X-1.5875 Y91.0173 I0.0165 J-2.5867
G01 Y86.9827
G03 X0.9827 Y84.4125 I2.5867 J0.0165
G01 X9.9125
G01 Y63.5875
G01 X0.9688
G03 X-1.5875 Y61.0312 I0.0332 J-2.5895
G01 Y56.9688
G03 X0.9688 Y54.4125 I2.5895 J0.0332
G01 X9.9125
G01 Y37.5875
G01 X0.9688
G03 X-1.5875 Y35.0312 I0.0332 J-2.5895
G01 Y30.9827
G03 X0.9827 Y28.4125 I2.5867 J0.0165
G01 X9.9125
G01 Y7.5875
G01 X0.9827
G03 X-1.5875 Y5.0173 I0.0165 J-2.5867
G01 Y0.9688
G03 X0.9688 Y-1.5875 I2.5895 J0.0332
G01 X38.4931
G01 Z-2.5000 F15
G01 X76.0173 F65
G03 X78.5875 Y0.9827 I-0.0165 J2.5867
G01 Y5.0173
G03 X76.0173 Y7.5875 I-2.5867 J-0.0165
G01 X67.0875
G01 Y28.4125
G01 X76.0312
G03 X78.5875 Y30.9688 I-0.0332 J2.5895
G01 Y35.0312
G03 X76.0312 Y37.5875 I-2.5895 J-0.0332
G01 X67.0875
G01 Y54.4125
G01 X76.0312
G03 X78.5875 Y56.9688 I-0.0332 J2.5895
G01 Y61.0312
G03 X76.0312 Y63.5875 I-2.5895 J-0.0332
G01 X67.0875
G01 Y84.4125
G01 X76.0312
G03 X78.5875 Y86.9688 I-0.0332 J2.5895
G01 Y91.0312
G03 X76.0312 Y93.5875 I-2.5895 J-0.0332
G01 X0.9827
G03 X-1.5875 Y91.0173 I0.0165 J-2.5867
G01 Y86.9827
G03 X0.9827 Y84.4125 I2.5867 J0.0165
G01 X9.9125
G01 Y63.5875
G01 X0.9688
G03 X-1.5875 Y61.0312 I0.0332 J-2.5895
G01 Y56.9688
G03 X0.9688 Y54.4125 I2.5895 J0.0332
G01 X9.9125
G01 Y37.5875
G01 X0.9688
G03 X-1.5875 Y35.0312 I0.0332 J-2.5895
G01 Y30.9827
G03 X0.9827 Y28.4125 I2.5867 J0.0165
G01 X9.9125
G01 Y7.5875
G01 X0.9827
G03 X-1.5875 Y5.0173 I0.0165 J-2.5867
G01 Y0.9688
G03 X0.9688 Y-1.5875 I2.5895 J0.0332
G01 X38.4931
G01 Z-3.0000 F15
G01 X76.0173 F65
G03 X78.5875 Y0.9827 I-0.0165 J2.5867
G01 Y5.0173
G03 X76.0173 Y7.5875 I-2.5867 J-0.0165
G01 X67.0875
G01 Y28.4125
G01 X76.0312
G03 X78.5875 Y30.9688 I-0.0332 J2.5895
G01 Y35.0312
G03 X76.0312 Y37.5875 I-2.5895 J-0.0332
G01 X67.0875
G01 Y54.4125
G01 X76.0312
G03 X78.5875 Y56.9688 I-0.0332 J2.5895
G01 Y61.0312
G03 X76.0312 Y63.5875 I-2.5895 J-0.0332
G01 X67.0875
G01 Y84.4125
G01 X76.0312
G03 X78.5875 Y86.9688 I-0.0332 J2.5895
G01 Y91.0312
G03 X76.0312 Y93.5875 I-2.5895 J-0.0332
G01 X0.9827
G03 X-1.5875 Y91.0173 I0.0165 J-2.5867
G01 Y86.9827
G03 X0.9827 Y84.4125 I2.5867 J0.0165
G01 X9.9125
G01 Y63.5875
G01 X0.9688
G03 X-1.5875 Y61.0312 I0.0332 J-2.5895
G01 Y56.9688
G03 X0.9688 Y54.4125 I2.5895 J0.0332
G01 X9.9125
G01 Y37.5875
G01 X0.9688
G03 X-1.5875 Y35.0312 I0.0332 J-2.5895
G01 Y30.9827
G03 X0.9827 Y28.4125 I2.5867 J0.0165
G01 X9.9125
G01 Y7.5875
G01 X0.9827
G03 X-1.5875 Y5.0173 I0.0165 J-2.5867
G01 Y0.9688
G03 X0.9688 Y-1.5875 I2.5895 J0.0332
G01 X38.4931
G01 Z-3.5000 F15
G01 X76.0173 F65
G03 X78.5875 Y0.9827 I-0.0165 J2.5867
G01 Y5.0173
G03 X76.0173 Y7.5875 I-2.5867 J-0.0165
G01 X67.0875
G01 Y28.4125
G01 X76.0312
G03 X78.5875 Y30.9688 I-0.0332 J2.5895
G01 Y35.0312
G03 X76.0312 Y37.5875 I-2.5895 J-0.0332
G01 X67.0875
G01 Y54.4125
G01 X76.0312
G03 X78.5875 Y56.9688 I-0.0332 J2.5895
G01 Y61.0312
G03 X76.0312 Y63.5875 I-2.5895 J-0.0332
G01 X67.0875
G01 Y84.4125
G01 X76.0312
G03 X78.5875 Y86.9688 I-0.0332 J2.5895
G01 Y91.0312
G03 X76.0312 Y93.5875 I-2.5895 J-0.0332
G01 X0.9827
G03 X-1.5875 Y91.0173 I0.0165 J-2.5867
G01 Y86.9827
G03 X0.9827 Y84.4125 I2.5867 J0.0165
G01 X9.9125
G01 Y63.5875
G01 X0.9688
G03 X-1.5875 Y61.0312 I0.0332 J-2.5895
G01 Y56.9688
G03 X0.9688 Y54.4125 I2.5895 J0.0332
G01 X9.9125
G01 Y37.5875
G01 X0.9688
G03 X-1.5875 Y35.0312 I0.0332 J-2.5895
G01 Y30.9827
G03 X0.9827 Y28.4125 I2.5867 J0.0165
G01 X9.9125
G01 Y7.5875
G01 X0.9827
G03 X-1.5875 Y5.0173 I0.0165 J-2.5867
G01 Y0.9688
G03 X0.9688 Y-1.5875 I2.5895 J0.0332
G01 X38.4931
G01 Z-4.0000 F15
G01 X76.0173 F65
G03 X78.5875 Y0.9827 I-0.0165 J2.5867
G01 Y5.0173
G03 X76.0173 Y7.5875 I-2.5867 J-0.0165
G01 X67.0875
G01 Y28.4125
G01 X76.0312
G03 X78.5875 Y30.9688 I-0.0332 J2.5895
G01 Y35.0312
G03 X76.0312 Y37.5875 I-2.5895 J-0.0332
G01 X67.0875
G01 Y54.4125
G01 X76.0312
G03 X78.5875 Y56.9688 I-0.0332 J2.5895
G01 Y61.0312
G03 X76.0312 Y63.5875 I-2.5895 J-0.0332
G01 X67.0875
G01 Y84.4125
G01 X76.0312
G03 X78.5875 Y86.9688 I-0.0332 J2.5895
G01 Y91.0312
G03 X76.0312 Y93.5875 I-2.5895 J-0.0332
G01 X0.9827
G03 X-1.5875 Y91.0173 I0.0165 J-2.5867
G01 Y86.9827
G03 X0.9827 Y84.4125 I2.5867 J0.0165
G01 X9.9125
G01 Y63.5875
G01 X0.9688
G03 X-1.5875 Y61.0312 I0.0332 J-2.5895
G01 Y56.9688
G03 X0.9688 Y54.4125 I2.5895 J0.0332
G01 X9.9125
G01 Y37.5875
G01 X0.9688
G03 X-1.5875 Y35.0312 I0.0332 J-2.5895
G01 Y30.9827
G03 X0.9827 Y28.4125 I2.5867 J0.0165
G01 X9.9125
G01 Y7.5875
G01 X0.9827
G03 X-1.5875 Y5.0173 I0.0165 J-2.5867
G01 Y0.9688
G03 X0.9688 Y-1.5875 I2.5895 J0.0332
G01 X38.4931
G01 Z-4.5000 F15
G01 X76.0173 F65
G03 X78.5875 Y0.9827 I-0.0165 J2.5867
G01 Y5.0173
G03 X76.0173 Y7.5875 I-2.5867 J-0.0165
G01 X67.0875
G01 Y28.4125
G01 X76.0312
G03 X78.5875 Y30.9688 I-0.0332 J2.5895
G01 Y35.0312
G03 X76.0312 Y37.5875 I-2.5895 J-0.0332
G01 X67.0875
G01 Y54.4125
G01 X76.0312
G03 X78.5875 Y56.9688 I-0.0332 J2.5895
G01 Y61.0312
G03 X76.0312 Y63.5875 I-2.5895 J-0.0332
G01 X67.0875
G01 Y84.4125
G01 X76.0312
G03 X78.5875 Y86.9688 I-0.0332 J2.5895
G01 Y91.0312
G03 X76.0312 Y93.5875 I-2.5895 J-0.0332
G01 X0.9827
G03 X-1.5875 Y91.0173 I0.0165 J-2.5867
G01 Y86.9827
G03 X0.9827 Y84.4125 I2.5867 J0.0165
G01 X9.9125
G01 Y63.5875
G01 X0.9688
G03 X-1.5875 Y61.0312 I0.0332 J-2.5895
G01 Y56.9688
G03 X0.9688 Y54.4125 I2.5895 J0.0332
G01 X9.9125
G01 Y37.5875
G01 X0.9688
G03 X-1.5875 Y35.0312 I0.0332 J-2.5895
G01 Y30.9827
G03 X0.9827 Y28.4125 I2.5867 J0.0165
G01 X9.9125
G01 Y7.5875
G01 X0.9827
G03 X-1.5875 Y5.0173 I0.0165 J-2.5867
G01 Y0.9688
G03 X0.9688 Y-1.5875 I2.5895 J0.0332
G01 X38.4931
G01 Z-5.0000 F15
G01 X76.0173 F65
G03 X78.5875 Y0.9827 I-0.0165 J2.5867
G01 Y5.0173
G03 X76.0173 Y7.5875 I-2.5867 J-0.0165
G01 X67.0875
G01 Y28.4125
G01 X76.0312
G03 X78.5875 Y30.9688 I-0.0332 J2.5895
G01 Y35.0312
G03 X76.0312 Y37.5875 I-2.5895 J-0.0332
G01 X67.0875
G01 Y54.4125
G01 X76.0312
G03 X78.5875 Y56.9688 I-0.0332 J2.5895
G01 Y61.0312
G03 X76.0312 Y63.5875 I-2.5895 J-0.0332
G01 X67.0875
G01 Y84.4125
G01 X76.0312
G03 X78.5875 Y86.9688 I-0.0332 J2.5895
G01 Y91.0312
G03 X76.0312 Y93.5875 I-2.5895 J-0.0332
G01 X0.9827
G03 X-1.5875 Y91.0173 I0.0165 J-2.5867
G01 Y86.9827
G03 X0.9827 Y84.4125 I2.5867 J0.0165
G01 X9.9125
G01 Y63.5875
G01 X0.9688
G03 X-1.5875 Y61.0312 I0.0332 J-2.5895
G01 Y56.9688
G03 X0.9688 Y54.4125 I2.5895 J0.0332
G01 X9.9125
G01 Y37.5875
G01 X0.9688
G03 X-1.5875 Y35.0312 I0.0332 J-2.5895
G01 Y30.9827
G03 X0.9827 Y28.4125 I2.5867 J0.0165
G01 X9.9125
G01 Y7.5875
G01 X0.9827
G03 X-1.5875 Y5.0173 I0.0165 J-2.5867
G01 Y0.9688
G03 X0.9688 Y-1.5875 I2.5895 J0.0332
G01 X38.4931
G01 Z-5.5000 F15
G01 X76.0173 F65
G03 X78.5875 Y0.9827 I-0.0165 J2.5867
G01 Y5.0173
G03 X76.0173 Y7.5875 I-2.5867 J-0.0165
G01 X67.0875
G01 Y28.4125
G01 X76.0312
G03 X78.5875 Y30.9688 I-0.0332 J2.5895
G01 Y35.0312
G03 X76.0312 Y37.5875 I-2.5895 J-0.0332
G01 X67.0875
G01 Y54.4125
G01 X76.0312
G03 X78.5875 Y56.9688 I-0.0332 J2.5895
G01 Y61.0312
G03 X76.0312 Y63.5875 I-2.5895 J-0.0332
G01 X67.0875
G01 Y84.4125
G01 X76.0312
G03 X78.5875 Y86.9688 I-0.0332 J2.5895
G01 Y91.0312
G03 X76.0312 Y93.5875 I-2.5895 J-0.0332
G01 X0.9827
G03 X-1.5875 Y91.0173 I0.0165 J-2.5867
G01 Y86.9827
G03 X0.9827 Y84.4125 I2.5867 J0.0165
G01 X9.9125
G01 Y63.5875
G01 X0.9688
G03 X-1.5875 Y61.0312 I0.0332 J-2.5895
G01 Y56.9688
G03 X0.9688 Y54.4125 I2.5895 J0.0332
G01 X9.9125
G01 Y37.5875
G01 X0.9688
G03 X-1.5875 Y35.0312 I0.0332 J-2.5895
G01 Y30.9827
G03 X0.9827 Y28.4125 I2.5867 J0.0165
G01 X9.9125
G01 Y7.5875
G01 X0.9827
G03 X-1.5875 Y5.0173 I0.0165 J-2.5867
G01 Y0.9688
G03 X0.9688 Y-1.5875 I2.5895 J0.0332
G01 X38.4931
G01 Z-6.0000 F15
G01 X76.0173 F65
G03 X78.5875 Y0.9827 I-0.0165 J2.5867
G01 Y5.0173
G03 X76.0173 Y7.5875 I-2.5867 J-0.0165
G01 X67.0875
G01 Y28.4125
G01 X76.0312
G03 X78.5875 Y30.9688 I-0.0332 J2.5895
G01 Y35.0312
G03 X76.0312 Y37.5875 I-2.5895 J-0.0332
G01 X67.0875
G01 Y54.4125
G01 X76.0312
G03 X78.5875 Y56.9688 I-0.0332 J2.5895
G01 Y61.0312
G03 X76.0312 Y63.5875 I-2.5895 J-0.0332
G01 X67.0875
G01 Y84.4125
G01 X76.0312
G03 X78.5875 Y86.9688 I-0.0332 J2.5895
G01 Y91.0312
G03 X76.0312 Y93.5875 I-2.5895 J-0.0332
G01 X0.9827
G03 X-1.5875 Y91.0173 I0.0165 J-2.5867
G01 Y86.9827
G03 X0.9827 Y84.4125 I2.5867 J0.0165
G01 X9.9125
G01 Y63.5875
G01 X0.9688
G03 X-1.5875 Y61.0312 I0.0332 J-2.5895
G01 Y56.9688
G03 X0.9688 Y54.4125 I2.5895 J0.0332
G01 X9.9125
G01 Y37.5875
G01 X0.9688
G03 X-1.5875 Y35.0312 I0.0332 J-2.5895
G01 Y30.9827
G03 X0.9827 Y28.4125 I2.5867 J0.0165
G01 X9.9125
G01 Y7.5875
G01 X0.9827
G03 X-1.5875 Y5.0173 I0.0165 J-2.5867
G01 Y0.9688
G03 X0.9688 Y-1.5875 I2.5895 J0.0332
G01 X38.4931
G01 Z-6.5000 F15
G01 X76.0173 F65
G03 X78.5875 Y0.9827 I-0.0165 J2.5867
G01 Y5.0173
G03 X76.0173 Y7.5875 I-2.5867 J-0.0165
G01 X67.0875
G01 Y28.4125
G01 X76.0312
G03 X78.5875 Y30.9688 I-0.0332 J2.5895
G01 Y35.0312
G03 X76.0312 Y37.5875 I-2.5895 J-0.0332
G01 X67.0875
G01 Y54.4125
G01 X76.0312
G03 X78.5875 Y56.9688 I-0.0332 J2.5895
G01 Y61.0312
G03 X76.0312 Y63.5875 I-2.5895 J-0.0332
G01 X67.0875
G01 Y84.4125
G01 X76.0312
G03 X78.5875 Y86.9688 I-0.0332 J2.5895
G01 Y91.0312
G03 X76.0312 Y93.5875 I-2.5895 J-0.0332
G01 X0.9827
G03 X-1.5875 Y91.0173 I0.0165 J-2.5867
G01 Y86.9827
G03 X0.9827 Y84.4125 I2.5867 J0.0165
G01 X9.9125
G01 Y63.5875
G01 X0.9688
G03 X-1.5875 Y61.0312 I0.0332 J-2.5895
G01 Y56.9688
G03 X0.9688 Y54.4125 I2.5895 J0.0332
G01 X9.9125
G01 Y37.5875
G01 X0.9688
G03 X-1.5875 Y35.0312 I0.0332 J-2.5895
G01 Y30.9827
G03 X0.9827 Y28.4125 I2.5867 J0.0165
G01 X9.9125
G01 Y7.5875
G01 X0.9827
G03 X-1.5875 Y5.0173 I0.0165 J-2.5867
G01 Y0.9688
G03 X0.9688 Y-1.5875 I2.5895 J0.0332
G01 X38.4931
G01 Z-7.0000 F15
G01 X76.0173 F65
G03 X78.5875 Y0.9827 I-0.0165 J2.5867
G01 Y5.0173
G03 X76.0173 Y7.5875 I-2.5867 J-0.0165
G01 X67.0875
G01 Y28.4125
G01 X76.0312
G03 X78.5875 Y30.9688 I-0.0332 J2.5895
G01 Y35.0312
G03 X76.0312 Y37.5875 I-2.5895 J-0.0332
G01 X67.0875
G01 Y54.4125
G01 X76.0312
G03 X78.5875 Y56.9688 I-0.0332 J2.5895
G01 Y61.0312
G03 X76.0312 Y63.5875 I-2.5895 J-0.0332
G01 X67.0875
G01 Y84.4125
G01 X76.0312
G03 X78.5875 Y86.9688 I-0.0332 J2.5895
G01 Y91.0312
G03 X76.0312 Y93.5875 I-2.5895 J-0.0332
G01 X0.9827
G03 X-1.5875 Y91.0173 I0.0165 J-2.5867
G01 Y86.9827
G03 X0.9827 Y84.4125 I2.5867 J0.0165
G01 X9.9125
G01 Y63.5875
G01 X0.9688
G03 X-1.5875 Y61.0312 I0.0332 J-2.5895
G01 Y56.9688
G03 X0.9688 Y54.4125 I2.5895 J0.0332
G01 X9.9125
G01 Y37.5875
G01 X0.9688
G03 X-1.5875 Y35.0312 I0.0332 J-2.5895
G01 Y30.9827
G03 X0.9827 Y28.4125 I2.5867 J0.0165
G01 X9.9125
G01 Y7.5875
G01 X0.9827
G03 X-1.5875 Y5.0173 I0.0165 J-2.5867
G01 Y0.9688
G03 X0.9688 Y-1.5875 I2.5895 J0.0332
G01 X38.4931
G01 Z-7.5000 F15
G01 X76.0173 F65
G03 X78.5875 Y0.9827 I-0.0165 J2.5867
G01 Y5.0173
G03 X76.0173 Y7.5875 I-2.5867 J-0.0165
G01 X67.0875
G01 Y28.4125
G01 X76.0312
G03 X78.5875 Y30.9688 I-0.0332 J2.5895
G01 Y35.0312
G03 X76.0312 Y37.5875 I-2.5895 J-0.0332
G01 X67.0875
G01 Y54.4125
G01 X76.0312
G03 X78.5875 Y56.9688 I-0.0332 J2.5895
G01 Y61.0312
G03 X76.0312 Y63.5875 I-2.5895 J-0.0332
G01 X67.0875
G01 Y84.4125
G01 X76.0312
G03 X78.5875 Y86.9688 I-0.0332 J2.5895
G01 Y91.0312
G03 X76.0312 Y93.5875 I-2.5895 J-0.0332
G01 X0.9827
G03 X-1.5875 Y91.0173 I0.0165 J-2.5867
G01 Y86.9827
G03 X0.9827 Y84.4125 I2.5867 J0.0165
G01 X9.9125
G01 Y63.5875
G01 X0.9688
G03 X-1.5875 Y61.0312 I0.0332 J-2.5895
G01 Y56.9688
G03 X0.9688 Y54.4125 I2.5895 J0.0332
G01 X9.9125
G01 Y37.5875
G01 X0.9688
G03 X-1.5875 Y35.0312 I0.0332 J-2.5895
G01 Y30.9827
G03 X0.9827 Y28.4125 I2.5867 J0.0165
G01 X9.9125
G01 Y7.5875
G01 X0.9827
G03 X-1.5875 Y5.0173 I0.0165 J-2.5867
G01 Y0.9688
G03 X0.9688 Y-1.5875 I2.5895 J0.0332
G01 X38.4931
G01 Z-8.0000 F15
G01 X76.0173 F65
G03 X78.5875 Y0.9827 I-0.0165 J2.5867
G01 Y5.0173
G03 X76.0173 Y7.5875 I-2.5867 J-0.0165
G01 X67.0875
G01 Y28.4125
G01 X76.0312
G03 X78.5875 Y30.9688 I-0.0332 J2.5895
G01 Y35.0312
G03 X76.0312 Y37.5875 I-2.5895 J-0.0332
G01 X67.0875
G01 Y54.4125
G01 X76.0312
G03 X78.5875 Y56.9688 I-0.0332 J2.5895
G01 Y61.0312
G03 X76.0312 Y63.5875 I-2.5895 J-0.0332
G01 X67.0875
G01 Y84.4125
G01 X76.0312
G03 X78.5875 Y86.9688 I-0.0332 J2.5895
G01 Y91.0312
G03 X76.0312 Y93.5875 I-2.5895 J-0.0332
G01 X0.9827
G03 X-1.5875 Y91.0173 I0.0165 J-2.5867
G01 Y86.9827
G03 X0.9827 Y84.4125 I2.5867 J0.0165
G01 X9.9125
G01 Y63.5875
G01 X0.9688
G03 X-1.5875 Y61.0312 I0.0332 J-2.5895
G01 Y56.9688
G03 X0.9688 Y54.4125 I2.5895 J0.0332
G01 X9.9125
G01 Y37.5875
G01 X0.9688
G03 X-1.5875 Y35.0312 I0.0332 J-2.5895
G01 Y30.9827
G03 X0.9827 Y28.4125 I2.5867 J0.0165
G01 X9.9125
G01 Y7.5875
G01 X0.9827
G03 X-1.5875 Y5.0173 I0.0165 J-2.5867
G01 Y0.9688
G03 X0.9688 Y-1.5875 I2.5895 J0.0332
G01 X38.4931
G01 Z-8.5000 F15
G01 X76.0173 F65
G03 X78.5875 Y0.9827 I-0.0165 J2.5867
G01 Y5.0173
G03 X76.0173 Y7.5875 I-2.5867 J-0.0165
G01 X67.0875
G01 Y28.4125
G01 X76.0312
G03 X78.5875 Y30.9688 I-0.0332 J2.5895
G01 Y35.0312
G03 X76.0312 Y37.5875 I-2.5895 J-0.0332
G01 X67.0875
G01 Y54.4125
G01 X76.0312
G03 X78.5875 Y56.9688 I-0.0332 J2.5895
G01 Y61.0312
G03 X76.0312 Y63.5875 I-2.5895 J-0.0332
G01 X67.0875
G01 Y84.4125
G01 X76.0312
G03 X78.5875 Y86.9688 I-0.0332 J2.5895
G01 Y91.0312
G03 X76.0312 Y93.5875 I-2.5895 J-0.0332
G01 X0.9827
G03 X-1.5875 Y91.0173 I0.0165 J-2.5867
G01 Y86.9827
G03 X0.9827 Y84.4125 I2.5867 J0.0165
G01 X9.9125
G01 Y63.5875
G01 X0.9688
G03 X-1.5875 Y61.0312 I0.0332 J-2.5895
G01 Y56.9688
G03 X0.9688 Y54.4125 I2.5895 J0.0332
G01 X9.9125
G01 Y37.5875
G01 X0.9688
G03 X-1.5875 Y35.0312 I0.0332 J-2.5895
G01 Y30.9827
G03 X0.9827 Y28.4125 I2.5867 J0.0165
G01 X9.9125
G01 Y7.5875
G01 X0.9827
G03 X-1.5875 Y5.0173 I0.0165 J-2.5867
G01 Y0.9688
G03 X0.9688 Y-1.5875 I2.5895 J0.0332
G01 X38.4931
G01 Z-9.0000 F15
G01 X76.0173 F65
G03 X78.5875 Y0.9827 I-0.0165 J2.5867
G01 Y5.0173
G03 X76.0173 Y7.5875 I-2.5867 J-0.0165
G01 X67.0875
G01 Y28.4125
G01 X76.0312
G03 X78.5875 Y30.9688 I-0.0332 J2.5895
G01 Y35.0312
G03 X76.0312 Y37.5875 I-2.5895 J-0.0332
G01 X67.0875
G01 Y54.4125
G01 X76.0312
G03 X78.5875 Y56.9688 I-0.0332 J2.5895
G01 Y61.0312
G03 X76.0312 Y63.5875 I-2.5895 J-0.0332
G01 X67.0875
G01 Y84.4125
G01 X76.0312
G03 X78.5875 Y86.9688 I-0.0332 J2.5895
G01 Y91.0312
G03 X76.0312 Y93.5875 I-2.5895 J-0.0332
G01 X0.9827
G03 X-1.5875 Y91.0173 I0.0165 J-2.5867
G01 Y86.9827
G03 X0.9827 Y84.4125 I2.5867 J0.0165
G01 X9.9125
G01 Y63.5875
G01 X0.9688
G03 X-1.5875 Y61.0312 I0.0332 J-2.5895
G01 Y56.9688
G03 X0.9688 Y54.4125 I2.5895 J0.0332
G01 X9.9125
G01 Y37.5875
G01 X0.9688
G03 X-1.5875 Y35.0312 I0.0332 J-2.5895
G01 Y30.9827
G03 X0.9827 Y28.4125 I2.5867 J0.0165
G01 X9.9125
G01 Y7.5875
G01 X0.9827
G03 X-1.5875 Y5.0173 I0.0165 J-2.5867
G01 Y0.9688
G03 X0.9688 Y-1.5875 I2.5895 J0.0332
G01 X38.4931
G01 Z-9.5000 F15
G01 X76.0173 F65
G03 X78.5875 Y0.9827 I-0.0165 J2.5867
G01 Y5.0173
G03 X76.0173 Y7.5875 I-2.5867 J-0.0165
G01 X67.0875
G01 Y28.4125
G01 X76.0312
G03 X78.5875 Y30.9688 I-0.0332 J2.5895
G01 Y35.0312
G03 X76.0312 Y37.5875 I-2.5895 J-0.0332
G01 X67.0875
G01 Y54.4125
G01 X76.0312
G03 X78.5875 Y56.9688 I-0.0332 J2.5895
G01 Y61.0312
G03 X76.0312 Y63.5875 I-2.5895 J-0.0332
G01 X67.0875
G01 Y84.4125
G01 X76.0312
G03 X78.5875 Y86.9688 I-0.0332 J2.5895
G01 Y91.0312
G03 X76.0312 Y93.5875 I-2.5895 J-0.0332
G01 X0.9827
G03 X-1.5875 Y91.0173 I0.0165 J-2.5867
G01 Y86.9827
G03 X0.9827 Y84.4125 I2.5867 J0.0165
G01 X9.9125
G01 Y63.5875
G01 X0.9688
G03 X-1.5875 Y61.0312 I0.0332 J-2.5895
G01 Y56.9688
G03 X0.9688 Y54.4125 I2.5895 J0.0332
G01 X9.9125
G01 Y37.5875
G01 X0.9688
G03 X-1.5875 Y35.0312 I0.0332 J-2.5895
G01 Y30.9827
G03 X0.9827 Y28.4125 I2.5867 J0.0165
G01 X9.9125
G01 Y7.5875
G01 X0.9827
G03 X-1.5875 Y5.0173 I0.0165 J-2.5867
G01 Y0.9688
G03 X0.9688 Y-1.5875 I2.5895 J0.0332
G01 X38.4931
G01 Z-10.0000 F15
G01 X76.0173 F65
G03 X78.5875 Y0.9827 I-0.0165 J2.5867
G01 Y5.0173
G03 X76.0173 Y7.5875 I-2.5867 J-0.0165
G01 X67.0875
G01 Y28.4125
G01 X76.0312
G03 X78.5875 Y30.9688 I-0.0332 J2.5895
G01 Y35.0312
G03 X76.0312 Y37.5875 I-2.5895 J-0.0332
G01 X67.0875
G01 Y54.4125
G01 X76.0312
G03 X78.5875 Y56.9688 I-0.0332 J2.5895
G01 Y61.0312
G03 X76.0312 Y63.5875 I-2.5895 J-0.0332
G01 X67.0875
G01 Y84.4125
G01 X76.0312
G03 X78.5875 Y86.9688 I-0.0332 J2.5895
G01 Y91.0312
G03 X76.0312 Y93.5875 I-2.5895 J-0.0332
G01 X0.9827
G03 X-1.5875 Y91.0173 I0.0165 J-2.5867
G01 Y86.9827
G03 X0.9827 Y84.4125 I2.5867 J0.0165
G01 X9.9125
G01 Y63.5875
G01 X0.9688
G03 X-1.5875 Y61.0312 I0.0332 J-2.5895
G01 Y56.9688
G03 X0.9688 Y54.4125 I2.5895 J0.0332
G01 X9.9125
G01 Y37.5875
G01 X0.9688
G03 X-1.5875 Y35.0312 I0.0332 J-2.5895
G01 Y30.9827
G03 X0.9827 Y28.4125 I2.5867 J0.0165
G01 X9.9125
G01 Y7.5875
G01 X0.9827
G03 X-1.5875 Y5.0173 I0.0165 J-2.5867
G01 Y0.9688
G03 X0.9688 Y-1.5875 I2.5895 J0.0332
G01 X38.4931
G00 Z5.0000
G00 X0.0000 Y0.0000

M05
M30
