(Project rapoukLegBasev3)
(Created by Estlcam version 11 build 11,245)
(Machining time about 00:13:40 hours)

(Required tools:)
(End mill 3mm)

G90
G91.1
M03 S4260
G00 Z5.0000


(No. 1: V??ezy 1)
G00 X12.0741 Y7.0926
G00 Z0.5000
G01 Z0.0000 F15 S4260
G01 Z-0.5000
G02 X9.8767 Y10.6418 I-0.0741 J2.4090 F65
G02 X14.0491 Y10.7703 I2.1233 J-1.1403
G02 X12.0741 Y7.0926 I-2.0491 J-1.2687
G01 Z-1.0000 F15
G02 X9.8767 Y10.6418 I-0.0741 J2.4090 F65
G02 X14.0491 Y10.7703 I2.1233 J-1.1403
G02 X12.0741 Y7.0926 I-2.0491 J-1.2687
G01 Z-1.5000 F15
G02 X9.8767 Y10.6418 I-0.0741 J2.4090 F65
G02 X14.0491 Y10.7703 I2.1233 J-1.1403
G02 X12.0741 Y7.0926 I-2.0491 J-1.2687
G01 Z-2.0000 F15
G02 X9.8767 Y10.6418 I-0.0741 J2.4090 F65
G02 X14.0491 Y10.7703 I2.1233 J-1.1403
G02 X12.0741 Y7.0926 I-2.0491 J-1.2687
G01 Z-2.5000 F15
G02 X9.8767 Y10.6418 I-0.0741 J2.4090 F65
G02 X14.0491 Y10.7703 I2.1233 J-1.1403
G02 X12.0741 Y7.0926 I-2.0491 J-1.2687
G01 Z-3.0000 F15
G02 X9.8767 Y10.6418 I-0.0741 J2.4090 F65
G02 X14.0491 Y10.7703 I2.1233 J-1.1403
G02 X12.0741 Y7.0926 I-2.0491 J-1.2687
G00 Z5.0000


(No. 2: Vn?j?? dr?ha 1)
G00 X9.0000 Y-1.5875 Z5.0000
G00 Z0.5000
G01 Z0.0000 F15
G01 Z-0.5000
G01 X18.0000 F65
G03 X19.5875 Y0.0000 I0.0000 J1.5875
G01 Y24.5000
G03 X18.0000 Y26.0875 I-1.5875 J0.0000
G01 X0.0000
G03 X-1.5875 Y24.5000 I0.0000 J-1.5875
G01 Y0.0000
G03 X0.0000 Y-1.5875 I1.5875 J0.0000
G01 X9.0000
G01 Z-1.0000 F15
G01 X18.0000 F65
G03 X19.5875 Y0.0000 I0.0000 J1.5875
G01 Y24.5000
G03 X18.0000 Y26.0875 I-1.5875 J0.0000
G01 X0.0000
G03 X-1.5875 Y24.5000 I0.0000 J-1.5875
G01 Y0.0000
G03 X0.0000 Y-1.5875 I1.5875 J0.0000
G01 X9.0000
G01 Z-1.5000 F15
G01 X18.0000 F65
G03 X19.5875 Y0.0000 I0.0000 J1.5875
G01 Y24.5000
G03 X18.0000 Y26.0875 I-1.5875 J0.0000
G01 X0.0000
G03 X-1.5875 Y24.5000 I0.0000 J-1.5875
G01 Y0.0000
G03 X0.0000 Y-1.5875 I1.5875 J0.0000
G01 X9.0000
G01 Z-2.0000 F15
G01 X18.0000 F65
G03 X19.5875 Y0.0000 I0.0000 J1.5875
G01 Y24.5000
G03 X18.0000 Y26.0875 I-1.5875 J0.0000
G01 X0.0000
G03 X-1.5875 Y24.5000 I0.0000 J-1.5875
G01 Y0.0000
G03 X0.0000 Y-1.5875 I1.5875 J0.0000
G01 X9.0000
G01 Z-2.5000 F15
G01 X18.0000 F65
G03 X19.5875 Y0.0000 I0.0000 J1.5875
G01 Y24.5000
G03 X18.0000 Y26.0875 I-1.5875 J0.0000
G01 X0.0000
G03 X-1.5875 Y24.5000 I0.0000 J-1.5875
G01 Y0.0000
G03 X0.0000 Y-1.5875 I1.5875 J0.0000
G01 X9.0000
G01 Z-3.0000 F15
G01 X18.0000 F65
G03 X19.5875 Y0.0000 I0.0000 J1.5875
G01 Y24.5000
G03 X18.0000 Y26.0875 I-1.5875 J0.0000
G01 X0.0000
G03 X-1.5875 Y24.5000 I0.0000 J-1.5875
G01 Y0.0000
G03 X0.0000 Y-1.5875 I1.5875 J0.0000
G01 X9.0000
G00 Z5.0000
G00 X0.0000 Y0.0000

M05
M30
