(Project rapoukLegv9)
(Created by Estlcam version 11 build 11,245)
(Machining time about 00:46:34 hours)

(Required tools:)
(End mill 3mm)

G90
G91.1
M03 S4260
G00 Z5.0000


(No. 1: V??ezy 1)
G00 X9.0765 Y34.0875
G00 Z0.5000
G01 Z0.0000 F15 S4260
G01 Z-0.5000
G01 X5.2951 F65
G01 X5.3151 Y34.0867
G01 X5.2751 Y34.0875
G01 X5.2675 Y34.0973
G01 X5.2723 Y34.1166
G01 X10.8993 Y56.6851
G01 X10.8943 Y56.6679
G01 X10.9062 Y56.7063
G01 X10.9084 Y56.6843
G01 X12.8830 Y34.1148
G01 X12.8853 Y34.0884
G01 X12.8580 Y34.0875
G01 X9.0765
G01 Z-1.0000 F15
G01 X5.2951 F65
G01 X5.3151 Y34.0867
G01 X5.2751 Y34.0875
G01 X5.2675 Y34.0973
G01 X5.2723 Y34.1166
G01 X10.8993 Y56.6851
G01 X10.8943 Y56.6679
G01 X10.9062 Y56.7063
G01 X10.9084 Y56.6843
G01 X12.8830 Y34.1148
G01 X12.8853 Y34.0884
G01 X12.8580 Y34.0875
G01 X9.0765
G01 Z-1.5000 F15
G01 X5.2951 F65
G01 X5.3151 Y34.0867
G01 X5.2751 Y34.0875
G01 X5.2675 Y34.0973
G01 X5.2723 Y34.1166
G01 X10.8993 Y56.6851
G01 X10.8943 Y56.6679
G01 X10.9062 Y56.7063
G01 X10.9084 Y56.6843
G01 X12.8830 Y34.1148
G01 X12.8853 Y34.0884
G01 X12.8580 Y34.0875
G01 X9.0765
G01 Z-2.0000 F15
G01 X5.2951 F65
G01 X5.3151 Y34.0867
G01 X5.2751 Y34.0875
G01 X5.2675 Y34.0973
G01 X5.2723 Y34.1166
G01 X10.8993 Y56.6851
G01 X10.8943 Y56.6679
G01 X10.9062 Y56.7063
G01 X10.9084 Y56.6843
G01 X12.8830 Y34.1148
G01 X12.8853 Y34.0884
G01 X12.8580 Y34.0875
G01 X9.0765
G01 Z-2.5000 F15
G01 X5.2951 F65
G01 X5.3151 Y34.0867
G01 X5.2751 Y34.0875
G01 X5.2675 Y34.0973
G01 X5.2723 Y34.1166
G01 X10.8993 Y56.6851
G01 X10.8943 Y56.6679
G01 X10.9062 Y56.7063
G01 X10.9084 Y56.6843
G01 X12.8830 Y34.1148
G01 X12.8853 Y34.0884
G01 X12.8580 Y34.0875
G01 X9.0765
G01 Z-3.0000 F15
G01 X5.2951 F65
G01 X5.3151 Y34.0867
G01 X5.2751 Y34.0875
G01 X5.2675 Y34.0973
G01 X5.2723 Y34.1166
G01 X10.8993 Y56.6851
G01 X10.8943 Y56.6679
G01 X10.9062 Y56.7063
G01 X10.9084 Y56.6843
G01 X12.8830 Y34.1148
G01 X12.8853 Y34.0884
G01 X12.8580 Y34.0875
G01 X9.0765
G01 Z-3.5000 F15
G01 X5.2951 F65
G01 X5.3151 Y34.0867
G01 X5.2751 Y34.0875
G01 X5.2675 Y34.0973
G01 X5.2723 Y34.1166
G01 X10.8993 Y56.6851
G01 X10.8943 Y56.6679
G01 X10.9062 Y56.7063
G01 X10.9084 Y56.6843
G01 X12.8830 Y34.1148
G01 X12.8853 Y34.0884
G01 X12.8580 Y34.0875
G01 X9.0765
G01 Z-4.0000 F15
G01 X5.2951 F65
G01 X5.3151 Y34.0867
G01 X5.2751 Y34.0875
G01 X5.2675 Y34.0973
G01 X5.2723 Y34.1166
G01 X10.8993 Y56.6851
G01 X10.8943 Y56.6679
G01 X10.9062 Y56.7063
G01 X10.9084 Y56.6843
G01 X12.8830 Y34.1148
G01 X12.8853 Y34.0884
G01 X12.8580 Y34.0875
G01 X9.0765
G01 Z-4.5000 F15
G01 X5.2951 F65
G01 X5.3151 Y34.0867
G01 X5.2751 Y34.0875
G01 X5.2675 Y34.0973
G01 X5.2723 Y34.1166
G01 X10.8993 Y56.6851
G01 X10.8943 Y56.6679
G01 X10.9062 Y56.7063
G01 X10.9084 Y56.6843
G01 X12.8830 Y34.1148
G01 X12.8853 Y34.0884
G01 X12.8580 Y34.0875
G01 X9.0765
G01 Z-5.0000 F15
G01 X5.2951 F65
G01 X5.3151 Y34.0867
G01 X5.2751 Y34.0875
G01 X5.2675 Y34.0973
G01 X5.2723 Y34.1166
G01 X10.8993 Y56.6851
G01 X10.8943 Y56.6679
G01 X10.9062 Y56.7063
G01 X10.9084 Y56.6843
G01 X12.8830 Y34.1148
G01 X12.8853 Y34.0884
G01 X12.8580 Y34.0875
G01 X9.0765
G00 Z5.0000


(No. 2: Vn?j?? dr?ha 1)
G00 X10.0087 Y-1.5875 Z5.0000
G00 Z0.5000
G01 Z0.0000 F15
G01 Z-0.5000
G01 X17.0173 F65
G03 X19.5875 Y0.9827 I-0.0165 J2.5867
G01 Y5.0000
G03 X18.0000 Y6.5875 I-1.5875 J0.0000
G01 X7.5875
G01 Y27.4125
G01 X18.0000
G03 X19.5875 Y29.0000 I0.0000 J1.5875
G01 X19.5806 Y34.1483
G01 X16.0104 Y74.9558
G03 X14.8121 Y76.3677 I-1.5824 J-0.1285
G01 X10.8121 Y77.3650
G03 X8.8877 Y76.2087 I-0.3841 J-1.5403
G01 X-1.5875 Y33.9900
G01 Y3.0000
G03 X-1.1225 Y1.8775 I1.5875 J0.0000
G01 X1.8775 Y-1.1225
G03 X3.0000 Y-1.5875 I1.1225 J1.1225
G01 X10.0087
G01 Z-1.0000 F15
G01 X17.0173 F65
G03 X19.5875 Y0.9827 I-0.0165 J2.5867
G01 Y5.0000
G03 X18.0000 Y6.5875 I-1.5875 J0.0000
G01 X7.5875
G01 Y27.4125
G01 X18.0000
G03 X19.5875 Y29.0000 I0.0000 J1.5875
G01 X19.5806 Y34.1483
G01 X16.0104 Y74.9558
G03 X14.8121 Y76.3677 I-1.5824 J-0.1285
G01 X10.8121 Y77.3650
G03 X8.8877 Y76.2087 I-0.3841 J-1.5403
G01 X-1.5875 Y33.9900
G01 Y3.0000
G03 X-1.1225 Y1.8775 I1.5875 J0.0000
G01 X1.8775 Y-1.1225
G03 X3.0000 Y-1.5875 I1.1225 J1.1225
G01 X10.0087
G01 Z-1.5000 F15
G01 X17.0173 F65
G03 X19.5875 Y0.9827 I-0.0165 J2.5867
G01 Y5.0000
G03 X18.0000 Y6.5875 I-1.5875 J0.0000
G01 X7.5875
G01 Y27.4125
G01 X18.0000
G03 X19.5875 Y29.0000 I0.0000 J1.5875
G01 X19.5806 Y34.1483
G01 X16.0104 Y74.9558
G03 X14.8121 Y76.3677 I-1.5824 J-0.1285
G01 X10.8121 Y77.3650
G03 X8.8877 Y76.2087 I-0.3841 J-1.5403
G01 X-1.5875 Y33.9900
G01 Y3.0000
G03 X-1.1225 Y1.8775 I1.5875 J0.0000
G01 X1.8775 Y-1.1225
G03 X3.0000 Y-1.5875 I1.1225 J1.1225
G01 X10.0087
G01 Z-2.0000 F15
G01 X17.0173 F65
G03 X19.5875 Y0.9827 I-0.0165 J2.5867
G01 Y5.0000
G03 X18.0000 Y6.5875 I-1.5875 J0.0000
G01 X7.5875
G01 Y27.4125
G01 X18.0000
G03 X19.5875 Y29.0000 I0.0000 J1.5875
G01 X19.5806 Y34.1483
G01 X16.0104 Y74.9558
G03 X14.8121 Y76.3677 I-1.5824 J-0.1285
G01 X10.8121 Y77.3650
G03 X8.8877 Y76.2087 I-0.3841 J-1.5403
G01 X-1.5875 Y33.9900
G01 Y3.0000
G03 X-1.1225 Y1.8775 I1.5875 J0.0000
G01 X1.8775 Y-1.1225
G03 X3.0000 Y-1.5875 I1.1225 J1.1225
G01 X10.0087
G01 Z-2.5000 F15
G01 X17.0173 F65
G03 X19.5875 Y0.9827 I-0.0165 J2.5867
G01 Y5.0000
G03 X18.0000 Y6.5875 I-1.5875 J0.0000
G01 X7.5875
G01 Y27.4125
G01 X18.0000
G03 X19.5875 Y29.0000 I0.0000 J1.5875
G01 X19.5806 Y34.1483
G01 X16.0104 Y74.9558
G03 X14.8121 Y76.3677 I-1.5824 J-0.1285
G01 X10.8121 Y77.3650
G03 X8.8877 Y76.2087 I-0.3841 J-1.5403
G01 X-1.5875 Y33.9900
G01 Y3.0000
G03 X-1.1225 Y1.8775 I1.5875 J0.0000
G01 X1.8775 Y-1.1225
G03 X3.0000 Y-1.5875 I1.1225 J1.1225
G01 X10.0087
G01 Z-3.0000 F15
G01 X17.0173 F65
G03 X19.5875 Y0.9827 I-0.0165 J2.5867
G01 Y5.0000
G03 X18.0000 Y6.5875 I-1.5875 J0.0000
G01 X7.5875
G01 Y27.4125
G01 X18.0000
G03 X19.5875 Y29.0000 I0.0000 J1.5875
G01 X19.5806 Y34.1483
G01 X16.0104 Y74.9558
G03 X14.8121 Y76.3677 I-1.5824 J-0.1285
G01 X10.8121 Y77.3650
G03 X8.8877 Y76.2087 I-0.3841 J-1.5403
G01 X-1.5875 Y33.9900
G01 Y3.0000
G03 X-1.1225 Y1.8775 I1.5875 J0.0000
G01 X1.8775 Y-1.1225
G03 X3.0000 Y-1.5875 I1.1225 J1.1225
G01 X10.0087
G01 Z-3.5000 F15
G01 X17.0173 F65
G03 X19.5875 Y0.9827 I-0.0165 J2.5867
G01 Y5.0000
G03 X18.0000 Y6.5875 I-1.5875 J0.0000
G01 X7.5875
G01 Y27.4125
G01 X18.0000
G03 X19.5875 Y29.0000 I0.0000 J1.5875
G01 X19.5806 Y34.1483
G01 X16.0104 Y74.9558
G03 X14.8121 Y76.3677 I-1.5824 J-0.1285
G01 X10.8121 Y77.3650
G03 X8.8877 Y76.2087 I-0.3841 J-1.5403
G01 X-1.5875 Y33.9900
G01 Y3.0000
G03 X-1.1225 Y1.8775 I1.5875 J0.0000
G01 X1.8775 Y-1.1225
G03 X3.0000 Y-1.5875 I1.1225 J1.1225
G01 X10.0087
G01 Z-4.0000 F15
G01 X17.0173 F65
G03 X19.5875 Y0.9827 I-0.0165 J2.5867
G01 Y5.0000
G03 X18.0000 Y6.5875 I-1.5875 J0.0000
G01 X7.5875
G01 Y27.4125
G01 X18.0000
G03 X19.5875 Y29.0000 I0.0000 J1.5875
G01 X19.5806 Y34.1483
G01 X16.0104 Y74.9558
G03 X14.8121 Y76.3677 I-1.5824 J-0.1285
G01 X10.8121 Y77.3650
G03 X8.8877 Y76.2087 I-0.3841 J-1.5403
G01 X-1.5875 Y33.9900
G01 Y3.0000
G03 X-1.1225 Y1.8775 I1.5875 J0.0000
G01 X1.8775 Y-1.1225
G03 X3.0000 Y-1.5875 I1.1225 J1.1225
G01 X10.0087
G01 Z-4.5000 F15
G01 X17.0173 F65
G03 X19.5875 Y0.9827 I-0.0165 J2.5867
G01 Y5.0000
G03 X18.0000 Y6.5875 I-1.5875 J0.0000
G01 X7.5875
G01 Y27.4125
G01 X18.0000
G03 X19.5875 Y29.0000 I0.0000 J1.5875
G01 X19.5806 Y34.1483
G01 X16.0104 Y74.9558
G03 X14.8121 Y76.3677 I-1.5824 J-0.1285
G01 X10.8121 Y77.3650
G03 X8.8877 Y76.2087 I-0.3841 J-1.5403
G01 X-1.5875 Y33.9900
G01 Y3.0000
G03 X-1.1225 Y1.8775 I1.5875 J0.0000
G01 X1.8775 Y-1.1225
G03 X3.0000 Y-1.5875 I1.1225 J1.1225
G01 X10.0087
G01 Z-5.0000 F15
G01 X17.0173 F65
G03 X19.5875 Y0.9827 I-0.0165 J2.5867
G01 Y5.0000
G03 X18.0000 Y6.5875 I-1.5875 J0.0000
G01 X7.5875
G01 Y27.4125
G01 X18.0000
G03 X19.5875 Y29.0000 I0.0000 J1.5875
G01 X19.5806 Y34.1483
G01 X16.0104 Y74.9558
G03 X14.8121 Y76.3677 I-1.5824 J-0.1285
G01 X10.8121 Y77.3650
G03 X8.8877 Y76.2087 I-0.3841 J-1.5403
G01 X-1.5875 Y33.9900
G01 Y3.0000
G03 X-1.1225 Y1.8775 I1.5875 J0.0000
G01 X1.8775 Y-1.1225
G03 X3.0000 Y-1.5875 I1.1225 J1.1225
G01 X10.0087
G00 Z5.0000
G00 X0.0000 Y0.0000

M05
M30
